(6mm Pocket Guld)
(T3 D=6. CR=0. - ZMIN=-10.5 - flat end mill)
G90
(When using Fusion for Personal Use, the feedrate of rapid)
(moves is reduced to match the feedrate of cutting moves,)
(which can increase machining time. Unrestricted rapid moves)
(are available with a Fusion Subscription.)
G53 G0 Z0.

(2D Adaptive2)
T3 M6 (flat end mill D=6. Flat Endmill (4 flutes))
S5000 M3
G64
G90 G94
G54
G43 H3
G0 X617.216 Y1009.06
Z15.
G1 Z5. F1000
Z2.5
G3 X620.436 Y1011.715 Z2.338 I0.282 J2.938 F333.3
X620.339 Y1012.796 Z2.3 I-2.938 J0.282
X616.704 Y1014.837 Z2.138 I-2.838 J-0.797
X615.732 Y1014.357 Z2.1 I0.797 J-2.838
X615.144 Y1010.234 Z1.938 I1.767 J-2.355
X615.941 Y1009.503 Z1.9 I2.355 J1.767
X619.993 Y1010.442 Z1.738 I1.556 J2.496
X620.387 Y1011.449 Z1.7 I-2.496 J1.556
X618.049 Y1014.883 Z1.538 I-2.886 J0.548
X616.969 Y1014.887 Z1.5 I-0.548 J-2.886
X614.615 Y1011.47 Z1.338 I0.531 J-2.885
X615.001 Y1010.463 Z1.3 I2.886 J0.531
X619.033 Y1009.503 Z1.138 I2.496 J1.536
X619.831 Y1010.227 Z1.1 I-1.536 J2.496
X619.27 Y1014.328 Z0.938 I-2.331 J1.77
X618.308 Y1014.81 Z0.9 I-1.77 J-2.331
X614.691 Y1012.808 Z0.738 I-0.807 J-2.81
X614.589 Y1011.738 Z0.7 I2.81 J-0.807
X617.76 Y1009.092 Z0.538 I2.908 J0.262
X618.793 Y1009.383 Z0.5 I-0.262 J2.908
X620.113 Y1013.291 Z0.338 I-1.294 J2.614
X619.469 Y1014.148 Z0.3 I-2.614 J-1.294
X615.353 Y1013.967 Z0.138 I-1.967 J-2.148
X614.787 Y1013.058 Z0.1 I2.148 J-1.967
X616.441 Y1009.29 Z-0.062 I2.711 J-1.057
X617.492 Y1009.091 Z-0.1 I1.057 J2.711
X620.404 Y1011.992 Z-0.262 I0.006 J2.906
X620.21 Y1013.042 Z-0.3 I-2.906 J0.006
X616.458 Y1014.707 Z-0.462 I-2.708 J-1.044
X615.55 Y1014.147 Z-0.5 I1.044 J-2.708
X615.353 Y1010.052 Z-0.662 I1.949 J-2.146
X616.203 Y1009.408 Z-0.7 I2.146 J1.949
X620.087 Y1010.703 Z-0.862 I1.295 J2.59
X620.38 Y1011.727 Z-0.9 I-2.59 J1.295
X617.772 Y1014.877 Z-1.062 I-2.879 J0.271
X616.713 Y1014.781 Z-1.1 I-0.271 J-2.879
X614.721 Y1011.214 Z-1.262 I0.787 J-2.779
X615.193 Y1010.263 Z-1.3 I2.779 J0.787
X619.233 Y1009.694 Z-1.462 I2.305 J1.736
X619.948 Y1010.477 Z-1.5 I-1.736 J2.305
X619.02 Y1014.445 Z-1.662 I-2.448 J1.52
X618.033 Y1014.829 Z-1.7 I-1.52 J-2.448
X614.672 Y1012.532 Z-1.862 I-0.532 J-2.829
X614.671 Y1011.474 Z-1.9 I2.829 J-0.532
X618.023 Y1009.174 Z-2.062 I2.826 J0.526
X619.009 Y1009.555 Z-2.1 I-0.526 J2.826
X619.941 Y1013.507 Z-2.262 I-1.51 J2.442
X619.231 Y1014.287 Z-2.3 I-2.442 J-1.51
X615.214 Y1013.73 Z-2.462 I-1.73 J-2.287
X614.744 Y1012.786 Z-2.5 I2.287 J-1.73
X616.713 Y1009.246 Z-2.662 I2.754 J-0.785
X617.761 Y1009.149 Z-2.7 I0.785 J2.754
X620.347 Y1012.26 Z-2.862 I-0.263 J2.849
X620.059 Y1013.272 Z-2.9 I-2.849 J-0.263
X616.229 Y1014.557 Z-3.062 I-2.558 J-1.273
X615.39 Y1013.924 Z-3.1 I1.273 J-2.558
X615.576 Y1009.893 Z-3.262 I2.108 J-1.923
X616.468 Y1009.34 Z-3.3 I1.923 J2.108
X620.155 Y1010.968 Z-3.462 I1.03 J2.658
X620.348 Y1011.998 Z-3.5 I-2.658 J1.03
X617.498 Y1014.848 I-2.85 J0.
X614.647 Y1011.998 I0. J-2.85
X617.498 Y1009.148 I2.85 J0.
X620.348 Y1011.998 I0. J2.85
G1 X620.351 Y1012.219 F1000
X620.558 Y1013.081
X620.632 Y1013.212
X620.69 Y1013.35
X620.734 Y1013.501
X620.767 Y1013.671
X620.783 Y1013.86
X620.781 Y1014.065
X620.757 Y1014.286
X620.707 Y1014.519
X620.63 Y1014.762
X620.522 Y1015.011
X620.382 Y1015.263
X620.209 Y1015.514
X620.001 Y1015.758
X619.758 Y1015.992
X619.481 Y1016.21
X619.171 Y1016.407
X618.831 Y1016.579
X618.462 Y1016.722
X618.069 Y1016.831
X617.656 Y1016.902
X617.226 Y1016.933
X616.786 Y1016.92
X616.34 Y1016.863
X615.894 Y1016.761
X615.454 Y1016.612
X615.024 Y1016.417
X614.611 Y1016.179
X614.219 Y1015.897
X613.855 Y1015.575
X613.521 Y1015.216
X613.222 Y1014.823
X612.963 Y1014.4
X612.745 Y1013.95
X612.572 Y1013.48
X612.447 Y1012.993
X612.37 Y1012.494
X612.343 Y1011.989
X612.365 Y1011.483
X612.439 Y1010.98
X612.562 Y1010.487
X612.733 Y1010.007
X612.951 Y1009.546
X613.214 Y1009.108
X613.52 Y1008.699
X613.865 Y1008.321
X614.246 Y1007.98
X614.659 Y1007.677
X615.1 Y1007.417
X615.565 Y1007.202
X616.049 Y1007.034
X616.547 Y1006.914
X617.055 Y1006.845
X617.568 Y1006.826
X618.079 Y1006.858
X618.586 Y1006.941
X619.081 Y1007.074
X619.561 Y1007.255
X620.021 Y1007.482
X620.456 Y1007.754
X620.862 Y1008.068
X621.235 Y1008.421
X621.571 Y1008.809
X621.867 Y1009.228
X622.304 Y1009.999
X622.693 Y1010.795
X622.967 Y1011.506
X623.144 Y1012.15
X623.25 Y1012.767
X623.291 Y1013.36
X623.274 Y1013.936
X623.201 Y1014.5
X623.073 Y1015.052
X622.891 Y1015.589
X622.655 Y1016.108
X622.366 Y1016.607
X622.024 Y1017.08
X621.633 Y1017.522
X621.193 Y1017.929
X620.708 Y1018.296
X620.181 Y1018.619
X619.613 Y1018.893
X619.011 Y1019.113
X618.378 Y1019.275
X617.721 Y1019.375
X617.048 Y1019.411
X616.364 Y1019.378
X615.679 Y1019.278
X614.998 Y1019.107
X614.331 Y1018.867
X613.684 Y1018.56
X613.065 Y1018.187
X612.483 Y1017.75
X611.942 Y1017.255
X611.451 Y1016.706
X611.013 Y1016.107
X610.636 Y1015.465
X610.323 Y1014.785
X610.077 Y1014.075
X609.903 Y1013.342
X609.802 Y1012.593
X609.775 Y1011.836
X609.824 Y1011.078
X609.948 Y1010.328
X610.146 Y1009.592
X610.416 Y1008.878
X610.756 Y1008.194
X611.163 Y1007.546
X611.632 Y1006.941
X612.16 Y1006.386
X612.74 Y1005.885
X613.367 Y1005.443
X614.035 Y1005.066
X614.738 Y1004.757
X615.468 Y1004.519
X616.218 Y1004.354
X616.981 Y1004.264
X617.749 Y1004.251
X618.516 Y1004.314
X619.272 Y1004.452
X620.01 Y1004.665
X620.725 Y1004.949
X621.407 Y1005.304
X622.051 Y1005.724
X622.656 Y1006.21
X623.288 Y1006.831
X623.858 Y1007.51
X624.369 Y1008.234
X624.818 Y1008.998
X625.2 Y1009.797
X625.509 Y1010.628
X625.739 Y1011.484
X625.885 Y1012.356
X625.943 Y1013.224
X625.914 Y1014.083
X625.802 Y1014.928
X625.607 Y1015.753
X625.332 Y1016.554
X624.979 Y1017.325
X624.549 Y1018.06
X624.046 Y1018.752
X623.473 Y1019.395
X622.834 Y1019.984
X622.132 Y1020.511
X621.374 Y1020.971
X621.267 Y1021.022
X621.128 Y1021.076
X620.984 Y1021.109
X620.835 Y1021.12
X614.984
X614.305 Y1021.086
X613.741 Y1021.001
X613.123 Y1020.844
X612.458 Y1020.603
X611.798 Y1020.287
X611.135 Y1019.883
X610.469 Y1019.382
X609.824 Y1018.787
X609.235 Y1018.125
X608.712 Y1017.409
X608.516 Y1017.081
X608.439 Y1016.919
X608.391 Y1016.747
X608.375 Y1016.568
G3 X608.995 Y1015.99 Z-3.3 I0.6 J0.021
X609.304 Y1016.088 I-0.021 J0.6
G1 X615.292 Y1020.019
G3 X615.562 Y1020.5 I-0.329 J0.502
G1 X615.559 Y1020.587 Z-3.318
X615.543 Y1020.672 Z-3.337
G3 X614.984 Y1021.12 Z-3.5 I-0.581 J-0.152
G1 X610.754
X610.44 Y1021.104
X610.072 Y1021.049
X609.652 Y1020.942
X609.222 Y1020.786
X608.943 Y1020.653
X608.753 Y1020.534
X608.594 Y1020.375
X608.474 Y1020.185
X608.4 Y1019.974
X608.375 Y1019.751
G3 X608.995 Y1019.172 Z-3.3 I0.6 J0.021
G1 X609.068 Y1019.179
X609.14 Y1019.195
X609.21 Y1019.22
X610.968 Y1019.968
G3 X611.333 Y1020.5 I-0.235 J0.552
X610.754 Y1021.12 Z-3.5 I-0.6 J0.021
G1 X609.143
X608.942 Y1021.118
X608.841 Y1021.102
X608.791 Y1021.087
X608.74 Y1021.067
X608.705 Y1021.05
X608.622 Y1020.997
X608.581 Y1020.962
X608.539 Y1020.92
X608.483 Y1020.849
X608.452 Y1020.799
X608.427 Y1020.748
X608.407 Y1020.698
X608.392 Y1020.648
X608.376 Y1020.547
X608.375 Y1020.446
Y1009.17
X608.404 Y1008.601
X608.485 Y1008.061
X608.63 Y1007.49
X608.859 Y1006.858
X609.16 Y1006.229
X609.551 Y1005.586
X610.044 Y1004.931
X610.635 Y1004.291
X611.297 Y1003.703
X612.013 Y1003.18
X612.291 Y1003.015
X612.452 Y1002.938
X612.624 Y1002.891
X612.802 Y1002.875
G3 X613.38 Y1003.495 Z-3.3 I-0.021 J0.6
X613.279 Y1003.809 I-0.6 J-0.021
G1 X609.473 Y1009.483
G3 X608.995 Y1009.749 I-0.498 J-0.334
X608.375 Y1009.17 Z-3.5 I-0.021 J-0.6
G1 Y1005.143
X608.39 Y1004.843
X608.445 Y1004.475
X608.549 Y1004.069
X608.704 Y1003.64
X608.798 Y1003.443
X608.917 Y1003.253
X609.076 Y1003.094
X609.266 Y1002.974
X609.477 Y1002.9
X609.7 Y1002.875
G3 X610.279 Y1003.495 Z-3.3 I-0.021 J0.6
G1 X610.272 Y1003.569
X610.256 Y1003.641
X610.231 Y1003.711
X609.526 Y1005.358
G3 X608.995 Y1005.721 I-0.552 J-0.236
G1 X608.908 Y1005.718 Z-3.318
X608.823 Y1005.702 Z-3.337
G3 X608.375 Y1005.143 Z-3.5 I0.152 J-0.581
G1 Y1003.532
X608.378 Y1003.431
X608.396 Y1003.33
X608.413 Y1003.28
X608.434 Y1003.23
X608.461 Y1003.179
X608.495 Y1003.129
X608.539 Y1003.075
X608.589 Y1003.025
X608.64 Y1002.985
X608.69 Y1002.953
X608.74 Y1002.928
X608.791 Y1002.908
X608.841 Y1002.893
X608.942 Y1002.877
X609.143 Y1002.875
X620.22
X620.928 Y1002.91
X621.447 Y1002.989
X622.028 Y1003.136
X622.654 Y1003.363
X623.298 Y1003.672
X624. Y1004.099
X624.708 Y1004.632
X625.362 Y1005.23
X625.96 Y1005.884
X626.417 Y1006.478
X626.531 Y1006.665
X626.601 Y1006.871
X626.625 Y1007.089
G3 X626.005 Y1007.667 Z-3.3 I-0.6 J-0.021
X625.709 Y1007.577 I0.021 J-0.6
G1 X619.924 Y1003.984
G3 X619.641 Y1003.495 I0.317 J-0.51
X620.22 Y1002.875 Z-3.5 I0.6 J-0.021
G1 X624.247
X624.737 Y1002.9
X625.114 Y1002.956
X625.542 Y1003.065
X625.995 Y1003.229
X626.057 Y1003.259
X626.247 Y1003.378
X626.406 Y1003.536
X626.526 Y1003.726
X626.6 Y1003.938
X626.625 Y1004.161
G3 X626.005 Y1004.739 Z-3.3 I-0.6 J-0.021
G1 X625.94 Y1004.734
X625.875 Y1004.721
X625.813 Y1004.701
X624.056 Y1004.036
G3 X623.669 Y1003.495 I0.212 J-0.561
G1 X623.672 Y1003.408 Z-3.318
X623.688 Y1003.323 Z-3.337
G3 X624.247 Y1002.875 Z-3.5 I0.581 J0.152
G1 X625.859
X626.06 Y1002.877
X626.156 Y1002.894
X626.252 Y1002.928
X626.312 Y1002.958
X626.362 Y1002.992
X626.412 Y1003.031
X626.463 Y1003.079
X626.505 Y1003.129
X626.539 Y1003.179
X626.566 Y1003.23
X626.587 Y1003.28
X626.604 Y1003.33
X626.622 Y1003.431
X626.625 Y1003.532
Y1017.426
X626.6 Y1017.93
X626.53 Y1018.395
X626.402 Y1018.897
X626.202 Y1019.449
X625.93 Y1020.018
X625.548 Y1020.646
X625.491 Y1020.722
X625.331 Y1020.889
X625.138 Y1021.015
X624.921 Y1021.093
X624.692 Y1021.12
G3 X624.113 Y1020.5 Z-3.3 I0.021 J-0.6
G1 X624.12 Y1020.426
X624.136 Y1020.354
X624.161 Y1020.285
X625.474 Y1017.211
G3 X626.005 Y1016.847 I0.552 J0.236
G1 X626.092 Y1016.85 Z-3.318
X626.177 Y1016.866 Z-3.337
G3 X626.625 Y1017.426 Z-3.5 I-0.152 J0.581
G1 Y1020.446
X626.624 Y1020.547
X626.608 Y1020.648
X626.593 Y1020.698
X626.573 Y1020.748
X626.548 Y1020.799
X626.517 Y1020.849
X626.463 Y1020.915
X626.375 Y1020.994
X626.331 Y1021.025
X626.287 Y1021.05
X626.261 Y1021.063
X626.211 Y1021.084
X626.161 Y1021.1
X626.06 Y1021.118
X625.859 Y1021.12
X620.835
G3 X620.272 Y1020.655 I0.021 J-0.6
G1 X620.251 Y1020.564 Z-3.493
X620.23 Y1020.475 Z-3.471
X620.21 Y1020.39 Z-3.435
X620.192 Y1020.312 Z-3.385
X620.176 Y1020.242 Z-3.324
X620.162 Y1020.182 Z-3.253
X620.151 Y1020.134 Z-3.172
X620.143 Y1020.099 Z-3.085
X620.138 Y1020.078 Z-2.994
X620.137 Y1020.071 Z-2.9
Z15.
X117.631 Y9.149
Z5.
Z-2.3
Z-2.9
X117.633 Y9.156 Z-2.994
X117.639 Y9.178 Z-3.085
X117.648 Y9.213 Z-3.172
X117.66 Y9.26 Z-3.253
X117.675 Y9.32 Z-3.324
X117.693 Y9.389 Z-3.385
X117.713 Y9.467 Z-3.435
X117.734 Y9.551 Z-3.471
X117.757 Y9.64 Z-3.493
X117.78 Y9.731 Z-3.5
G3 X118.25 Y12.997 I-14.839 J3.801
G1 Y13.46
X118.248 Y13.498
X118.132 Y13.674
X117.969 Y13.873
X117.75 Y14.093
X117.46 Y14.332
X117.078 Y14.588
X116.574 Y14.857
X115.893 Y15.137
X115.044 Y15.392
X114.176 Y15.572
X113.299 Y15.698
X112.418 Y15.787
X111.534 Y15.85
X110.649 Y15.894
X109.763 Y15.926
X108.877 Y15.948
X107.991 Y15.963
X107.105 Y15.974
X106.219 Y15.982
X105.333 Y15.987
X104.447 Y15.991
X102.675 Y15.995
X100.016 Y15.998
X92.927 Y16.
X74.25
X73.991 Y15.966
X73.75 Y15.866
X73.543 Y15.707
X73.384 Y15.5
X73.284 Y15.259
X73.25 Y15.
G3 X73.715 Y14.436 I0.6 J0.021
G1 X73.806 Y14.415 Z-3.493
X73.895 Y14.395 Z-3.471
X73.98 Y14.375 Z-3.435
X74.058 Y14.357 Z-3.385
X74.128 Y14.341 Z-3.324
X74.188 Y14.327 Z-3.253
X74.236 Y14.316 Z-3.172
X74.271 Y14.308 Z-3.085
X74.292 Y14.303 Z-2.994
X74.299 Y14.301 Z-2.9
Z5.
X117.722 Y12.191
Z-2.3
Z-2.9
X117.726 Y12.197 Z-2.994
X117.737 Y12.216 Z-3.085
X117.755 Y12.247 Z-3.172
X117.781 Y12.289 Z-3.253
X117.812 Y12.342 Z-3.324
X117.848 Y12.404 Z-3.385
X117.889 Y12.473 Z-3.435
X117.934 Y12.547 Z-3.471
X117.981 Y12.626 Z-3.493
X118.029 Y12.707 Z-3.5
G3 X118.25 Y13.46 I-1.36 J0.809
G1 Y14.607
X118.243 Y14.757
X118.194 Y14.974
X118.11 Y15.226
X117.999 Y15.477
X117.837 Y15.761
X117.618 Y16.069
X117.352 Y16.375
X116.995 Y16.71
X116.564 Y17.042
X116.007 Y17.388
X115.292 Y17.74
X114.462 Y18.05
X113.608 Y18.287
X112.741 Y18.467
X111.865 Y18.602
X110.985 Y18.704
X110.102 Y18.781
X109.218 Y18.838
X108.333 Y18.88
X107.447 Y18.912
X106.561 Y18.935
X105.675 Y18.952
X104.789 Y18.965
X103.903 Y18.975
X103.017 Y18.981
X102.131 Y18.986
X100.359 Y18.993
X97.7 Y18.997
X93.27 Y18.999
X76.433 Y19.
X75.548 Y18.975
X74.857 Y18.893
X74.279 Y18.766
X73.939 Y18.655
X73.713 Y18.548
X73.52 Y18.388
X73.373 Y18.186
X73.281 Y17.953
X73.25 Y17.705
Y16.016
G3 X73.715 Y15.452 I0.6 J0.021
G1 X73.806 Y15.431 Z-3.493
X73.895 Y15.41 Z-3.471
X73.98 Y15.391 Z-3.435
X74.058 Y15.373 Z-3.385
X74.128 Y15.356 Z-3.324
X74.188 Y15.343 Z-3.253
X74.236 Y15.332 Z-3.172
X74.271 Y15.324 Z-3.085
X74.292 Y15.319 Z-2.994
X74.299 Y15.317 Z-2.9
Z5.
X117.722 Y13.338
Z-2.3
Z-2.9
X117.726 Y13.344 Z-2.994
X117.737 Y13.363 Z-3.085
X117.755 Y13.394 Z-3.172
X117.781 Y13.436 Z-3.253
X117.812 Y13.489 Z-3.324
X117.848 Y13.55 Z-3.385
X117.889 Y13.619 Z-3.435
X117.934 Y13.694 Z-3.471
X117.981 Y13.773 Z-3.493
X118.029 Y13.853 Z-3.5
G3 X118.25 Y14.607 I-1.36 J0.809
G1 Y16.619
X118.239 Y16.844
X118.2 Y17.104
X118.133 Y17.369
X118.022 Y17.673
X117.865 Y18.
X117.661 Y18.335
X117.378 Y18.712
X117.041 Y19.077
X116.594 Y19.474
X116.048 Y19.87
X115.36 Y20.272
X114.554 Y20.64
X113.718 Y20.935
X112.864 Y21.17
X111.997 Y21.355
X111.123 Y21.502
X110.244 Y21.616
X109.363 Y21.705
X108.479 Y21.774
X107.595 Y21.828
X106.71 Y21.869
X105.824 Y21.901
X104.938 Y21.925
X104.052 Y21.943
X103.166 Y21.957
X102.28 Y21.968
X101.394 Y21.976
X100.508 Y21.982
X99.622 Y21.987
X97.85 Y21.993
X95.191 Y21.997
X90.761 Y21.999
X79.241 Y22.
X78.355 Y21.999
X77.469 Y21.99
X76.584 Y21.954
X75.701 Y21.875
X74.856 Y21.741
X74.232 Y21.577
X73.901 Y21.454
X73.686 Y21.342
X73.504 Y21.183
X73.366 Y20.984
X73.279 Y20.757
X73.25 Y20.517
Y17.705
G3 X73.715 Y17.141 I0.6 J0.021
G1 X73.806 Y17.12 Z-3.493
X73.895 Y17.099 Z-3.471
X73.98 Y17.08 Z-3.435
X74.058 Y17.061 Z-3.385
X74.128 Y17.045 Z-3.324
X74.188 Y17.032 Z-3.253
X74.236 Y17.021 Z-3.172
X74.271 Y17.012 Z-3.085
X74.292 Y17.008 Z-2.994
X74.299 Y17.006 Z-2.9
Z5.
X117.722 Y15.35
Z-2.3
Z-2.9
X117.726 Y15.356 Z-2.994
X117.737 Y15.375 Z-3.085
X117.755 Y15.406 Z-3.172
X117.781 Y15.449 Z-3.253
X117.812 Y15.501 Z-3.324
X117.848 Y15.563 Z-3.385
X117.889 Y15.632 Z-3.435
X117.934 Y15.706 Z-3.471
X117.981 Y15.785 Z-3.493
X118.029 Y15.866 Z-3.5
G3 X118.25 Y16.619 I-1.36 J0.809
G1 Y19.034
X118.234 Y19.347
X118.194 Y19.614
X118.119 Y19.912
X117.996 Y20.251
X117.834 Y20.589
X117.598 Y20.976
X117.308 Y21.362
X116.917 Y21.785
X116.448 Y22.202
X115.839 Y22.644
X115.074 Y23.09
X114.268 Y23.459
X113.436 Y23.762
X112.585 Y24.009
X111.722 Y24.21
X110.851 Y24.373
X109.974 Y24.504
X109.094 Y24.609
X108.212 Y24.693
X107.329 Y24.759
X106.444 Y24.812
X105.559 Y24.854
X104.673 Y24.887
X103.788 Y24.912
X102.902 Y24.932
X102.016 Y24.948
X101.13 Y24.96
X100.244 Y24.969
X99.357 Y24.977
X98.471 Y24.982
X97.585 Y24.986
X95.813 Y24.992
X93.155 Y24.997
X88.724 Y24.999
X80.749 Y25.
X79.863 Y24.998
X78.977 Y24.989
X78.091 Y24.966
X77.206 Y24.922
X76.323 Y24.848
X75.445 Y24.729
X74.632 Y24.558
X74.022 Y24.365
X73.855 Y24.293
X73.654 Y24.177
X73.484 Y24.018
X73.357 Y23.823
X73.277 Y23.605
X73.25 Y23.374
Y20.517
G3 X73.715 Y19.953 I0.6 J0.021
G1 X73.806 Y19.932 Z-3.493
X73.895 Y19.911 Z-3.471
X73.98 Y19.892 Z-3.435
X74.058 Y19.874 Z-3.385
X74.128 Y19.857 Z-3.324
X74.188 Y19.844 Z-3.253
X74.236 Y19.833 Z-3.172
X74.271 Y19.825 Z-3.085
X74.292 Y19.82 Z-2.994
X74.299 Y19.818 Z-2.9
Z5.
X117.722 Y17.765
Z-2.3
Z-2.9
X117.726 Y17.771 Z-2.994
X117.737 Y17.79 Z-3.085
X117.755 Y17.821 Z-3.172
X117.781 Y17.863 Z-3.253
X117.812 Y17.916 Z-3.324
X117.848 Y17.978 Z-3.385
X117.889 Y18.047 Z-3.435
X117.934 Y18.121 Z-3.471
X117.981 Y18.2 Z-3.493
X118.029 Y18.281 Z-3.5
G3 X118.25 Y19.034 I-1.36 J0.809
G1 Y21.65
X118.234 Y21.97
X118.189 Y22.266
X118.113 Y22.567
X117.987 Y22.916
X117.808 Y23.288
X117.572 Y23.676
X117.253 Y24.1
X116.853 Y24.534
X116.345 Y24.985
X115.694 Y25.457
X114.929 Y25.904
X114.126 Y26.278
X113.296 Y26.591
X112.449 Y26.85
X111.589 Y27.065
X110.721 Y27.242
X109.847 Y27.388
X108.969 Y27.507
X108.088 Y27.604
X107.206 Y27.684
X106.322 Y27.748
X105.437 Y27.8
X104.552 Y27.841
X103.667 Y27.875
X102.781 Y27.901
X101.895 Y27.923
X101.009 Y27.939
X100.123 Y27.953
X99.237 Y27.963
X98.351 Y27.971
X97.465 Y27.978
X96.579 Y27.983
X94.807 Y27.99
X92.148 Y27.995
X88.604 Y27.998
X83.287 Y28.
X82.401 Y27.999
X81.515 Y27.998
X80.629 Y27.992
X79.743 Y27.978
X78.857 Y27.953
X77.972 Y27.912
X77.088 Y27.847
X76.207 Y27.748
X75.333 Y27.606
X74.535 Y27.419
X73.935 Y27.214
X73.835 Y27.169
X73.639 Y27.051
X73.476 Y26.892
X73.353 Y26.7
X73.276 Y26.486
X73.25 Y26.259
Y23.374
G3 X73.715 Y22.811 I0.6 J0.021
G1 X73.806 Y22.789 Z-3.493
X73.895 Y22.769 Z-3.471
X73.98 Y22.749 Z-3.435
X74.058 Y22.731 Z-3.385
X74.128 Y22.715 Z-3.324
X74.188 Y22.701 Z-3.253
X74.236 Y22.69 Z-3.172
X74.271 Y22.682 Z-3.085
X74.292 Y22.677 Z-2.994
X74.299 Y22.676 Z-2.9
Z5.
X117.722 Y20.381
Z-2.3
Z-2.9
X117.726 Y20.388 Z-2.994
X117.737 Y20.406 Z-3.085
X117.755 Y20.437 Z-3.172
X117.781 Y20.48 Z-3.253
X117.812 Y20.532 Z-3.324
X117.848 Y20.594 Z-3.385
X117.889 Y20.663 Z-3.435
X117.934 Y20.738 Z-3.471
X117.981 Y20.816 Z-3.493
X118.029 Y20.897 Z-3.5
G3 X118.25 Y21.65 I-1.36 J0.809
G1 Y24.468
X118.24 Y24.674
X118.194 Y24.978
X118.113 Y25.295
X117.987 Y25.644
X117.797 Y26.039
X117.558 Y26.433
X117.223 Y26.878
X116.812 Y27.324
X116.279 Y27.797
X116.262 Y27.81
X116.081 Y27.914
X115.883 Y27.978
X115.675 Y28.
G3 X115.096 Y27.38 Z-3.3 I0.021 J-0.6
X115.198 Y27.066 I0.6 J0.02
G1 X117.152 Y24.154
G3 X117.63 Y23.889 I0.498 J0.334
X118.25 Y24.468 Z-3.5 I0.02 J0.6
G1 Y26.48
X118.254 Y26.682
X118.267 Y26.883
X118.272 Y27.256
X118.27 Y27.277
X118.222 Y27.491
X118.121 Y27.685
X117.972 Y27.845
X117.786 Y27.961
X117.577 Y28.024
X117.358 Y28.03
G3 X116.817 Y27.377 Z-3.3 I0.057 J-0.597
G1 X116.829 Y27.301
X116.851 Y27.227
X116.882 Y27.156
X117.137 Y26.665
G3 X117.611 Y26.345 I0.533 J0.276
X118.267 Y26.883 Z-3.5 I0.058 J0.597
G1 X118.279 Y27.084
X118.297 Y27.285
X118.314 Y27.386
X118.317 Y27.487
X118.303 Y27.587
X118.29 Y27.638
X118.271 Y27.688
X118.227 Y27.773
X118.197 Y27.816
X118.162 Y27.859
X118.132 Y27.889
X118.047 Y27.958
X117.961 Y28.008
X117.911 Y28.03
X117.861 Y28.046
X117.76 Y28.065
X117.66 Y28.066
X117.559 Y28.051
X117.358 Y28.03
X116.956 Y28.006
X116.755 Y28.
X91.428
G3 X90.865 Y27.535 I0.021 J-0.6
G1 X90.843 Y27.444 Z-3.493
X90.823 Y27.355 Z-3.471
X90.803 Y27.27 Z-3.435
X90.785 Y27.192 Z-3.385
X90.769 Y27.122 Z-3.324
X90.755 Y27.062 Z-3.253
X90.744 Y27.014 Z-3.172
X90.736 Y26.979 Z-3.085
X90.731 Y26.958 Z-2.994
X90.73 Y26.951 Z-2.9
Z5.
X82.848 Y27.472
Z-2.3
Z-2.9
X82.842 Y27.476 Z-2.994
X82.823 Y27.487 Z-3.085
X82.792 Y27.505 Z-3.172
X82.75 Y27.531 Z-3.253
X82.697 Y27.562 Z-3.324
X82.636 Y27.598 Z-3.385
X82.567 Y27.639 Z-3.435
X82.492 Y27.684 Z-3.471
X82.413 Y27.731 Z-3.493
X82.332 Y27.779 Z-3.5
G3 X81.579 Y28. I-0.809 J-1.36
G1 X74.745
X74.544 Y28.006
X74.142 Y28.03
X73.941 Y28.051
X73.84 Y28.066
X73.74 Y28.065
X73.639 Y28.046
X73.589 Y28.03
X73.539 Y28.008
X73.453 Y27.958
X73.368 Y27.889
X73.338 Y27.858
X73.302 Y27.816
X73.273 Y27.773
X73.229 Y27.688
X73.21 Y27.638
X73.197 Y27.587
X73.183 Y27.487
X73.186 Y27.386
X73.203 Y27.285
X73.221 Y27.084
X73.246 Y26.682
X73.25 Y26.48
Y26.259
G3 X73.715 Y25.695 I0.6 J0.021
G1 X73.806 Y25.674 Z-3.493
X73.895 Y25.654 Z-3.471
X73.98 Y25.634 Z-3.435
X74.058 Y25.616 Z-3.385
X74.128 Y25.6 Z-3.324
X74.188 Y25.586 Z-3.253
X74.236 Y25.575 Z-3.172
X74.271 Y25.567 Z-3.085
X74.292 Y25.562 Z-2.994
X74.299 Y25.56 Z-2.9
Z15.
X377.131 Y9.149
Z5.
Z-2.3
Z-2.9
X377.133 Y9.156 Z-2.994
X377.139 Y9.178 Z-3.085
X377.148 Y9.213 Z-3.172
X377.16 Y9.26 Z-3.253
X377.175 Y9.32 Z-3.324
X377.193 Y9.389 Z-3.385
X377.213 Y9.467 Z-3.435
X377.234 Y9.551 Z-3.471
X377.257 Y9.64 Z-3.493
X377.28 Y9.731 Z-3.5
G3 X377.75 Y12.997 I-14.839 J3.801
G1 Y13.46
X377.748 Y13.498
X377.632 Y13.674
X377.469 Y13.873
X377.25 Y14.093
X376.96 Y14.332
X376.578 Y14.588
X376.074 Y14.857
X375.393 Y15.137
X374.544 Y15.392
X373.676 Y15.572
X372.799 Y15.698
X371.918 Y15.787
X371.034 Y15.85
X370.149 Y15.894
X369.263 Y15.926
X368.377 Y15.948
X367.491 Y15.963
X366.605 Y15.974
X365.719 Y15.982
X364.833 Y15.987
X363.947 Y15.991
X362.175 Y15.995
X359.516 Y15.998
X352.427 Y16.
X333.75
X333.491 Y15.966
X333.25 Y15.866
X333.043 Y15.707
X332.884 Y15.5
X332.784 Y15.259
X332.75 Y15.
G3 X333.215 Y14.436 I0.6 J0.021
G1 X333.306 Y14.415 Z-3.493
X333.395 Y14.395 Z-3.471
X333.48 Y14.375 Z-3.435
X333.558 Y14.357 Z-3.385
X333.628 Y14.341 Z-3.324
X333.688 Y14.327 Z-3.253
X333.736 Y14.316 Z-3.172
X333.771 Y14.308 Z-3.085
X333.792 Y14.303 Z-2.994
X333.799 Y14.301 Z-2.9
Z5.
X377.222 Y12.191
Z-2.3
Z-2.9
X377.226 Y12.197 Z-2.994
X377.237 Y12.216 Z-3.085
X377.255 Y12.247 Z-3.172
X377.281 Y12.289 Z-3.253
X377.312 Y12.342 Z-3.324
X377.348 Y12.404 Z-3.385
X377.389 Y12.473 Z-3.435
X377.434 Y12.547 Z-3.471
X377.481 Y12.626 Z-3.493
X377.529 Y12.707 Z-3.5
G3 X377.75 Y13.46 I-1.36 J0.809
G1 Y14.607
X377.742 Y14.757
X377.694 Y14.974
X377.61 Y15.226
X377.499 Y15.477
X377.337 Y15.761
X377.118 Y16.069
X376.852 Y16.375
X376.495 Y16.71
X376.064 Y17.042
X375.507 Y17.388
X374.792 Y17.74
X373.962 Y18.05
X373.108 Y18.287
X372.241 Y18.467
X371.365 Y18.602
X370.485 Y18.704
X369.602 Y18.781
X368.718 Y18.838
X367.832 Y18.88
X366.947 Y18.912
X366.061 Y18.935
X365.175 Y18.952
X364.289 Y18.965
X363.403 Y18.975
X362.517 Y18.981
X361.631 Y18.986
X359.859 Y18.993
X357.2 Y18.997
X352.77 Y18.999
X335.933 Y19.
X335.048 Y18.975
X334.357 Y18.893
X333.779 Y18.766
X333.439 Y18.655
X333.213 Y18.548
X333.02 Y18.388
X332.873 Y18.186
X332.781 Y17.953
X332.75 Y17.705
Y16.016
G3 X333.215 Y15.452 I0.6 J0.021
G1 X333.306 Y15.431 Z-3.493
X333.395 Y15.41 Z-3.471
X333.48 Y15.391 Z-3.435
X333.558 Y15.373 Z-3.385
X333.628 Y15.356 Z-3.324
X333.688 Y15.343 Z-3.253
X333.736 Y15.332 Z-3.172
X333.771 Y15.324 Z-3.085
X333.792 Y15.319 Z-2.994
X333.799 Y15.317 Z-2.9
Z5.
X377.222 Y13.338
Z-2.3
Z-2.9
X377.226 Y13.344 Z-2.994
X377.237 Y13.363 Z-3.085
X377.255 Y13.394 Z-3.172
X377.281 Y13.436 Z-3.253
X377.312 Y13.489 Z-3.324
X377.348 Y13.55 Z-3.385
X377.389 Y13.619 Z-3.435
X377.434 Y13.694 Z-3.471
X377.481 Y13.773 Z-3.493
X377.529 Y13.853 Z-3.5
G3 X377.75 Y14.607 I-1.36 J0.809
G1 Y16.619
X377.739 Y16.844
X377.7 Y17.104
X377.633 Y17.369
X377.522 Y17.673
X377.365 Y18.
X377.161 Y18.335
X376.878 Y18.712
X376.541 Y19.077
X376.095 Y19.474
X375.548 Y19.87
X374.86 Y20.272
X374.054 Y20.64
X373.218 Y20.935
X372.364 Y21.17
X371.497 Y21.355
X370.623 Y21.502
X369.744 Y21.616
X368.863 Y21.705
X367.979 Y21.774
X367.095 Y21.828
X366.21 Y21.869
X365.324 Y21.901
X364.438 Y21.925
X363.552 Y21.943
X362.666 Y21.957
X361.78 Y21.968
X360.894 Y21.976
X360.008 Y21.982
X359.122 Y21.987
X357.35 Y21.993
X354.691 Y21.997
X350.261 Y21.999
X338.741 Y22.
X337.855 Y21.999
X336.969 Y21.99
X336.084 Y21.954
X335.201 Y21.875
X334.356 Y21.741
X333.732 Y21.577
X333.401 Y21.454
X333.186 Y21.342
X333.004 Y21.183
X332.866 Y20.984
X332.779 Y20.757
X332.75 Y20.517
Y17.705
G3 X333.215 Y17.141 I0.6 J0.021
G1 X333.306 Y17.12 Z-3.493
X333.395 Y17.099 Z-3.471
X333.48 Y17.08 Z-3.435
X333.558 Y17.061 Z-3.385
X333.628 Y17.045 Z-3.324
X333.688 Y17.032 Z-3.253
X333.736 Y17.021 Z-3.172
X333.771 Y17.012 Z-3.085
X333.792 Y17.008 Z-2.994
X333.799 Y17.006 Z-2.9
Z5.
X377.222 Y15.35
Z-2.3
Z-2.9
X377.226 Y15.356 Z-2.994
X377.237 Y15.375 Z-3.085
X377.255 Y15.406 Z-3.172
X377.281 Y15.449 Z-3.253
X377.312 Y15.501 Z-3.324
X377.348 Y15.563 Z-3.385
X377.389 Y15.632 Z-3.435
X377.434 Y15.706 Z-3.471
X377.481 Y15.785 Z-3.493
X377.529 Y15.866 Z-3.5
G3 X377.75 Y16.619 I-1.36 J0.809
G1 Y19.034
X377.734 Y19.347
X377.694 Y19.614
X377.619 Y19.912
X377.496 Y20.251
X377.334 Y20.589
X377.098 Y20.976
X376.808 Y21.362
X376.417 Y21.785
X375.948 Y22.202
X375.339 Y22.644
X374.574 Y23.09
X373.768 Y23.459
X372.936 Y23.762
X372.085 Y24.009
X371.222 Y24.21
X370.351 Y24.373
X369.474 Y24.504
X368.594 Y24.609
X367.712 Y24.693
X366.829 Y24.759
X365.944 Y24.812
X365.059 Y24.854
X364.173 Y24.887
X363.288 Y24.912
X362.402 Y24.932
X361.516 Y24.948
X360.63 Y24.96
X359.744 Y24.969
X358.858 Y24.977
X357.971 Y24.982
X357.085 Y24.986
X355.313 Y24.992
X352.655 Y24.997
X348.224 Y24.999
X340.249 Y25.
X339.363 Y24.998
X338.477 Y24.989
X337.591 Y24.966
X336.706 Y24.922
X335.823 Y24.848
X334.945 Y24.729
X334.132 Y24.558
X333.522 Y24.365
X333.355 Y24.293
X333.154 Y24.177
X332.984 Y24.018
X332.857 Y23.823
X332.777 Y23.605
X332.75 Y23.374
Y20.517
G3 X333.215 Y19.953 I0.6 J0.021
G1 X333.306 Y19.932 Z-3.493
X333.395 Y19.911 Z-3.471
X333.48 Y19.892 Z-3.435
X333.558 Y19.874 Z-3.385
X333.628 Y19.857 Z-3.324
X333.688 Y19.844 Z-3.253
X333.736 Y19.833 Z-3.172
X333.771 Y19.825 Z-3.085
X333.792 Y19.82 Z-2.994
X333.799 Y19.818 Z-2.9
Z5.
X377.222 Y17.765
Z-2.3
Z-2.9
X377.226 Y17.771 Z-2.994
X377.237 Y17.79 Z-3.085
X377.255 Y17.821 Z-3.172
X377.281 Y17.863 Z-3.253
X377.312 Y17.916 Z-3.324
X377.348 Y17.978 Z-3.385
X377.389 Y18.047 Z-3.435
X377.434 Y18.121 Z-3.471
X377.481 Y18.2 Z-3.493
X377.529 Y18.281 Z-3.5
G3 X377.75 Y19.034 I-1.36 J0.809
G1 Y21.65
X377.734 Y21.97
X377.689 Y22.266
X377.613 Y22.567
X377.487 Y22.916
X377.308 Y23.288
X377.072 Y23.676
X376.753 Y24.1
X376.353 Y24.534
X375.845 Y24.985
X375.194 Y25.457
X374.429 Y25.904
X373.626 Y26.278
X372.796 Y26.591
X371.949 Y26.85
X371.089 Y27.065
X370.221 Y27.242
X369.347 Y27.388
X368.469 Y27.507
X367.588 Y27.604
X366.706 Y27.684
X365.822 Y27.748
X364.937 Y27.8
X364.052 Y27.841
X363.167 Y27.875
X362.281 Y27.901
X361.395 Y27.923
X360.509 Y27.939
X359.623 Y27.953
X358.737 Y27.963
X357.851 Y27.971
X356.965 Y27.978
X356.079 Y27.983
X354.307 Y27.99
X351.648 Y27.995
X348.104 Y27.998
X342.787 Y28.
X341.901 Y27.999
X341.015 Y27.998
X340.129 Y27.992
X339.243 Y27.978
X338.357 Y27.953
X337.472 Y27.912
X336.588 Y27.847
X335.707 Y27.748
X334.833 Y27.606
X334.035 Y27.419
X333.435 Y27.214
X333.335 Y27.169
X333.139 Y27.051
X332.976 Y26.892
X332.853 Y26.7
X332.776 Y26.486
X332.75 Y26.259
Y23.374
G3 X333.215 Y22.811 I0.6 J0.021
G1 X333.306 Y22.789 Z-3.493
X333.395 Y22.769 Z-3.471
X333.48 Y22.749 Z-3.435
X333.558 Y22.731 Z-3.385
X333.628 Y22.715 Z-3.324
X333.688 Y22.701 Z-3.253
X333.736 Y22.69 Z-3.172
X333.771 Y22.682 Z-3.085
X333.792 Y22.677 Z-2.994
X333.799 Y22.676 Z-2.9
Z5.
X377.222 Y20.381
Z-2.3
Z-2.9
X377.226 Y20.388 Z-2.994
X377.237 Y20.406 Z-3.085
X377.255 Y20.437 Z-3.172
X377.281 Y20.48 Z-3.253
X377.312 Y20.532 Z-3.324
X377.348 Y20.594 Z-3.385
X377.389 Y20.663 Z-3.435
X377.434 Y20.738 Z-3.471
X377.481 Y20.816 Z-3.493
X377.529 Y20.897 Z-3.5
G3 X377.75 Y21.65 I-1.36 J0.809
G1 Y24.468
X377.74 Y24.674
X377.694 Y24.978
X377.613 Y25.295
X377.487 Y25.644
X377.297 Y26.039
X377.058 Y26.433
X376.723 Y26.878
X376.312 Y27.324
X375.779 Y27.797
X375.762 Y27.81
X375.581 Y27.914
X375.383 Y27.978
X375.175 Y28.
G3 X374.596 Y27.38 Z-3.3 I0.021 J-0.6
X374.698 Y27.066 I0.6 J0.02
G1 X376.652 Y24.154
G3 X377.13 Y23.889 I0.498 J0.334
X377.75 Y24.468 Z-3.5 I0.02 J0.6
G1 Y26.48
X377.754 Y26.682
X377.767 Y26.883
X377.772 Y27.256
X377.77 Y27.278
X377.722 Y27.491
X377.621 Y27.685
X377.472 Y27.845
X377.286 Y27.961
X377.077 Y28.024
X376.858 Y28.03
G3 X376.317 Y27.377 Z-3.3 I0.057 J-0.597
G1 X376.33 Y27.301
X376.351 Y27.227
X376.382 Y27.157
X376.637 Y26.665
G3 X377.111 Y26.345 I0.533 J0.276
G1 X377.198 Y26.342 Z-3.318
X377.284 Y26.353 Z-3.337
G3 X377.767 Y26.883 Z-3.5 I-0.115 J0.589
G1 X377.779 Y27.084
X377.797 Y27.285
X377.814 Y27.386
X377.817 Y27.487
X377.803 Y27.587
X377.79 Y27.638
X377.771 Y27.688
X377.727 Y27.773
X377.697 Y27.816
X377.662 Y27.859
X377.632 Y27.889
X377.547 Y27.958
X377.461 Y28.008
X377.411 Y28.03
X377.361 Y28.046
X377.26 Y28.065
X377.16 Y28.066
X377.059 Y28.051
X376.858 Y28.03
X376.456 Y28.006
X376.255 Y28.
X350.928
G3 X350.365 Y27.535 I0.021 J-0.6
G1 X350.344 Y27.444 Z-3.493
X350.323 Y27.355 Z-3.471
X350.303 Y27.27 Z-3.435
X350.285 Y27.192 Z-3.385
X350.269 Y27.122 Z-3.324
X350.256 Y27.062 Z-3.253
X350.244 Y27.014 Z-3.172
X350.236 Y26.979 Z-3.085
X350.231 Y26.958 Z-2.994
X350.23 Y26.951 Z-2.9
Z5.
X342.348 Y27.472
Z-2.3
Z-2.9
X342.342 Y27.476 Z-2.994
X342.323 Y27.487 Z-3.085
X342.292 Y27.505 Z-3.172
X342.25 Y27.531 Z-3.253
X342.197 Y27.562 Z-3.324
X342.136 Y27.598 Z-3.385
X342.067 Y27.639 Z-3.435
X341.992 Y27.684 Z-3.471
X341.913 Y27.731 Z-3.493
X341.833 Y27.779 Z-3.5
G3 X341.079 Y28. I-0.809 J-1.36
G1 X334.245
X334.044 Y28.006
X333.642 Y28.03
X333.441 Y28.051
X333.34 Y28.066
X333.24 Y28.065
X333.139 Y28.046
X333.089 Y28.03
X333.039 Y28.008
X332.953 Y27.958
X332.868 Y27.889
X332.838 Y27.859
X332.803 Y27.816
X332.773 Y27.773
X332.729 Y27.688
X332.71 Y27.638
X332.697 Y27.587
X332.683 Y27.487
X332.686 Y27.386
X332.703 Y27.285
X332.721 Y27.084
X332.746 Y26.682
X332.75 Y26.48
Y26.259
G3 X333.215 Y25.695 I0.6 J0.021
G1 X333.306 Y25.674 Z-3.493
X333.395 Y25.654 Z-3.471
X333.48 Y25.634 Z-3.435
X333.558 Y25.616 Z-3.385
X333.628 Y25.6 Z-3.324
X333.688 Y25.586 Z-3.253
X333.736 Y25.575 Z-3.172
X333.771 Y25.567 Z-3.085
X333.792 Y25.562 Z-2.994
X333.799 Y25.56 Z-2.9
Z15.
X339.351 Y799.131
Z5.
Z-2.3
Z-2.9
X339.344 Y799.133 Z-2.994
X339.322 Y799.139 Z-3.085
X339.287 Y799.148 Z-3.172
X339.24 Y799.16 Z-3.253
X339.181 Y799.175 Z-3.324
X339.111 Y799.193 Z-3.385
X339.033 Y799.213 Z-3.435
X338.949 Y799.234 Z-3.471
X338.861 Y799.257 Z-3.493
X338.77 Y799.28 Z-3.5
G3 X335.503 Y799.75 I-3.801 J-14.839
G1 X335.04
X335.002 Y799.748
X334.826 Y799.632
X334.627 Y799.469
X334.407 Y799.25
X334.168 Y798.96
X333.913 Y798.578
X333.643 Y798.074
X333.363 Y797.393
X333.108 Y796.545
X332.928 Y795.677
X332.802 Y794.8
X332.713 Y793.918
X332.65 Y793.034
X332.606 Y792.149
X332.574 Y791.264
X332.552 Y790.378
X332.537 Y789.492
X332.526 Y788.606
X332.518 Y787.72
X332.513 Y786.834
X332.509 Y785.948
X332.505 Y784.175
X332.502 Y781.517
X332.5 Y774.428
Y755.75
X332.534 Y755.491
X332.634 Y755.25
X332.793 Y755.043
X333. Y754.884
X333.241 Y754.784
X333.5 Y754.75
G3 X334.064 Y755.215 I-0.021 J0.6
G1 X334.085 Y755.306 Z-3.493
X334.105 Y755.395 Z-3.471
X334.125 Y755.48 Z-3.435
X334.143 Y755.558 Z-3.385
X334.159 Y755.628 Z-3.324
X334.173 Y755.688 Z-3.253
X334.184 Y755.736 Z-3.172
X334.192 Y755.771 Z-3.085
X334.197 Y755.792 Z-2.994
X334.199 Y755.799 Z-2.9
Z5.
X336.309 Y799.222
Z-2.3
Z-2.9
X336.303 Y799.226 Z-2.994
X336.284 Y799.237 Z-3.085
X336.253 Y799.255 Z-3.172
X336.211 Y799.281 Z-3.253
X336.158 Y799.312 Z-3.324
X336.097 Y799.348 Z-3.385
X336.028 Y799.389 Z-3.435
X335.953 Y799.434 Z-3.471
X335.874 Y799.481 Z-3.493
X335.793 Y799.529 Z-3.5
G3 X335.04 Y799.75 I-0.809 J-1.36
G1 X333.893
X333.743 Y799.742
X333.526 Y799.694
X333.274 Y799.61
X333.023 Y799.499
X332.739 Y799.337
X332.431 Y799.118
X332.125 Y798.852
X331.79 Y798.495
X331.459 Y798.065
X331.112 Y797.508
X330.76 Y796.793
X330.45 Y795.963
X330.213 Y795.109
X330.033 Y794.241
X329.898 Y793.365
X329.796 Y792.485
X329.719 Y791.602
X329.662 Y790.718
X329.62 Y789.833
X329.588 Y788.947
X329.565 Y788.062
X329.548 Y787.176
X329.535 Y786.29
X329.525 Y785.403
X329.519 Y784.517
X329.514 Y783.631
X329.507 Y781.859
X329.503 Y779.201
X329.501 Y774.77
X329.5 Y757.934
X329.525 Y757.048
X329.607 Y756.357
X329.734 Y755.779
X329.845 Y755.439
X329.952 Y755.213
X330.112 Y755.02
X330.314 Y754.873
X330.547 Y754.781
X330.796 Y754.75
X332.485
G3 X333.048 Y755.215 I-0.021 J0.6
G1 X333.069 Y755.306 Z-3.493
X333.09 Y755.395 Z-3.471
X333.109 Y755.48 Z-3.435
X333.128 Y755.558 Z-3.385
X333.144 Y755.628 Z-3.324
X333.157 Y755.688 Z-3.253
X333.168 Y755.736 Z-3.172
X333.177 Y755.771 Z-3.085
X333.182 Y755.792 Z-2.994
X333.183 Y755.799 Z-2.9
Z5.
X335.163 Y799.222
Z-2.3
Z-2.9
X335.156 Y799.226 Z-2.994
X335.137 Y799.237 Z-3.085
X335.106 Y799.255 Z-3.172
X335.064 Y799.281 Z-3.253
X335.012 Y799.312 Z-3.324
X334.95 Y799.348 Z-3.385
X334.881 Y799.389 Z-3.435
X334.806 Y799.434 Z-3.471
X334.727 Y799.481 Z-3.493
X334.647 Y799.529 Z-3.5
G3 X333.893 Y799.75 I-0.809 J-1.36
G1 X331.881
X331.656 Y799.739
X331.396 Y799.7
X331.132 Y799.633
X330.827 Y799.522
X330.5 Y799.365
X330.165 Y799.161
X329.788 Y798.878
X329.423 Y798.541
X329.026 Y798.094
X328.63 Y797.548
X328.228 Y796.86
X327.86 Y796.054
X327.565 Y795.218
X327.33 Y794.364
X327.145 Y793.497
X326.998 Y792.623
X326.884 Y791.744
X326.795 Y790.863
X326.726 Y789.979
X326.672 Y789.095
X326.631 Y788.21
X326.599 Y787.324
X326.575 Y786.438
X326.557 Y785.552
X326.543 Y784.666
X326.532 Y783.78
X326.524 Y782.894
X326.518 Y782.008
X326.513 Y781.122
X326.507 Y779.35
X326.503 Y776.691
X326.501 Y772.261
X326.5 Y760.741
X326.501 Y759.855
X326.51 Y758.969
X326.546 Y758.084
X326.625 Y757.201
X326.759 Y756.356
X326.923 Y755.732
X327.046 Y755.401
X327.158 Y755.186
X327.317 Y755.004
X327.516 Y754.866
X327.743 Y754.779
X327.983 Y754.75
X330.796
G3 X331.359 Y755.215 I-0.021 J0.6
G1 X331.38 Y755.306 Z-3.493
X331.401 Y755.395 Z-3.471
X331.42 Y755.48 Z-3.435
X331.438 Y755.558 Z-3.385
X331.455 Y755.628 Z-3.324
X331.468 Y755.688 Z-3.253
X331.479 Y755.736 Z-3.172
X331.488 Y755.771 Z-3.085
X331.492 Y755.792 Z-2.994
X331.494 Y755.799 Z-2.9
Z5.
X333.15 Y799.222
Z-2.3
Z-2.9
X333.144 Y799.226 Z-2.994
X333.125 Y799.237 Z-3.085
X333.094 Y799.255 Z-3.172
X333.052 Y799.281 Z-3.253
X332.999 Y799.312 Z-3.324
X332.938 Y799.348 Z-3.385
X332.869 Y799.389 Z-3.435
X332.794 Y799.434 Z-3.471
X332.715 Y799.481 Z-3.493
X332.634 Y799.529 Z-3.5
G3 X331.881 Y799.75 I-0.809 J-1.36
G1 X329.466
X329.153 Y799.734
X328.886 Y799.694
X328.588 Y799.619
X328.249 Y799.496
X327.911 Y799.334
X327.524 Y799.098
X327.138 Y798.807
X326.715 Y798.417
X326.298 Y797.948
X325.856 Y797.339
X325.41 Y796.574
X325.041 Y795.768
X324.738 Y794.936
X324.491 Y794.085
X324.29 Y793.222
X324.127 Y792.351
X323.996 Y791.474
X323.891 Y790.594
X323.807 Y789.712
X323.741 Y788.829
X323.688 Y787.944
X323.646 Y787.059
X323.613 Y786.173
X323.588 Y785.288
X323.568 Y784.402
X323.552 Y783.516
X323.54 Y782.63
X323.531 Y781.744
X323.523 Y780.857
X323.518 Y779.971
X323.514 Y779.085
X323.508 Y777.313
X323.503 Y774.655
X323.501 Y770.224
X323.5 Y762.249
X323.502 Y761.363
X323.511 Y760.477
X323.534 Y759.591
X323.578 Y758.706
X323.652 Y757.823
X323.771 Y756.945
X323.942 Y756.132
X324.135 Y755.522
X324.207 Y755.355
X324.323 Y755.154
X324.482 Y754.984
X324.677 Y754.857
X324.895 Y754.777
X325.126 Y754.75
X327.983
G3 X328.547 Y755.215 I-0.021 J0.6
G1 X328.568 Y755.306 Z-3.493
X328.589 Y755.395 Z-3.471
X328.608 Y755.48 Z-3.435
X328.626 Y755.558 Z-3.385
X328.643 Y755.628 Z-3.324
X328.656 Y755.688 Z-3.253
X328.667 Y755.736 Z-3.172
X328.675 Y755.771 Z-3.085
X328.68 Y755.792 Z-2.994
X328.682 Y755.799 Z-2.9
Z5.
X330.735 Y799.222
Z-2.3
Z-2.9
X330.729 Y799.226 Z-2.994
X330.71 Y799.237 Z-3.085
X330.679 Y799.255 Z-3.172
X330.637 Y799.281 Z-3.253
X330.584 Y799.312 Z-3.324
X330.523 Y799.348 Z-3.385
X330.454 Y799.389 Z-3.435
X330.379 Y799.434 Z-3.471
X330.3 Y799.481 Z-3.493
X330.219 Y799.529 Z-3.5
G3 X329.466 Y799.75 I-0.809 J-1.36
G1 X326.85
X326.53 Y799.734
X326.234 Y799.689
X325.933 Y799.613
X325.584 Y799.487
X325.212 Y799.308
X324.824 Y799.072
X324.4 Y798.753
X323.966 Y798.353
X323.515 Y797.845
X323.043 Y797.194
X322.596 Y796.429
X322.222 Y795.626
X321.909 Y794.796
X321.65 Y793.949
X321.435 Y793.089
X321.258 Y792.221
X321.112 Y791.347
X320.993 Y790.469
X320.896 Y789.588
X320.816 Y788.706
X320.752 Y787.822
X320.7 Y786.937
X320.659 Y786.052
X320.625 Y785.167
X320.599 Y784.281
X320.577 Y783.395
X320.561 Y782.509
X320.547 Y781.623
X320.537 Y780.737
X320.529 Y779.851
X320.522 Y778.965
X320.517 Y778.079
X320.51 Y776.307
X320.505 Y773.648
X320.502 Y770.104
X320.5 Y764.787
X320.501 Y763.901
X320.502 Y763.015
X320.508 Y762.129
X320.522 Y761.243
X320.547 Y760.357
X320.588 Y759.472
X320.653 Y758.588
X320.752 Y757.707
X320.894 Y756.833
X321.081 Y756.035
X321.286 Y755.435
X321.331 Y755.335
X321.449 Y755.139
X321.608 Y754.976
X321.8 Y754.853
X322.014 Y754.776
X322.241 Y754.75
X325.126
G3 X325.689 Y755.215 I-0.021 J0.6
G1 X325.711 Y755.306 Z-3.493
X325.731 Y755.395 Z-3.471
X325.751 Y755.48 Z-3.435
X325.769 Y755.558 Z-3.385
X325.785 Y755.628 Z-3.324
X325.799 Y755.688 Z-3.253
X325.81 Y755.736 Z-3.172
X325.818 Y755.771 Z-3.085
X325.823 Y755.792 Z-2.994
X325.824 Y755.799 Z-2.9
Z5.
X328.119 Y799.222
Z-2.3
Z-2.9
X328.113 Y799.226 Z-2.994
X328.094 Y799.237 Z-3.085
X328.063 Y799.255 Z-3.172
X328.02 Y799.281 Z-3.253
X327.968 Y799.312 Z-3.324
X327.906 Y799.348 Z-3.385
X327.837 Y799.389 Z-3.435
X327.763 Y799.434 Z-3.471
X327.684 Y799.481 Z-3.493
X327.603 Y799.529 Z-3.5
G3 X326.85 Y799.75 I-0.809 J-1.36
G1 X324.032
X323.826 Y799.74
X323.522 Y799.694
X323.205 Y799.613
X322.856 Y799.487
X322.461 Y799.297
X322.067 Y799.058
X321.622 Y798.723
X321.176 Y798.312
X320.703 Y797.779
X320.69 Y797.762
X320.586 Y797.581
X320.522 Y797.383
X320.5 Y797.175
G3 X321.12 Y796.596 Z-3.3 I0.6 J0.021
X321.434 Y796.698 I-0.02 J0.6
G1 X324.346 Y798.652
G3 X324.611 Y799.13 I-0.334 J0.498
X324.032 Y799.75 Z-3.5 I-0.6 J0.021
G1 X322.02
X321.819 Y799.754
X321.617 Y799.767
X321.244 Y799.772
X321.223 Y799.77
X321.009 Y799.722
X320.815 Y799.621
X320.655 Y799.472
X320.539 Y799.286
X320.476 Y799.077
X320.47 Y798.858
G3 X321.123 Y798.317 Z-3.3 I0.597 J0.057
G1 X321.199 Y798.33
X321.273 Y798.351
X321.343 Y798.382
X321.835 Y798.637
G3 X322.156 Y799.111 I-0.276 J0.533
G1 X322.158 Y799.198 Z-3.318
X322.147 Y799.284 Z-3.337
G3 X321.617 Y799.767 Z-3.5 I-0.589 J-0.115
G1 X321.416 Y799.779
X321.215 Y799.797
X321.114 Y799.814
X321.014 Y799.818
X320.913 Y799.804
X320.863 Y799.79
X320.812 Y799.771
X320.727 Y799.727
X320.684 Y799.698
X320.641 Y799.662
X320.611 Y799.633
X320.542 Y799.547
X320.492 Y799.461
X320.47 Y799.411
X320.454 Y799.361
X320.435 Y799.26
X320.434 Y799.16
X320.449 Y799.059
X320.47 Y798.858
X320.494 Y798.456
X320.5 Y798.255
Y772.928
G3 X320.965 Y772.365 I0.6 J0.021
G1 X321.056 Y772.344 Z-3.493
X321.145 Y772.323 Z-3.471
X321.23 Y772.303 Z-3.435
X321.308 Y772.285 Z-3.385
X321.378 Y772.269 Z-3.324
X321.438 Y772.256 Z-3.253
X321.486 Y772.244 Z-3.172
X321.521 Y772.236 Z-3.085
X321.542 Y772.231 Z-2.994
X321.549 Y772.23 Z-2.9
Z5.
X321.028 Y764.348
Z-2.3
Z-2.9
X321.024 Y764.342 Z-2.994
X321.013 Y764.323 Z-3.085
X320.995 Y764.292 Z-3.172
X320.969 Y764.25 Z-3.253
X320.938 Y764.197 Z-3.324
X320.902 Y764.136 Z-3.385
X320.861 Y764.067 Z-3.435
X320.816 Y763.992 Z-3.471
X320.769 Y763.913 Z-3.493
X320.721 Y763.833 Z-3.5
G3 X320.5 Y763.079 I1.36 J-0.809
G1 Y756.245
X320.494 Y756.044
X320.47 Y755.642
X320.449 Y755.441
X320.434 Y755.34
X320.435 Y755.24
X320.454 Y755.139
X320.47 Y755.089
X320.492 Y755.039
X320.542 Y754.953
X320.611 Y754.867
X320.641 Y754.838
X320.684 Y754.802
X320.727 Y754.773
X320.812 Y754.729
X320.863 Y754.71
X320.913 Y754.696
X321.014 Y754.682
X321.114 Y754.686
X321.215 Y754.703
X321.416 Y754.721
X321.819 Y754.746
X322.02 Y754.75
X322.241
G3 X322.805 Y755.215 I-0.021 J0.6
G1 X322.826 Y755.306 Z-3.493
X322.846 Y755.395 Z-3.471
X322.866 Y755.48 Z-3.435
X322.884 Y755.558 Z-3.385
X322.9 Y755.628 Z-3.324
X322.914 Y755.688 Z-3.253
X322.925 Y755.736 Z-3.172
X322.933 Y755.771 Z-3.085
X322.938 Y755.792 Z-2.994
X322.94 Y755.799 Z-2.9
Z15.
X339.351 Y1058.631
Z5.
Z-2.3
Z-2.9
X339.344 Y1058.633 Z-2.994
X339.322 Y1058.639 Z-3.085
X339.287 Y1058.648 Z-3.172
X339.24 Y1058.66 Z-3.253
X339.181 Y1058.675 Z-3.324
X339.111 Y1058.693 Z-3.385
X339.033 Y1058.713 Z-3.435
X338.949 Y1058.734 Z-3.471
X338.861 Y1058.757 Z-3.493
X338.77 Y1058.78 Z-3.5
G3 X335.503 Y1059.25 I-3.801 J-14.839
G1 X335.04
X335.002 Y1059.248
X334.826 Y1059.132
X334.627 Y1058.969
X334.407 Y1058.75
X334.168 Y1058.46
X333.913 Y1058.078
X333.643 Y1057.574
X333.363 Y1056.893
X333.108 Y1056.045
X332.928 Y1055.177
X332.802 Y1054.3
X332.713 Y1053.418
X332.65 Y1052.534
X332.606 Y1051.649
X332.574 Y1050.764
X332.552 Y1049.878
X332.537 Y1048.992
X332.526 Y1048.106
X332.518 Y1047.22
X332.513 Y1046.334
X332.509 Y1045.448
X332.505 Y1043.675
X332.502 Y1041.017
X332.5 Y1033.928
Y1015.25
X332.534 Y1014.991
X332.634 Y1014.75
X332.793 Y1014.543
X333. Y1014.384
X333.241 Y1014.284
X333.5 Y1014.25
G3 X334.064 Y1014.715 I-0.021 J0.6
G1 X334.085 Y1014.806 Z-3.493
X334.105 Y1014.895 Z-3.471
X334.125 Y1014.98 Z-3.435
X334.143 Y1015.058 Z-3.385
X334.159 Y1015.128 Z-3.324
X334.173 Y1015.188 Z-3.253
X334.184 Y1015.236 Z-3.172
X334.192 Y1015.271 Z-3.085
X334.197 Y1015.292 Z-2.994
X334.199 Y1015.299 Z-2.9
Z5.
X336.309 Y1058.722
Z-2.3
Z-2.9
X336.303 Y1058.726 Z-2.994
X336.284 Y1058.737 Z-3.085
X336.253 Y1058.755 Z-3.172
X336.211 Y1058.781 Z-3.253
X336.158 Y1058.812 Z-3.324
X336.097 Y1058.848 Z-3.385
X336.028 Y1058.889 Z-3.435
X335.953 Y1058.934 Z-3.471
X335.874 Y1058.981 Z-3.493
X335.793 Y1059.029 Z-3.5
G3 X335.04 Y1059.25 I-0.809 J-1.36
G1 X333.893
X333.743 Y1059.243
X333.526 Y1059.194
X333.274 Y1059.11
X333.023 Y1058.999
X332.739 Y1058.837
X332.431 Y1058.618
X332.125 Y1058.352
X331.79 Y1057.995
X331.459 Y1057.565
X331.112 Y1057.008
X330.76 Y1056.292
X330.45 Y1055.463
X330.213 Y1054.609
X330.033 Y1053.741
X329.898 Y1052.865
X329.796 Y1051.985
X329.719 Y1051.102
X329.662 Y1050.218
X329.62 Y1049.333
X329.588 Y1048.447
X329.565 Y1047.562
X329.548 Y1046.676
X329.535 Y1045.79
X329.525 Y1044.903
X329.519 Y1044.017
X329.514 Y1043.131
X329.507 Y1041.359
X329.503 Y1038.701
X329.501 Y1034.27
X329.5 Y1017.434
X329.525 Y1016.548
X329.607 Y1015.857
X329.734 Y1015.279
X329.845 Y1014.939
X329.952 Y1014.713
X330.112 Y1014.52
X330.314 Y1014.373
X330.547 Y1014.281
X330.796 Y1014.25
X332.485
G3 X333.048 Y1014.715 I-0.021 J0.6
G1 X333.069 Y1014.806 Z-3.493
X333.09 Y1014.895 Z-3.471
X333.109 Y1014.98 Z-3.435
X333.128 Y1015.058 Z-3.385
X333.144 Y1015.128 Z-3.324
X333.157 Y1015.188 Z-3.253
X333.168 Y1015.236 Z-3.172
X333.177 Y1015.271 Z-3.085
X333.182 Y1015.292 Z-2.994
X333.183 Y1015.299 Z-2.9
Z5.
X335.163 Y1058.722
Z-2.3
Z-2.9
X335.156 Y1058.726 Z-2.994
X335.137 Y1058.737 Z-3.085
X335.106 Y1058.755 Z-3.172
X335.064 Y1058.781 Z-3.253
X335.012 Y1058.812 Z-3.324
X334.95 Y1058.848 Z-3.385
X334.881 Y1058.889 Z-3.435
X334.806 Y1058.934 Z-3.471
X334.727 Y1058.981 Z-3.493
X334.647 Y1059.029 Z-3.5
G3 X333.893 Y1059.25 I-0.809 J-1.36
G1 X331.881
X331.656 Y1059.239
X331.396 Y1059.2
X331.132 Y1059.133
X330.827 Y1059.022
X330.5 Y1058.865
X330.165 Y1058.661
X329.788 Y1058.378
X329.423 Y1058.041
X329.026 Y1057.594
X328.63 Y1057.048
X328.228 Y1056.36
X327.86 Y1055.554
X327.565 Y1054.718
X327.33 Y1053.864
X327.145 Y1052.997
X326.998 Y1052.123
X326.884 Y1051.244
X326.795 Y1050.363
X326.726 Y1049.479
X326.672 Y1048.595
X326.631 Y1047.71
X326.599 Y1046.824
X326.575 Y1045.938
X326.557 Y1045.052
X326.543 Y1044.166
X326.532 Y1043.28
X326.524 Y1042.394
X326.518 Y1041.508
X326.513 Y1040.622
X326.507 Y1038.85
X326.503 Y1036.191
X326.501 Y1031.761
X326.5 Y1020.241
X326.501 Y1019.355
X326.51 Y1018.469
X326.546 Y1017.584
X326.625 Y1016.701
X326.759 Y1015.856
X326.923 Y1015.232
X327.046 Y1014.901
X327.158 Y1014.686
X327.317 Y1014.504
X327.516 Y1014.366
X327.743 Y1014.279
X327.983 Y1014.25
X330.796
G3 X331.359 Y1014.715 I-0.021 J0.6
G1 X331.38 Y1014.806 Z-3.493
X331.401 Y1014.895 Z-3.471
X331.42 Y1014.98 Z-3.435
X331.438 Y1015.058 Z-3.385
X331.455 Y1015.128 Z-3.324
X331.468 Y1015.188 Z-3.253
X331.479 Y1015.236 Z-3.172
X331.488 Y1015.271 Z-3.085
X331.492 Y1015.292 Z-2.994
X331.494 Y1015.299 Z-2.9
Z5.
X333.15 Y1058.722
Z-2.3
Z-2.9
X333.144 Y1058.726 Z-2.994
X333.125 Y1058.737 Z-3.085
X333.094 Y1058.755 Z-3.172
X333.052 Y1058.781 Z-3.253
X332.999 Y1058.812 Z-3.324
X332.938 Y1058.848 Z-3.385
X332.869 Y1058.889 Z-3.435
X332.794 Y1058.934 Z-3.471
X332.715 Y1058.981 Z-3.493
X332.634 Y1059.029 Z-3.5
G3 X331.881 Y1059.25 I-0.809 J-1.36
G1 X329.466
X329.153 Y1059.234
X328.886 Y1059.194
X328.588 Y1059.119
X328.249 Y1058.995
X327.911 Y1058.834
X327.524 Y1058.598
X327.138 Y1058.307
X326.715 Y1057.917
X326.298 Y1057.448
X325.856 Y1056.839
X325.41 Y1056.074
X325.041 Y1055.268
X324.738 Y1054.436
X324.491 Y1053.585
X324.29 Y1052.722
X324.127 Y1051.851
X323.996 Y1050.974
X323.891 Y1050.094
X323.807 Y1049.212
X323.741 Y1048.328
X323.688 Y1047.444
X323.646 Y1046.559
X323.613 Y1045.673
X323.588 Y1044.788
X323.568 Y1043.902
X323.552 Y1043.016
X323.54 Y1042.13
X323.531 Y1041.244
X323.523 Y1040.358
X323.518 Y1039.471
X323.514 Y1038.585
X323.508 Y1036.813
X323.503 Y1034.155
X323.501 Y1029.724
X323.5 Y1021.749
X323.502 Y1020.863
X323.511 Y1019.977
X323.534 Y1019.091
X323.578 Y1018.206
X323.652 Y1017.323
X323.771 Y1016.445
X323.942 Y1015.632
X324.135 Y1015.022
X324.207 Y1014.855
X324.323 Y1014.654
X324.482 Y1014.484
X324.677 Y1014.357
X324.895 Y1014.277
X325.126 Y1014.25
X327.983
G3 X328.547 Y1014.715 I-0.021 J0.6
G1 X328.568 Y1014.806 Z-3.493
X328.589 Y1014.895 Z-3.471
X328.608 Y1014.98 Z-3.435
X328.626 Y1015.058 Z-3.385
X328.643 Y1015.128 Z-3.324
X328.656 Y1015.188 Z-3.253
X328.667 Y1015.236 Z-3.172
X328.675 Y1015.271 Z-3.085
X328.68 Y1015.292 Z-2.994
X328.682 Y1015.299 Z-2.9
Z5.
X330.735 Y1058.722
Z-2.3
Z-2.9
X330.729 Y1058.726 Z-2.994
X330.71 Y1058.737 Z-3.085
X330.679 Y1058.755 Z-3.172
X330.637 Y1058.781 Z-3.253
X330.584 Y1058.812 Z-3.324
X330.523 Y1058.848 Z-3.385
X330.454 Y1058.889 Z-3.435
X330.379 Y1058.934 Z-3.471
X330.3 Y1058.981 Z-3.493
X330.219 Y1059.029 Z-3.5
G3 X329.466 Y1059.25 I-0.809 J-1.36
G1 X326.85
X326.53 Y1059.234
X326.234 Y1059.189
X325.933 Y1059.113
X325.584 Y1058.987
X325.212 Y1058.808
X324.824 Y1058.572
X324.4 Y1058.253
X323.966 Y1057.853
X323.515 Y1057.345
X323.043 Y1056.694
X322.596 Y1055.929
X322.222 Y1055.126
X321.909 Y1054.296
X321.65 Y1053.449
X321.435 Y1052.589
X321.258 Y1051.721
X321.112 Y1050.847
X320.993 Y1049.969
X320.896 Y1049.088
X320.816 Y1048.206
X320.752 Y1047.322
X320.7 Y1046.437
X320.659 Y1045.552
X320.625 Y1044.667
X320.599 Y1043.781
X320.577 Y1042.895
X320.561 Y1042.009
X320.547 Y1041.123
X320.537 Y1040.237
X320.529 Y1039.351
X320.522 Y1038.465
X320.517 Y1037.579
X320.51 Y1035.807
X320.505 Y1033.148
X320.502 Y1029.604
X320.5 Y1024.287
X320.501 Y1023.401
X320.502 Y1022.515
X320.508 Y1021.629
X320.522 Y1020.743
X320.547 Y1019.857
X320.588 Y1018.972
X320.653 Y1018.088
X320.752 Y1017.207
X320.894 Y1016.333
X321.081 Y1015.535
X321.286 Y1014.935
X321.331 Y1014.835
X321.449 Y1014.639
X321.608 Y1014.476
X321.8 Y1014.353
X322.014 Y1014.276
X322.241 Y1014.25
X325.126
G3 X325.689 Y1014.715 I-0.021 J0.6
G1 X325.711 Y1014.806 Z-3.493
X325.731 Y1014.895 Z-3.471
X325.751 Y1014.98 Z-3.435
X325.769 Y1015.058 Z-3.385
X325.785 Y1015.128 Z-3.324
X325.799 Y1015.188 Z-3.253
X325.81 Y1015.236 Z-3.172
X325.818 Y1015.271 Z-3.085
X325.823 Y1015.292 Z-2.994
X325.824 Y1015.299 Z-2.9
Z5.
X328.119 Y1058.722
Z-2.3
Z-2.9
X328.113 Y1058.726 Z-2.994
X328.094 Y1058.737 Z-3.085
X328.063 Y1058.755 Z-3.172
X328.02 Y1058.781 Z-3.253
X327.968 Y1058.812 Z-3.324
X327.906 Y1058.848 Z-3.385
X327.837 Y1058.889 Z-3.435
X327.763 Y1058.934 Z-3.471
X327.684 Y1058.981 Z-3.493
X327.603 Y1059.029 Z-3.5
G3 X326.85 Y1059.25 I-0.809 J-1.36
G1 X324.032
X323.826 Y1059.24
X323.522 Y1059.194
X323.205 Y1059.113
X322.856 Y1058.987
X322.461 Y1058.797
X322.067 Y1058.558
X321.622 Y1058.223
X321.176 Y1057.812
X320.703 Y1057.279
X320.69 Y1057.262
X320.586 Y1057.081
X320.522 Y1056.883
X320.5 Y1056.675
G3 X321.12 Y1056.096 Z-3.3 I0.6 J0.021
X321.434 Y1056.198 I-0.02 J0.6
G1 X324.346 Y1058.152
G3 X324.611 Y1058.63 I-0.334 J0.498
G1 X324.608 Y1058.717 Z-3.318
X324.592 Y1058.802 Z-3.337
G3 X324.032 Y1059.25 Z-3.5 I-0.581 J-0.152
G1 X322.02
X321.819 Y1059.254
X321.617 Y1059.267
X321.244 Y1059.272
X321.222 Y1059.27
X321.009 Y1059.222
X320.815 Y1059.121
X320.655 Y1058.972
X320.539 Y1058.787
X320.476 Y1058.578
X320.47 Y1058.36
G3 X321.123 Y1057.819 Z-3.3 I0.597 J0.057
G1 X321.199 Y1057.831
X321.272 Y1057.852
X321.343 Y1057.883
X321.834 Y1058.136
G3 X322.156 Y1058.611 I-0.275 J0.533
G1 X322.158 Y1058.698 Z-3.318
X322.147 Y1058.784 Z-3.337
G3 X321.617 Y1059.267 Z-3.5 I-0.589 J-0.115
G1 X321.416 Y1059.279
X321.215 Y1059.297
X321.114 Y1059.314
X321.014 Y1059.317
X320.913 Y1059.303
X320.863 Y1059.29
X320.812 Y1059.271
X320.728 Y1059.227
X320.686 Y1059.198
X320.644 Y1059.164
X320.611 Y1059.132
X320.543 Y1059.047
X320.493 Y1058.963
X320.471 Y1058.912
X320.455 Y1058.862
X320.436 Y1058.762
X320.434 Y1058.661
X320.449 Y1058.561
X320.47 Y1058.36
X320.494 Y1057.958
X320.5 Y1057.757
Y1032.428
G3 X320.965 Y1031.864 I0.6 J0.021
G1 X321.056 Y1031.843 Z-3.493
X321.145 Y1031.823 Z-3.471
X321.23 Y1031.803 Z-3.435
X321.308 Y1031.785 Z-3.385
X321.378 Y1031.769 Z-3.324
X321.438 Y1031.755 Z-3.253
X321.486 Y1031.744 Z-3.172
X321.521 Y1031.736 Z-3.085
X321.542 Y1031.731 Z-2.994
X321.549 Y1031.729 Z-2.9
Z5.
X321.028 Y1023.847
Z-2.3
Z-2.9
X321.024 Y1023.841 Z-2.994
X321.013 Y1023.822 Z-3.085
X320.995 Y1023.791 Z-3.172
X320.969 Y1023.749 Z-3.253
X320.938 Y1023.696 Z-3.324
X320.902 Y1023.635 Z-3.385
X320.861 Y1023.566 Z-3.435
X320.816 Y1023.491 Z-3.471
X320.769 Y1023.412 Z-3.493
X320.721 Y1023.332 Z-3.5
G3 X320.5 Y1022.578 I1.36 J-0.809
G1 Y1015.743
X320.494 Y1015.542
X320.47 Y1015.14
X320.449 Y1014.939
X320.434 Y1014.839
X320.436 Y1014.738
X320.455 Y1014.638
X320.471 Y1014.588
X320.493 Y1014.537
X320.543 Y1014.453
X320.611 Y1014.368
X320.644 Y1014.336
X320.686 Y1014.302
X320.728 Y1014.273
X320.812 Y1014.229
X320.863 Y1014.21
X320.913 Y1014.197
X321.014 Y1014.183
X321.114 Y1014.186
X321.215 Y1014.203
X321.416 Y1014.221
X321.819 Y1014.246
X322.02 Y1014.25
X322.241
G3 X322.805 Y1014.715 I-0.021 J0.6
G1 X322.826 Y1014.806 Z-3.493
X322.846 Y1014.895 Z-3.471
X322.866 Y1014.98 Z-3.435
X322.884 Y1015.058 Z-3.385
X322.9 Y1015.128 Z-3.324
X322.914 Y1015.188 Z-3.253
X322.925 Y1015.236 Z-3.172
X322.933 Y1015.271 Z-3.085
X322.938 Y1015.292 Z-2.994
X322.94 Y1015.299 Z-2.9
Z15.
X51.248 Y655.187
Z5.
Z2.5
G3 X54.468 Y657.843 Z2.338 I0.282 J2.938 F333.3
X54.372 Y658.923 Z2.3 I-2.938 J0.282
X50.736 Y660.964 Z2.138 I-2.838 J-0.797
X49.765 Y660.484 Z2.1 I0.797 J-2.838
X49.176 Y656.362 Z1.938 I1.767 J-2.355
X49.974 Y655.63 Z1.9 I2.355 J1.767
X54.025 Y656.57 Z1.738 I1.556 J2.496
X54.419 Y657.577 Z1.7 I-2.496 J1.556
X52.081 Y661.011 Z1.538 I-2.886 J0.548
X51.002 Y661.014 Z1.5 I-0.548 J-2.886
X48.647 Y657.598 Z1.338 I0.531 J-2.886
X49.034 Y656.591 Z1.3 I2.886 J0.531
X53.065 Y655.631 Z1.138 I2.496 J1.536
X53.863 Y656.355 Z1.1 I-1.536 J2.496
X53.302 Y660.456 Z0.938 I-2.331 J1.77
X52.34 Y660.938 Z0.9 I-1.77 J-2.331
X48.723 Y658.935 Z0.738 I-0.807 J-2.81
X48.621 Y657.865 Z0.7 I2.81 J-0.807
X51.792 Y655.219 Z0.538 I2.908 J0.262
X52.825 Y655.511 Z0.5 I-0.262 J2.908
X54.145 Y659.419 Z0.338 I-1.294 J2.614
X53.501 Y660.276 Z0.3 I-2.614 J-1.294
X49.385 Y660.094 Z0.138 I-1.967 J-2.148
X48.819 Y659.185 Z0.1 I2.148 J-1.967
X50.474 Y655.418 Z-0.062 I2.711 J-1.057
X51.525 Y655.219 Z-0.1 I1.057 J2.711
X54.436 Y658.119 Z-0.262 I0.006 J2.906
X54.242 Y659.17 Z-0.3 I-2.906 J0.006
X50.49 Y660.835 Z-0.462 I-2.708 J-1.044
X49.582 Y660.275 Z-0.5 I1.044 J-2.708
X49.385 Y656.179 Z-0.662 I1.949 J-2.146
X50.235 Y655.536 Z-0.7 I2.146 J1.949
X54.12 Y656.831 Z-0.862 I1.295 J2.59
X54.412 Y657.854 Z-0.9 I-2.59 J1.295
X51.804 Y661.005 Z-1.062 I-2.879 J0.271
X50.745 Y660.908 Z-1.1 I-0.271 J-2.879
X48.753 Y657.342 Z-1.262 I0.787 J-2.779
X49.225 Y656.391 Z-1.3 I2.779 J0.787
X53.265 Y655.822 Z-1.462 I2.305 J1.736
X53.981 Y656.605 Z-1.5 I-1.736 J2.305
X53.052 Y660.573 Z-1.662 I-2.448 J1.52
X52.065 Y660.957 Z-1.7 I-1.52 J-2.448
X48.704 Y658.66 Z-1.862 I-0.532 J-2.829
X48.703 Y657.602 Z-1.9 I2.829 J-0.532
X52.055 Y655.301 Z-2.062 I2.826 J0.526
X53.041 Y655.682 Z-2.1 I-0.526 J2.826
X53.974 Y659.634 Z-2.262 I-1.509 J2.442
X53.263 Y660.415 Z-2.3 I-2.442 J-1.509
X49.246 Y659.857 Z-2.462 I-1.73 J-2.287
X48.776 Y658.914 Z-2.5 I2.287 J-1.73
X50.745 Y655.374 Z-2.662 I2.754 J-0.785
X51.793 Y655.276 Z-2.7 I0.785 J2.754
X54.379 Y658.387 Z-2.862 I-0.263 J2.849
X54.092 Y659.399 Z-2.9 I-2.849 J-0.263
X50.261 Y660.684 Z-3.062 I-2.558 J-1.273
X49.423 Y660.052 Z-3.1 I1.273 J-2.558
X49.608 Y656.02 Z-3.262 I2.108 J-1.923
X50.5 Y655.468 Z-3.3 I1.923 J2.108
X54.187 Y657.096 Z-3.462 I1.03 J2.658
X54.38 Y658.125 Z-3.5 I-2.658 J1.03
X51.53 Y660.976 I-2.85 J0.
X48.68 Y658.125 I0. J-2.85
X51.53 Y655.275 I2.85 J0.
X54.38 Y658.125 I0. J2.85
G1 X54.383 Y658.347 F1000
X54.591 Y659.208
X54.664 Y659.339
X54.722 Y659.478
X54.766 Y659.629
X54.799 Y659.799
X54.815 Y659.987
X54.813 Y660.193
X54.789 Y660.413
X54.74 Y660.646
X54.662 Y660.889
X54.555 Y661.139
X54.415 Y661.391
X54.241 Y661.641
X54.235 Y661.648
X54.078 Y661.797
X53.893 Y661.908
X53.688 Y661.977
X53.473 Y662.
X50.123
X49.742 Y661.981
X49.461 Y661.939
X49.169 Y661.865
X48.87 Y661.756
X48.57 Y661.612
X48.271 Y661.431
X47.981 Y661.212
X47.702 Y660.955
X47.442 Y660.662
X47.204 Y660.334
X46.994 Y659.974
X46.816 Y659.584
X46.674 Y659.169
X46.571 Y658.734
X46.512 Y658.282
X46.497 Y657.818
X46.529 Y657.349
X46.608 Y656.88
X46.734 Y656.416
X46.908 Y655.962
X47.127 Y655.524
X47.39 Y655.108
X47.696 Y654.717
X47.846 Y654.559
X48.056 Y654.392
X48.303 Y654.286
X48.569 Y654.25
X52.937
X53.317 Y654.269
X53.598 Y654.311
X53.89 Y654.385
X54.189 Y654.494
X54.49 Y654.638
X54.788 Y654.819
X55.079 Y655.039
X55.178 Y655.13
X55.314 Y655.284
X55.416 Y655.464
X55.479 Y655.66
X55.5 Y655.865
G3 X54.88 Y656.444 Z-3.3 I-0.6 J-0.021
X54.627 Y656.378 I0.02 J-0.6
G1 X52.685 Y655.384
G3 X52.358 Y654.87 I0.273 J-0.534
G1 X52.362 Y654.783 Z-3.318
X52.378 Y654.698 Z-3.337
G3 X52.937 Y654.25 Z-3.5 I0.581 J0.152
G1 X54.746
X54.947 Y654.253
X55.048 Y654.272
X55.098 Y654.288
X55.148 Y654.31
X55.219 Y654.35
X55.29 Y654.405
X55.349 Y654.468
X55.402 Y654.537
X55.441 Y654.607
X55.462 Y654.657
X55.478 Y654.707
X55.497 Y654.808
X55.5 Y655.009
Y661.241
X55.497 Y661.442
X55.478 Y661.543
X55.462 Y661.593
X55.441 Y661.643
X55.402 Y661.713
X55.349 Y661.782
X55.29 Y661.845
X55.219 Y661.9
X55.148 Y661.94
X55.098 Y661.962
X55.048 Y661.978
X54.947 Y661.997
X54.746 Y662.
X53.473
G3 X53.22 Y661.944 Z-3.444 I0. J-0.6
G1 X53.159 Y661.919 Z-3.43
X53.096 Y661.902 Z-3.417
X53.031 Y661.891 Z-3.403
X52.723 Y661.858 Z-3.337
X52.551 Y661.839 Z-3.3
X51.248 Y661.698
X51.169 Y661.695
X51.09 Y661.702
X51.012 Y661.719
X50.943 Y661.745 Z-3.316
X50.877 Y661.779 Z-3.331
X50.855 Y661.792 Z-3.337
G3 X50.123 Y662. Z-3.5 I-0.787 J-1.373
G1 X47.6
X47.403 Y661.99
X47.171 Y661.955
X46.925 Y661.893
X46.664 Y661.798
X46.387 Y661.665
X46.111 Y661.498
X45.821 Y661.279
X45.545 Y661.025
X45.272 Y660.717
X45.009 Y660.355
X44.778 Y659.958
X44.572 Y659.508
X44.4 Y659.006
X44.273 Y658.464
X44.198 Y657.897
X44.179 Y657.3
X44.221 Y656.678
X44.329 Y656.039
X44.504 Y655.395
X44.723 Y654.823
X44.733 Y654.802
X44.854 Y654.617
X45.011 Y654.462
X45.199 Y654.346
X45.408 Y654.274
X45.627 Y654.25
X48.569
G3 X49.148 Y654.87 Z-3.3 I-0.021 J0.6
G1 X49.142 Y654.937
X48.189 Y661.381
X48.173 Y661.488 Z-3.323
X48.16 Y661.552 Z-3.337
G3 X47.6 Y662. Z-3.5 I-0.581 J-0.152
G1 X45.5
X45.193 Y661.985
X44.96 Y661.95
X44.714 Y661.887
X44.443 Y661.789
X44.166 Y661.656
X43.871 Y661.477
X43.574 Y661.253
X43.276 Y660.978
X42.976 Y660.641
X42.701 Y660.262
X42.435 Y659.805
X42.201 Y659.293
X42.009 Y658.734
X41.861 Y658.099
X41.769 Y657.401
X41.745 Y656.677
X41.79 Y656.018
X41.886 Y655.45
X42.019 Y654.96
X42.045 Y654.893
X42.157 Y654.68
X42.317 Y654.5
X42.515 Y654.364
X42.74 Y654.279
X42.979 Y654.25
X45.627
G3 X46.206 Y654.861 Z-3.302 I-0.021 J0.6
G1 Y654.87 Z-3.3
X46.08 Y661.38
X46.079 Y661.412 Z-3.307
X46.073 Y661.483 Z-3.322
X46.06 Y661.552 Z-3.337
G3 X45.5 Y662. Z-3.5 I-0.581 J-0.152
G1 X43.088
X42.938 Y661.992
X42.689 Y661.954
X42.436 Y661.889
X42.147 Y661.784
X41.858 Y661.644
X41.54 Y661.45
X41.232 Y661.216
X40.901 Y660.909
X40.593 Y660.561
X40.276 Y660.121
X39.991 Y659.63
X39.733 Y659.061
X39.513 Y658.414
X39.353 Y657.722
X39.261 Y657.008
X39.242 Y656.37
X39.283 Y655.796
X39.367 Y655.304
X39.455 Y654.985
X39.556 Y654.745
X39.715 Y654.54
X39.921 Y654.383
X40.161 Y654.284
X40.419 Y654.25
X42.979
G3 X43.558 Y654.84 Z-3.306 I-0.021 J0.6
G1 Y654.87 Z-3.3
X43.667 Y661.38
Y661.39 Z-3.302
X43.663 Y661.472 Z-3.32
X43.648 Y661.552 Z-3.337
G3 X43.088 Y662. Z-3.5 I-0.581 J-0.152
G1 X40.877
X40.597 Y661.986
X40.347 Y661.948
X40.073 Y661.879
X39.786 Y661.775
X39.469 Y661.622
X39.153 Y661.43
X38.807 Y661.17
X38.475 Y660.864
X38.132 Y660.477
X37.803 Y660.024
X37.501 Y659.506
X37.227 Y658.908
X37.003 Y658.254
X36.843 Y657.572
X36.754 Y656.896
X36.734 Y656.275
X36.769 Y655.759
X36.852 Y655.267
X36.928 Y654.987
X37.029 Y654.747
X37.188 Y654.541
X37.395 Y654.383
X37.635 Y654.284
X37.893 Y654.25
X40.419
G3 X40.997 Y654.808 Z-3.313 I-0.021 J0.6
G1 X41.001 Y654.87 Z-3.3
X41.455 Y661.359
X41.456 Y661.38
X41.452 Y661.467 Z-3.318
X41.436 Y661.552 Z-3.337
G3 X40.877 Y662. Z-3.5 I-0.581 J-0.152
G1 X38.465
X38.18 Y661.986
X37.929 Y661.948
X37.64 Y661.875
X37.349 Y661.769
X37.017 Y661.61
X36.692 Y661.412
X36.333 Y661.142
X35.993 Y660.829
X35.753 Y660.558
X35.615 Y660.359
X35.529 Y660.133
X35.5 Y659.894
G3 X36.12 Y659.315 Z-3.3 I0.6 J0.021
X36.421 Y659.408 I-0.02 J0.6
G1 X38.765 Y660.894
G3 X39.044 Y661.38 I-0.321 J0.507
G1 X39.04 Y661.467 Z-3.318
X39.024 Y661.552 Z-3.337
G3 X38.465 Y662. Z-3.5 I-0.581 J-0.152
G1 X36.254
X36.053 Y661.997
X35.952 Y661.978
X35.902 Y661.962
X35.852 Y661.94
X35.781 Y661.9
X35.71 Y661.845
X35.651 Y661.782
X35.598 Y661.713
X35.559 Y661.643
X35.538 Y661.593
X35.522 Y661.543
X35.503 Y661.442
X35.5 Y661.241
Y655.009
X35.503 Y654.808
X35.522 Y654.707
X35.538 Y654.657
X35.559 Y654.607
X35.598 Y654.537
X35.651 Y654.468
X35.71 Y654.405
X35.781 Y654.35
X35.852 Y654.31
X35.902 Y654.288
X35.952 Y654.272
X36.053 Y654.253
X36.254 Y654.25
X37.893
G3 X38.457 Y654.715 I-0.021 J0.6
G1 X38.478 Y654.806 Z-3.493
X38.499 Y654.895 Z-3.471
X38.518 Y654.98 Z-3.435
X38.536 Y655.058 Z-3.385
X38.552 Y655.128 Z-3.324
X38.566 Y655.188 Z-3.253
X38.577 Y655.236 Z-3.172
X38.585 Y655.271 Z-3.085
X38.59 Y655.292 Z-2.994
X38.592 Y655.299 Z-2.9
Z15.
X491.744 Y322.322
Z5.
Z-9.3
Z-9.9
X491.751 Y322.321 Z-9.994
X491.773 Y322.315 Z-10.085
X491.808 Y322.306 Z-10.172
X491.855 Y322.294 Z-10.253
X491.915 Y322.279 Z-10.324
X491.984 Y322.261 Z-10.385
X492.062 Y322.241 Z-10.435
X492.146 Y322.22 Z-10.471
X492.235 Y322.197 Z-10.493
X492.326 Y322.174 Z-10.5
G3 X495.592 Y321.704 I3.801 J14.839
G1 X495.742
X495.885 Y321.749
X496.025 Y321.815
X496.19 Y321.914
X496.379 Y322.054
X496.59 Y322.245
X496.82 Y322.5
X497.068 Y322.837
X497.331 Y323.28
X497.607 Y323.871
X497.892 Y324.684
X498.101 Y325.546
X498.249 Y326.419
X498.352 Y327.299
X498.426 Y328.182
X498.477 Y329.067
X498.513 Y329.952
X498.539 Y330.838
X498.557 Y331.724
X498.57 Y332.61
X498.579 Y333.496
X498.586 Y334.643
X498.54 Y334.786
X498.474 Y334.926
X498.375 Y335.091
X498.235 Y335.281
X498.043 Y335.491
X497.787 Y335.722
X497.45 Y335.97
X497.13 Y336.16
X496.969 Y336.237
X496.797 Y336.284
X496.62 Y336.3
X482.922
X482.772 Y336.293
X482.633 Y336.235
X482.478 Y336.15
X482.298 Y336.028
X482.096 Y335.858
X481.872 Y335.629
X481.631 Y335.327
X481.373 Y334.929
X481.102 Y334.403
X480.82 Y333.689
X480.578 Y332.837
X480.407 Y331.967
X480.287 Y331.089
X480.202 Y330.207
X480.143 Y329.323
X480.1 Y328.438
X480.071 Y327.553
X480.05 Y326.667
X480.035 Y325.781
X480.025 Y324.895
X480.017 Y324.009
X480.012 Y323.122
X480.009 Y322.236
X480.004 Y320.464
X480.001 Y317.806
X480. Y309.831
Y307.465
X480.023 Y307.317
X480.074 Y307.176
X480.149 Y307.029
X480.259 Y306.856
X480.413 Y306.661
X480.622 Y306.444
X480.9 Y306.208
X481.265 Y305.955
X481.498 Y305.825
X481.652 Y305.756
X481.815 Y305.714
X481.983 Y305.7
X495.695
X495.844 Y305.707
X495.982 Y305.767
X496.14 Y305.855
X496.323 Y305.983
X496.527 Y306.158
X496.752 Y306.394
X496.996 Y306.705
X497.255 Y307.114
X497.527 Y307.657
X497.81 Y308.396
X498.043 Y309.251
X498.208 Y310.122
X498.324 Y311.
X498.405 Y311.883
X498.463 Y312.767
X498.503 Y313.652
X498.532 Y314.538
X498.552 Y315.424
X498.566 Y316.31
X498.576 Y317.196
X498.635 Y318.08
X498.867 Y318.935
X499.175 Y319.766
X499.508 Y320.587
X499.834 Y321.411
X500.14 Y322.243
X500.414 Y323.086
X500.651 Y323.939
X500.849 Y324.803
X501.012 Y325.674
X501.143 Y326.55
X501.248 Y327.43
X501.331 Y328.313
X501.395 Y329.196
X501.445 Y330.081
X501.483 Y330.966
X501.513 Y331.852
X501.532 Y332.738
X501.496 Y333.491
X501.401 Y334.129
X501.251 Y334.72
X501.05 Y335.278
X500.795 Y335.812
X500.791 Y335.818
X500.632 Y336.018
X500.427 Y336.171
X500.19 Y336.267
X499.936 Y336.3
X496.62
G3 X496.056 Y335.835 I0.021 J-0.6
G1 X496.035 Y335.744 Z-10.493
X496.014 Y335.655 Z-10.471
X495.995 Y335.57 Z-10.435
X495.977 Y335.492 Z-10.385
X495.961 Y335.422 Z-10.324
X495.947 Y335.362 Z-10.253
X495.936 Y335.314 Z-10.172
X495.928 Y335.279 Z-10.085
X495.923 Y335.258 Z-9.994
X495.921 Y335.251 Z-9.9
Z5.
X494.425 Y306.228
Z-9.3
Z-9.9
X494.432 Y306.224 Z-9.994
X494.451 Y306.213 Z-10.085
X494.481 Y306.195 Z-10.172
X494.524 Y306.169 Z-10.253
X494.576 Y306.138 Z-10.324
X494.638 Y306.102 Z-10.385
X494.707 Y306.061 Z-10.435
X494.782 Y306.016 Z-10.471
X494.86 Y305.969 Z-10.493
X494.941 Y305.921 Z-10.5
G3 X495.695 Y305.7 I0.809 J1.36
G1 X497.042
X497.192 Y305.707
X497.409 Y305.743
X497.633 Y305.804
X497.895 Y305.903
X498.174 Y306.042
X498.461 Y306.223
X498.784 Y306.474
X499.099 Y306.773
X499.443 Y307.172
X499.781 Y307.654
X500.133 Y308.279
X500.487 Y309.086
X500.761 Y309.929
X500.971 Y310.79
X501.129 Y311.662
X501.249 Y312.54
X501.339 Y313.421
X501.407 Y314.305
X501.461 Y315.189
X501.556 Y316.07
X501.72 Y316.941
X501.933 Y317.801
X502.178 Y318.653
X502.439 Y319.5
X502.701 Y320.346
X502.956 Y321.195
X503.194 Y322.049
X503.411 Y322.908
X503.606 Y323.772
X503.777 Y324.642
X503.924 Y325.515
X504.051 Y326.392
X504.157 Y327.272
X504.245 Y328.154
X504.318 Y329.037
X504.377 Y329.921
X504.421 Y330.806
X504.438 Y331.692
X504.411 Y332.578
X504.328 Y333.46
X504.18 Y334.334
X503.982 Y335.102
X503.766 Y335.694
X503.746 Y335.735
X503.627 Y335.924
X503.469 Y336.082
X503.279 Y336.201
X503.068 Y336.275
X502.846 Y336.3
X499.936
G3 X499.372 Y335.835 I0.021 J-0.6
G1 X499.351 Y335.744 Z-10.493
X499.331 Y335.655 Z-10.471
X499.311 Y335.57 Z-10.435
X499.293 Y335.492 Z-10.385
X499.277 Y335.422 Z-10.324
X499.263 Y335.362 Z-10.253
X499.252 Y335.314 Z-10.172
X499.244 Y335.279 Z-10.085
X499.239 Y335.258 Z-9.994
X499.237 Y335.251 Z-9.9
Z5.
X495.773 Y306.228
Z-9.3
Z-9.9
X495.779 Y306.224 Z-9.994
X495.798 Y306.213 Z-10.085
X495.829 Y306.195 Z-10.172
X495.872 Y306.169 Z-10.253
X495.924 Y306.138 Z-10.324
X495.986 Y306.102 Z-10.385
X496.055 Y306.061 Z-10.435
X496.129 Y306.016 Z-10.471
X496.208 Y305.969 Z-10.493
X496.289 Y305.921 Z-10.5
G3 X497.042 Y305.7 I0.809 J1.36
G1 X499.256
X499.412 Y305.708
X499.656 Y305.745
X499.945 Y305.818
X500.24 Y305.925
X500.565 Y306.081
X500.926 Y306.3
X501.278 Y306.565
X501.671 Y306.927
X502.053 Y307.357
X502.456 Y307.913
X502.866 Y308.616
X503.235 Y309.422
X503.53 Y310.257
X503.766 Y311.112
X503.952 Y311.978
X504.099 Y312.852
X504.235 Y313.727
X504.386 Y314.601
X504.562 Y315.469
X504.574 Y315.523
X504.589 Y315.598
X504.597 Y315.673
X504.6 Y315.748
Y334.984
X504.606 Y335.185
X504.622 Y335.387
X504.648 Y335.588
X504.665 Y335.688
X504.667 Y335.789
X504.653 Y335.89
X504.639 Y335.94
X504.62 Y335.99
X504.596 Y336.039
X504.567 Y336.088
X504.531 Y336.137
X504.483 Y336.191
X504.434 Y336.236
X504.385 Y336.271
X504.336 Y336.3
X504.287 Y336.323
X504.237 Y336.341
X504.187 Y336.354
X504.086 Y336.368
X503.985 Y336.364
X503.885 Y336.347
X503.684 Y336.33
X503.281 Y336.303
X503.08 Y336.3
X502.846
G3 X502.282 Y335.835 I0.021 J-0.6
G1 X502.261 Y335.744 Z-10.493
X502.24 Y335.655 Z-10.471
X502.221 Y335.57 Z-10.435
X502.203 Y335.492 Z-10.385
X502.187 Y335.422 Z-10.324
X502.173 Y335.362 Z-10.253
X502.162 Y335.314 Z-10.172
X502.154 Y335.279 Z-10.085
X502.149 Y335.258 Z-9.994
X502.147 Y335.251 Z-9.9
Z5.
X497.987 Y306.228
Z-9.3
Z-9.9
X497.993 Y306.224 Z-9.994
X498.012 Y306.213 Z-10.085
X498.043 Y306.195 Z-10.172
X498.085 Y306.169 Z-10.253
X498.138 Y306.138 Z-10.324
X498.199 Y306.102 Z-10.385
X498.268 Y306.061 Z-10.435
X498.343 Y306.016 Z-10.471
X498.422 Y305.969 Z-10.493
X498.503 Y305.921 Z-10.5
G3 X499.256 Y305.7 I0.809 J1.36
G1 X501.671
X501.923 Y305.713
X502.192 Y305.753
X502.489 Y305.829
X502.832 Y305.953
X503.171 Y306.115
X503.558 Y306.351
X503.948 Y306.645
X504.278 Y306.949
X504.414 Y307.103
X504.516 Y307.282
X504.579 Y307.479
X504.6 Y307.684
G3 X503.98 Y308.262 Z-10.3 I-0.6 J-0.021
X503.695 Y308.179 I0.02 J-0.6
G1 X501.387 Y306.816
G3 X501.092 Y306.32 I0.305 J-0.517
X501.671 Y305.7 Z-10.5 I0.6 J-0.02
G1 X503.08
X503.281 Y305.697
X503.684 Y305.67
X503.885 Y305.653
X503.915 Y305.648
X503.985 Y305.636
X504.086 Y305.632
X504.187 Y305.646
X504.237 Y305.659
X504.287 Y305.677
X504.336 Y305.7
X504.384 Y305.729
X504.433 Y305.764
X504.482 Y305.808
X504.489 Y305.815
X504.531 Y305.863
X504.566 Y305.912
X504.596 Y305.96
X504.619 Y306.009
X504.638 Y306.059
X504.652 Y306.109
X504.667 Y306.21
X504.664 Y306.311
X504.648 Y306.411
X504.622 Y306.612
X504.606 Y306.814
X504.6 Y307.015
Y315.748
G3 X504.413 Y316.163 Z-10.401 I-0.6 J-0.021
G1 X504.194 Y316.37 Z-10.337
X504.068 Y316.49 Z-10.3
X483.682 Y335.787
X483.556 Y335.906 Z-10.337
X483.313 Y336.136 Z-10.408
G3 X482.922 Y336.3 Z-10.5 I-0.412 J-0.436
G1 X481.546
X481.397 Y336.293
X481.186 Y336.256
X480.956 Y336.193
X480.687 Y336.089
X480.418 Y335.953
X480.123 Y335.766
X479.801 Y335.512
X479.485 Y335.208
X479.141 Y334.805
X478.799 Y334.313
X478.449 Y333.682
X478.097 Y332.869
X477.827 Y332.025
X477.621 Y331.163
X477.464 Y330.291
X477.346 Y329.413
X477.257 Y328.531
X477.191 Y327.648
X477.141 Y326.763
X477.104 Y325.877
X477.077 Y324.992
X477.056 Y324.106
X477.041 Y323.22
X477.03 Y322.334
X477.022 Y321.448
X477.016 Y320.562
X477.012 Y319.676
X477.006 Y317.903
X477.002 Y315.245
X477. Y309.928
X477.014 Y309.042
X477.083 Y308.305
X477.208 Y307.663
X477.385 Y307.071
X477.615 Y306.512
X477.766 Y306.23
X477.923 Y306.011
X478.133 Y305.843
X478.381 Y305.736
X478.648 Y305.7
X481.983
G3 X482.547 Y306.165 I-0.021 J0.6
G1 X482.568 Y306.256 Z-10.493
X482.589 Y306.345 Z-10.471
X482.608 Y306.43 Z-10.435
X482.626 Y306.508 Z-10.385
X482.642 Y306.578 Z-10.324
X482.656 Y306.638 Z-10.253
X482.667 Y306.686 Z-10.172
X482.675 Y306.721 Z-10.085
X482.68 Y306.742 Z-9.994
X482.682 Y306.749 Z-9.9
Z5.
X482.816 Y335.772
Z-9.3
Z-9.9
X482.809 Y335.776 Z-9.994
X482.79 Y335.787 Z-10.085
X482.759 Y335.805 Z-10.172
X482.717 Y335.831 Z-10.253
X482.665 Y335.862 Z-10.324
X482.603 Y335.898 Z-10.385
X482.534 Y335.939 Z-10.435
X482.459 Y335.984 Z-10.471
X482.381 Y336.031 Z-10.493
X482.3 Y336.079 Z-10.5
G3 X481.546 Y336.3 I-0.809 J-1.36
G1 X479.333
X479.183 Y336.293
X478.939 Y336.255
X478.652 Y336.182
X478.353 Y336.073
X478.03 Y335.917
X477.667 Y335.695
X477.315 Y335.429
X476.922 Y335.065
X476.54 Y334.634
X476.136 Y334.073
X475.935 Y333.728
X475.861 Y333.569
X475.815 Y333.4
X475.8 Y333.226
G3 X476.42 Y332.647 Z-10.3 I0.6 J0.021
X476.786 Y332.788 I-0.02 J0.6
G1 X479.698 Y335.242
G3 X479.911 Y335.68 I-0.387 J0.459
X479.333 Y336.3 Z-10.5 I-0.6 J0.02
G1 X477.32
X477.119 Y336.303
X477.008 Y336.311
X476.858 Y336.313
X476.703 Y336.3
X476.449 Y336.245
X476.219 Y336.126
X476.026 Y335.952
X475.885 Y335.734
X475.805 Y335.487
X475.79 Y335.228
G3 X476.452 Y334.698 Z-10.3 I0.596 J0.066
X476.746 Y334.814 I-0.065 J0.596
G1 X477.307 Y335.233
G3 X477.544 Y335.653 I-0.359 J0.48
G1 X477.547 Y335.74 Z-10.318
X477.536 Y335.826 Z-10.337
G3 X477.008 Y336.311 Z-10.5 I-0.589 J-0.112
G1 X476.716 Y336.33
X476.515 Y336.347
X476.415 Y336.364
X476.314 Y336.368
X476.213 Y336.354
X476.163 Y336.341
X476.113 Y336.323
X476.064 Y336.3
X476.015 Y336.271
X475.966 Y336.236
X475.911 Y336.185
X475.869 Y336.137
X475.833 Y336.088
X475.804 Y336.039
X475.78 Y335.99
X475.761 Y335.94
X475.747 Y335.89
X475.733 Y335.789
X475.735 Y335.688
X475.752 Y335.588
X475.778 Y335.387
X475.794 Y335.185
X475.8 Y334.984
Y307.015
X475.794 Y306.814
X475.79 Y306.664
X475.796 Y306.593
X475.85 Y306.341
X475.968 Y306.111
X476.141 Y305.919
X476.357 Y305.777
X476.602 Y305.696
X476.859 Y305.679
G3 X477.395 Y306.337 Z-10.3 I-0.061 J0.597
X477.252 Y306.669 I-0.597 J-0.061
G1 X476.843 Y307.14
G3 X476.455 Y307.344 I-0.454 J-0.393
X475.794 Y306.814 Z-10.5 I-0.065 J-0.596
G1 X475.778 Y306.612
X475.752 Y306.411
X475.736 Y306.311
X475.733 Y306.21
X475.748 Y306.109
X475.762 Y306.059
X475.781 Y306.009
X475.804 Y305.96
X475.834 Y305.912
X475.869 Y305.863
X475.911 Y305.815
X475.918 Y305.808
X475.967 Y305.764
X476.016 Y305.729
X476.064 Y305.7
X476.113 Y305.677
X476.163 Y305.659
X476.213 Y305.646
X476.314 Y305.632
X476.415 Y305.636
X476.515 Y305.653
X476.716 Y305.67
X477.119 Y305.697
X477.32 Y305.7
X478.648
G3 X479.212 Y306.165 I-0.021 J0.6
G1 X479.233 Y306.256 Z-10.493
X479.253 Y306.345 Z-10.471
X479.273 Y306.43 Z-10.435
X479.291 Y306.508 Z-10.385
X479.307 Y306.578 Z-10.324
X479.321 Y306.638 Z-10.253
X479.332 Y306.686 Z-10.172
X479.34 Y306.721 Z-10.085
X479.345 Y306.742 Z-9.994
X479.347 Y306.749 Z-9.9
Z15.
X489.162 Y355.391
Z5.
Z-9.3
Z-9.9
X489.169 Z-9.994
X489.191 Y355.392 Z-10.085
X489.227 Y355.394 Z-10.172
X489.276 Y355.396 Z-10.253
X489.337 Y355.399 Z-10.324
X489.409 Y355.402 Z-10.385
X489.489 Y355.405 Z-10.435
X489.576 Y355.409 Z-10.471
X489.668 Y355.413 Z-10.493
X489.761 Y355.417 Z-10.5
G3 X493.023 Y355.916 I-0.672 J15.303
G1 X493.167 Y355.96
X493.299 Y356.032
X493.412 Y356.13
X493.504 Y356.248
X493.589 Y356.39
X493.668 Y356.557
X493.72 Y356.704
X493.767 Y356.892
X493.801 Y357.127
X493.814 Y357.414
X493.799 Y357.68
X493.757 Y357.95
X493.675 Y358.27
X493.537 Y358.645
X493.382 Y358.963
X493.183 Y359.287
X492.902 Y359.656
X492.576 Y360.007
X492.246 Y360.298
X491.802 Y360.616
X491.68 Y360.686
X491.49 Y360.788
X491.378 Y360.838
X490.219 Y361.19
X490.172 Y361.201
X489.97 Y361.225
X488.965 Y361.324
X488.865 Y361.331
X488.764 Y361.324
X487.759 Y361.225
X487.557 Y361.201
X487.51 Y361.19
X486.351 Y360.838
X486.239 Y360.788
X485.346 Y360.31
X485.144 Y360.197
X485.127 Y360.184
X484.88 Y359.983
X484.34 Y359.54
X484.149 Y359.38
X484.139 Y359.37
X483.979 Y359.179
X483.483 Y358.576
X483.335 Y358.393
X483.321 Y358.375
X483.208 Y358.173
X482.731 Y357.282
X482.681 Y357.168
X482.329 Y356.009
X482.318 Y355.962
X482.294 Y355.76
X482.195 Y354.755
X482.188 Y354.655
X482.195 Y354.554
X482.294 Y353.549
X482.317 Y353.347
X482.329 Y353.299
X482.681 Y352.141
X482.731 Y352.027
X483.208 Y351.136
X483.321 Y350.934
X483.335 Y350.916
X483.536 Y350.669
X483.979 Y350.13
X484.139 Y349.939
X484.149 Y349.929
X484.34 Y349.769
X484.943 Y349.273
X485.126 Y349.125
X485.144 Y349.111
X485.346 Y348.998
X486.237 Y348.521
X486.351 Y348.471
X487.509 Y348.119
X487.557 Y348.107
X487.759 Y348.084
X488.764 Y347.985
X488.865 Y347.978
X488.965 Y347.985
X489.97 Y348.084
X490.172 Y348.107
X490.22 Y348.119
X491.378 Y348.471
X491.492 Y348.521
X492.383 Y348.998
X492.585 Y349.111
X492.603 Y349.125
X492.85 Y349.326
X493.389 Y349.769
X493.58 Y349.929
X493.59 Y349.939
X493.75 Y350.13
X494.246 Y350.733
X494.394 Y350.916
X494.408 Y350.934
X494.521 Y351.136
X494.998 Y352.028
X495.048 Y352.141
X495.4 Y353.3
X495.411 Y353.347
X495.435 Y353.549
X495.534 Y354.554
X495.541 Y354.655
X495.534 Y354.755
X495.435 Y355.76
X495.411 Y355.962
X495.4 Y356.008
X495.048 Y357.168
X494.998 Y357.281
X494.521 Y358.173
X494.408 Y358.375
X494.394 Y358.393
X494.193 Y358.64
X493.75 Y359.179
X493.59 Y359.37
X493.58 Y359.38
X493.389 Y359.54
X492.786 Y360.035
X492.602 Y360.184
X492.585 Y360.197
X492.383 Y360.31
X491.68 Y360.686
G3 X490.963 Y360.542 I-0.264 J-0.539
G1 X490.902 Y360.472 Z-10.493
X490.841 Y360.403 Z-10.471
X490.784 Y360.337 Z-10.435
X490.731 Y360.277 Z-10.385
X490.684 Y360.223 Z-10.324
X490.644 Y360.177 Z-10.253
X490.612 Y360.14 Z-10.172
X490.588 Y360.113 Z-10.085
X490.574 Y360.096 Z-9.994
X490.569 Y360.09 Z-9.9
Z15.
X295.869 Y1106.865
Z5.
Z-9.3
Z-9.9
X295.867 Y1106.858 Z-9.994
X295.861 Y1106.836 Z-10.085
X295.852 Y1106.802 Z-10.172
X295.84 Y1106.754 Z-10.253
X295.825 Y1106.695 Z-10.324
X295.807 Y1106.625 Z-10.385
X295.787 Y1106.548 Z-10.435
X295.766 Y1106.463 Z-10.471
X295.743 Y1106.375 Z-10.493
X295.72 Y1106.284 Z-10.5
G3 X295.25 Y1103.017 I14.839 J-3.801
G1 Y1102.539
X295.252 Y1102.501
X295.369 Y1102.325
X295.531 Y1102.125
X295.751 Y1101.905
X296.042 Y1101.666
X296.424 Y1101.411
X296.93 Y1101.141
X297.612 Y1100.861
X298.461 Y1100.606
X299.329 Y1100.427
X300.206 Y1100.301
X301.087 Y1100.212
X301.971 Y1100.15
X302.856 Y1100.105
X303.742 Y1100.074
X304.628 Y1100.052
X305.514 Y1100.037
X306.4 Y1100.026
X307.286 Y1100.018
X308.172 Y1100.013
X308.746 Y1100.01
X309.005 Y1100.044
X309.248 Y1100.143
X309.456 Y1100.302
X309.615 Y1100.509
X309.716 Y1100.751
X309.75 Y1101.01
G3 X309.694 Y1101.264 Z-10.444 I-0.6 J0.
X309.239 Y1101.604 Z-10.319 I-0.544 J-0.254
G1 X309.151 Y1101.617 Z-10.3
X296.076 Y1103.579
G3 X295.562 Y1103.409 I-0.089 J-0.593
G1 X295.513 Y1103.353 Z-10.316
X295.471 Y1103.292 Z-10.331
X295.458 Y1103.27 Z-10.337
G3 X295.25 Y1102.539 Z-10.5 I1.373 J-0.787
G1 Y1101.334
X295.258 Y1101.184
X295.316 Y1100.954
X295.41 Y1100.699
X295.535 Y1100.441
X295.715 Y1100.145
X295.946 Y1099.841
X296.24 Y1099.524
X296.617 Y1099.19
X297.091 Y1098.849
X297.686 Y1098.504
X298.462 Y1098.152
X299.301 Y1097.868
X300.16 Y1097.651
X301.031 Y1097.487
X301.908 Y1097.363
X302.79 Y1097.27
X303.673 Y1097.2
X304.558 Y1097.148
X305.443 Y1097.109
X306.329 Y1097.08
X307.215 Y1097.074
X307.951 Y1097.128
X308.53 Y1097.229
X309.023 Y1097.367
X309.113 Y1097.401
X309.324 Y1097.514
X309.502 Y1097.674
X309.637 Y1097.872
X309.721 Y1098.096
X309.75 Y1098.333
Y1099.948
G3 X309.213 Y1100.524 Z-10.318 I-0.6 J-0.021
G1 X309.13 Y1100.532 Z-10.3
X295.912 Y1101.91
X295.87 Y1101.912
G3 X295.25 Y1101.334 Z-10.5 I-0.02 J-0.6
G1 Y1099.436
X295.264 Y1099.148
X295.302 Y1098.899
X295.374 Y1098.616
X295.478 Y1098.328
X295.638 Y1097.995
X295.844 Y1097.656
X296.115 Y1097.296
X296.465 Y1096.917
X296.903 Y1096.527
X297.447 Y1096.133
X298.143 Y1095.727
X298.948 Y1095.359
X299.784 Y1095.064
X300.638 Y1094.829
X301.505 Y1094.643
X302.379 Y1094.497
X303.258 Y1094.383
X304.139 Y1094.294
X305.023 Y1094.229
X305.909 Y1094.199
X306.795 Y1094.214
X307.678 Y1094.288
X308.376 Y1094.412
X308.939 Y1094.57
X309.115 Y1094.64
X309.326 Y1094.753
X309.503 Y1094.913
X309.638 Y1095.11
X309.721 Y1095.333
X309.75 Y1095.571
Y1098.333
G3 X309.2 Y1098.91 Z-10.315 I-0.6 J-0.021
G1 X309.13 Y1098.916 Z-10.3
X295.899 Y1100.013
X295.87 Y1100.015
X295.783 Y1100.011 Z-10.318
X295.698 Y1099.995 Z-10.337
G3 X295.25 Y1099.436 Z-10.5 I0.152 J-0.58
G1 Y1096.825
X295.258 Y1096.657
X295.299 Y1096.39
X295.374 Y1096.093
X295.498 Y1095.752
X295.66 Y1095.414
X295.895 Y1095.027
X296.187 Y1094.64
X296.578 Y1094.216
X297.047 Y1093.798
X297.657 Y1093.356
X298.422 Y1092.91
X299.228 Y1092.541
X300.061 Y1092.238
X300.912 Y1091.99
X301.775 Y1091.789
X302.646 Y1091.628
X303.523 Y1091.504
X304.405 Y1091.416
X305.29 Y1091.368
X306.176 Y1091.363
X307.061 Y1091.409
X307.94 Y1091.518
X308.584 Y1091.664
X309.133 Y1091.846
X309.161 Y1091.859
X309.361 Y1091.978
X309.528 Y1092.14
X309.653 Y1092.335
X309.729 Y1092.555
X309.753 Y1092.786
X309.75 Y1093.01
Y1095.571
G3 X309.207 Y1096.147 Z-10.316 I-0.6 J-0.021
G1 X309.13 Y1096.154 Z-10.3
X295.906 Y1097.402
X295.87 Y1097.404
G3 X295.25 Y1096.825 Z-10.5 I-0.02 J-0.6
G1 Y1094.215
X295.259 Y1094.032
X295.304 Y1093.736
X295.38 Y1093.435
X295.507 Y1093.086
X295.686 Y1092.713
X295.921 Y1092.325
X296.241 Y1091.901
X296.641 Y1091.467
X297.149 Y1091.015
X297.801 Y1090.543
X298.566 Y1090.096
X299.369 Y1089.722
X300.198 Y1089.41
X301.046 Y1089.152
X301.907 Y1088.943
X302.778 Y1088.779
X303.656 Y1088.657
X304.538 Y1088.576
X305.424 Y1088.537
X306.31 Y1088.543
X307.194 Y1088.605
X307.632 Y1088.667
X308.363 Y1088.803
X308.936 Y1088.97
X309.416 Y1089.164
X309.85 Y1089.39
X310.002 Y1089.49
X310.203 Y1089.664
X310.35 Y1089.885
X310.435 Y1090.137
X310.45 Y1090.402
X310.395 Y1090.662
X310.273 Y1090.898
G3 X309.946 Y1091.118 Z-10.415 I-0.48 J-0.36
G1 X309.592 Y1091.211 Z-10.337
X309.424 Y1091.255 Z-10.3
X296.002 Y1094.774
X295.936 Y1094.787
X295.87 Y1094.793
G3 X295.25 Y1094.215 Z-10.5 I-0.02 J-0.6
G1 Y1093.01
X295.242 Y1092.407
X295.223 Y1092.206
X295.191 Y1092.006
X295.167 Y1091.857
X295.159 Y1091.61
X295.175 Y1091.35
X295.226 Y1091.039
X295.314 Y1090.709
X295.449 Y1090.352
X295.65 Y1089.947
X295.902 Y1089.545
X296.252 Y1089.092
X296.682 Y1088.638
X297.235 Y1088.159
X297.937 Y1087.664
X298.708 Y1087.228
X299.514 Y1086.859
X300.344 Y1086.55
X301.193 Y1086.296
X302.055 Y1086.091
X302.927 Y1085.932
X303.805 Y1085.816
X304.689 Y1085.744
X305.574 Y1085.714
X306.46 Y1085.737
X307.343 Y1085.813
X308.218 Y1085.953
X309.078 Y1086.166
X309.092 Y1086.171
X309.3 Y1086.274
X309.478 Y1086.421
X309.618 Y1086.605
X309.712 Y1086.816
X309.755 Y1087.043
X309.765 Y1087.186
X309.79 Y1087.387
X309.828 Y1087.588
X309.881 Y1087.788
X309.939 Y1087.956
X309.951 Y1087.989
X310.033 Y1088.19
X310.147 Y1088.391
X310.267 Y1088.592
X310.341 Y1088.698
X310.589 Y1088.993
X310.744 Y1089.146
X310.795 Y1089.194
X310.945 Y1089.322
X311.008 Y1089.395
X311.041 Y1089.445
X311.067 Y1089.495
X311.088 Y1089.546
X311.103 Y1089.596
X311.121 Y1089.696
Y1089.797
X311.104 Y1089.897
X311.089 Y1089.947
X311.069 Y1089.997
X311.019 Y1090.087
X310.945 Y1090.176
X310.922 Y1090.198
X310.824 Y1090.283
G3 X310.53 Y1090.41 Z-10.431 I-0.377 J-0.467
G1 X310.09 Y1090.472 Z-10.337
X309.918 Y1090.495 Z-10.3
X295.921 Y1092.442
X295.855 Y1092.451 Z-10.314
X295.802 Y1092.456 Z-10.326
X295.748 Y1092.457 Z-10.337
G3 X295.191 Y1092.006 Z-10.5 I0.024 J-0.6
G1 X295.147 Y1091.805
X295.061 Y1091.534
X295.005 Y1091.403
X294.911 Y1091.202
X294.799 Y1091.001
X294.722 Y1090.891
X294.627 Y1090.74
X294.544 Y1090.572
X294.474 Y1090.386
X294.412 Y1090.154
X294.372 Y1089.906
X294.354 Y1089.615
X294.365 Y1089.295
X294.367 Y1089.285
X294.409 Y1089.103
X294.485 Y1088.932
X294.591 Y1088.778
G3 X295.294 Y1088.637 Z-10.337 I0.446 J0.401
G1 X295.37 Y1088.68 Z-10.318
X295.438 Y1088.733 Z-10.3
G3 X295.633 Y1089.107 I-0.401 J0.446
G1 X295.797 Y1090.458
G3 X295.561 Y1091.011 I-0.596 J0.073
G1 X295.488 Y1091.058 Z-10.318
X295.409 Y1091.094 Z-10.337
G3 X294.722 Y1090.891 Z-10.5 I-0.208 J-0.563
G1 X294.659 Y1090.8
X294.497 Y1090.6
X294.457 Y1090.555
X294.306 Y1090.399
X294.256 Y1090.353
X294.078 Y1090.198
X294.055 Y1090.176
X293.981 Y1090.087
X293.931 Y1089.997
X293.911 Y1089.947
X293.896 Y1089.897
X293.879 Y1089.797
Y1089.696
X293.897 Y1089.596
X293.912 Y1089.546
X293.933 Y1089.495
X293.959 Y1089.445
X293.992 Y1089.395
X294.055 Y1089.322
X294.205 Y1089.194
X294.256 Y1089.146
X294.411 Y1088.993
X294.659 Y1088.698
X294.733 Y1088.592
X294.86 Y1088.379
X294.967 Y1088.19
X295.049 Y1087.989
X295.236 Y1087.552
X295.476 Y1087.116
X295.785 Y1086.668
X296.201 Y1086.177
X296.703 Y1085.691
X297.35 Y1085.179
X298.096 Y1084.7
X298.882 Y1084.291
X299.697 Y1083.944
X300.534 Y1083.653
X301.387 Y1083.413
X302.252 Y1083.222
X303.126 Y1083.075
X304.007 Y1082.972
X304.891 Y1082.913
X305.777 Y1082.898
X306.662 Y1082.93
X307.544 Y1083.015
X308.293 Y1083.143
X308.883 Y1083.306
X309.11 Y1083.393
X309.322 Y1083.506
X309.501 Y1083.666
X309.637 Y1083.864
X309.721 Y1084.088
X309.75 Y1084.327
Y1086.583
X309.751 Y1086.985
X309.755 Y1087.043
G3 X309.205 Y1087.663 Z-10.306 I-0.6 J0.021
G1 X309.177 Y1087.665 Z-10.3
X295.667 Y1088.776
X295.587 Y1088.777
X295.507 Y1088.767
X295.429 Y1088.747
G3 X295.049 Y1087.989 Z-10.5 I0.189 J-0.569
G1 X295.061 Y1087.956
X295.119 Y1087.788
X295.172 Y1087.588
X295.21 Y1087.387
X295.235 Y1087.186
X295.249 Y1086.985
X295.25 Y1085.981
X295.268 Y1085.631
X295.308 Y1085.359
X295.39 Y1085.036
X295.515 Y1084.692
X295.693 Y1084.321
X295.943 Y1083.91
X296.262 Y1083.486
X296.683 Y1083.03
X296.995 Y1082.753
X297.193 Y1082.615
X297.419 Y1082.529
X297.659 Y1082.5
G3 X298.219 Y1082.948 Z-10.337 I-0.021 J0.6
G1 X298.235 Y1083.033 Z-10.318
X298.238 Y1083.12 Z-10.3
G3 X298.147 Y1083.418 I-0.6 J-0.021
G1 X296.358 Y1086.278
G3 X295.87 Y1086.56 I-0.509 J-0.318
X295.25 Y1085.981 Z-10.5 I-0.02 J-0.6
G1 Y1083.772
X295.242 Y1083.571
X295.226 Y1083.37
X295.214 Y1083.221
X295.254 Y1083.013
X295.347 Y1082.822
X295.486 Y1082.663
X295.663 Y1082.547
X295.864 Y1082.481
X296.076 Y1082.47
G3 X296.674 Y1082.9 Z-10.337 I-0.09 J0.756
G1 X296.707 Y1082.98 Z-10.318
X296.73 Y1083.064 Z-10.3
X296.742 Y1083.138
X296.748 Y1083.212
G3 X295.995 Y1083.994 I-0.767 J0.015
X295.861 Y1083.985 I-0.015 J-0.767
G1 X295.777 Y1083.967 Z-10.318
X295.694 Y1083.939 Z-10.337
G3 X295.226 Y1083.37 Z-10.5 I0.286 J-0.712
G1 X295.195 Y1083.169
X295.183 Y1083.069
X295.188 Y1082.969
X295.211 Y1082.868
X295.229 Y1082.818
X295.253 Y1082.768
X295.262 Y1082.751
X295.323 Y1082.659
X295.363 Y1082.613
X295.413 Y1082.567
X295.463 Y1082.53
X295.513 Y1082.501
X295.563 Y1082.477
X295.614 Y1082.459
X295.664 Y1082.445
X295.764 Y1082.432
X295.865 Y1082.436
X296.066 Y1082.469
X296.267 Y1082.486
X296.669 Y1082.496
X296.87 Y1082.5
X308.13
X308.331 Y1082.496
X308.733 Y1082.486
X308.934 Y1082.469
X309.135 Y1082.436
X309.236 Y1082.432
X309.336 Y1082.445
X309.386 Y1082.459
X309.437 Y1082.477
X309.487 Y1082.501
X309.537 Y1082.53
X309.587 Y1082.567
X309.637 Y1082.613
X309.677 Y1082.659
X309.738 Y1082.751
X309.747 Y1082.768
X309.771 Y1082.818
X309.789 Y1082.868
X309.812 Y1082.969
X309.817 Y1083.069
X309.805 Y1083.169
X309.774 Y1083.37
X309.758 Y1083.571
X309.75 Y1083.772
Y1084.327
G3 X309.285 Y1084.89 I-0.6 J-0.021
G1 X309.194 Y1084.911 Z-10.493
X309.104 Y1084.931 Z-10.471
X309.02 Y1084.951 Z-10.435
X308.941 Y1084.969 Z-10.385
X308.872 Y1084.985 Z-10.324
X308.812 Y1084.999 Z-10.253
X308.764 Y1085.01 Z-10.172
X308.729 Y1085.018 Z-10.085
X308.708 Y1085.023 Z-9.994
X308.7 Y1085.025 Z-9.9
Z15.
M5
G53 G0 Z0.
M30
