(Bore 6mm Guld)
(T1 D=6. CR=0. - ZMIN=-8.5 - flat end mill)
G90
(When using Fusion for Personal Use, the feedrate of rapid)
(moves is reduced to match the feedrate of cutting moves,)
(which can increase machining time. Unrestricted rapid moves)
(are available with a Fusion Subscription.)
G53 G0 Z0.

(Bore1)
T1 M6 (flat end mill D=6. 6mm Flat Endmill)
S5000 M3
G64
G90 G94
G54
M8
G43 H1
G0 X515.5 Y503.475
Z15.
G1 Z0.9 F1000
Z-0.5
X515.513 Y503.462
X515.521 Y503.466
X515.525 Y503.475
X515.518 Y503.493 Z-0.526
X515.5 Y503.5 Z-0.552
X515.483 Y503.493 Z-0.578
X515.475 Y503.476 Z-0.605
X515.482 Y503.458 Z-0.631
X515.499 Y503.45 Z-0.657
X515.517 Y503.456 Z-0.683
X515.525 Y503.473 Z-0.709
X515.519 Y503.491 Z-0.735
X515.502 Y503.5 Z-0.761
X515.484 Y503.494 Z-0.788
X515.475 Y503.477 Z-0.814
X515.481 Y503.459 Z-0.84
X515.497 Y503.45 Z-0.866
X515.515 Y503.455 Z-0.892
X515.525 Y503.472 Z-0.918
X515.52 Y503.49 Z-0.944
X515.504 Y503.5 Z-0.971
X515.485 Y503.495 Z-0.997
X515.475 Y503.479 Z-1.023
X515.48 Y503.46 Z-1.049
X515.496 Y503.45 Z-1.075
X515.514 Y503.454 Z-1.101
X515.525 Y503.47 Z-1.127
X515.521 Y503.489 Z-1.154
X515.505 Y503.499 Z-1.18
X515.486 Y503.496 Z-1.206
X515.476 Y503.48 Z-1.232
X515.479 Y503.462 Z-1.258
X515.494 Y503.451 Z-1.284
X515.513 Y503.454 Z-1.31
X515.524 Y503.469 Z-1.337
X515.522 Y503.487 Z-1.363
X515.507 Y503.499 Z-1.389
X515.488 Y503.497 Z-1.415
X515.476 Y503.482 Z-1.441
X515.478 Y503.463 Z-1.467
X515.493 Y503.451 Z-1.493
X515.511 Y503.453 Z-1.52
X515.524 Y503.467 Z-1.546
X515.522 Y503.486 Z-1.572
X515.508 Y503.499 Z-1.598
X515.489 Y503.498 Z-1.624
X515.476 Y503.483 Z-1.65
X515.477 Y503.465 Z-1.676
X515.491 Y503.452 Z-1.703
X515.51 Z-1.729
X515.523 Y503.466 Z-1.755
Y503.485 Z-1.781
X515.51 Y503.498 Z-1.807
X515.491 Z-1.833
X515.477 Y503.485 Z-1.859
Y503.466 Z-1.886
X515.49 Y503.452 Z-1.912
X515.509 Z-1.938
X515.523 Y503.464 Z-1.964
X515.524 Y503.483 Z-1.99
X515.511 Y503.497 Z-2.016
X515.492 Y503.499 Z-2.042
X515.478 Y503.486 Z-2.069
X515.476 Y503.467 Z-2.095
X515.488 Y503.453 Z-2.121
X515.507 Y503.451 Z-2.147
X515.522 Y503.463 Z-2.173
X515.524 Y503.482 Z-2.199
X515.512 Y503.497 Z-2.225
X515.494 Y503.499 Z-2.252
X515.479 Y503.488 Z-2.278
X515.476 Y503.469 Z-2.304
X515.487 Y503.454 Z-2.33
X515.506 Y503.451 Z-2.356
X515.521 Y503.462 Z-2.382
X515.524 Y503.48 Z-2.408
X515.514 Y503.496 Z-2.435
X515.495 Y503.499 Z-2.461
X515.479 Y503.489 Z-2.487
X515.475 Y503.471 Z-2.513
X515.486 Y503.455 Z-2.539
X515.504 Y503.45 Z-2.565
X515.52 Y503.46 Z-2.592
X515.525 Y503.479 Z-2.618
X515.515 Y503.495 Z-2.644
X515.497 Y503.5 Z-2.67
X515.48 Y503.49 Z-2.696
X515.475 Y503.472 Z-2.722
X515.484 Y503.456 Z-2.748
X515.502 Y503.45 Z-2.775
X515.519 Y503.459 Z-2.801
X515.525 Y503.477 Z-2.827
X515.516 Y503.494 Z-2.853
X515.498 Y503.5 Z-2.879
X515.481 Y503.492 Z-2.905
X515.475 Y503.474 Z-2.931
X515.483 Y503.457 Z-2.958
X515.501 Y503.45 Z-2.984
X515.518 Y503.458 Z-3.01
X515.525 Y503.476 Z-3.036
X515.517 Y503.493 Z-3.062
X515.5 Y503.5 Z-3.088
X515.482 Y503.493 Z-3.114
X515.475 Y503.475 Z-3.141
X515.482 Y503.458 Z-3.167
X515.499 Y503.45 Z-3.193
X515.517 Y503.457 Z-3.219
X515.525 Y503.474 Z-3.245
X515.519 Y503.492 Z-3.271
X515.501 Y503.5 Z-3.297
X515.484 Y503.494 Z-3.324
X515.475 Y503.477 Z-3.35
X515.481 Y503.459 Z-3.376
X515.498 Y503.45 Z-3.402
X515.516 Y503.456 Z-3.428
X515.525 Y503.472 Z-3.454
X515.52 Y503.491 Z-3.48
X515.503 Y503.5 Z-3.507
X515.485 Y503.495 Z-3.533
X515.475 Y503.478 Z-3.559
X515.48 Y503.46 Z-3.585
X515.496 Y503.45 Z-3.611
X515.515 Y503.455 Z-3.637
X515.525 Y503.471 Z-3.663
X515.52 Y503.489 Z-3.69
X515.505 Y503.5 Z-3.716
X515.486 Y503.496 Z-3.742
X515.476 Y503.48 Z-3.768
X515.479 Y503.461 Z-3.794
X515.495 Y503.451 Z-3.82
X515.513 Y503.454 Z-3.846
X515.524 Y503.469 Z-3.873
X515.521 Y503.488 Z-3.899
X515.506 Y503.499 Z-3.925
X515.487 Y503.497 Z-3.951
X515.476 Y503.481 Z-3.977
X515.478 Y503.463 Z-4.003
X515.493 Y503.451 Z-4.029
X515.512 Y503.453 Z-4.056
X515.524 Y503.468 Z-4.082
X515.522 Y503.487 Z-4.108
X515.508 Y503.499 Z-4.134
X515.489 Y503.497 Z-4.16
X515.476 Y503.483 Z-4.186
X515.478 Y503.464 Z-4.212
X515.492 Y503.451 Z-4.239
X515.511 Y503.452 Z-4.265
X515.523 Y503.466 Z-4.291
Y503.485 Z-4.317
X515.509 Y503.498 Z-4.343
X515.49 Z-4.369
X515.477 Y503.484 Z-4.395
Y503.466 Z-4.422
X515.49 Y503.452 Z-4.448
X515.509 Z-4.474
X515.523 Y503.465 Z-4.5
Y503.484 Z-4.526
X515.511 Y503.498 Z-4.552
X515.492 Y503.499 Z-4.578
X515.478 Y503.486 Z-4.605
X515.476 Y503.467 Z-4.631
X515.489 Y503.453 Z-4.657
X515.508 Y503.451 Z-4.683
X515.522 Y503.463 Z-4.709
X515.524 Y503.482 Z-4.735
X515.512 Y503.497 Z-4.761
X515.493 Y503.499 Z-4.788
X515.478 Y503.487 Z-4.814
X515.476 Y503.468 Z-4.84
X515.487 Y503.453 Z-4.866
X515.506 Y503.451 Z-4.892
X515.521 Y503.462 Z-4.918
X515.524 Y503.481 Z-4.944
X515.513 Y503.496 Z-4.971
X515.495 Y503.499 Z-4.997
X515.479 Y503.489 Z-5.023
X515.475 Y503.47 Z-5.049
X515.486 Y503.454 Z-5.075
X515.505 Y503.45 Z-5.101
X515.52 Y503.461 Z-5.127
X515.525 Y503.479 Z-5.154
X515.515 Y503.495 Z-5.18
X515.496 Y503.5 Z-5.206
X515.48 Y503.49 Z-5.232
X515.475 Y503.472 Z-5.258
X515.485 Y503.455 Z-5.284
X515.503 Y503.45 Z-5.31
X515.52 Y503.459 Z-5.337
X515.525 Y503.478 Z-5.363
X515.516 Y503.494 Z-5.389
X515.498 Y503.5 Z-5.415
X515.481 Y503.491 Z-5.441
X515.475 Y503.473 Z-5.467
X515.483 Y503.456 Z-5.493
X515.501 Y503.45 Z-5.52
X515.519 Y503.458 Z-5.546
X515.525 Y503.476 Z-5.572
X515.517 Y503.493 Z-5.598
X515.499 Y503.5 Z-5.624
X515.482 Y503.492 Z-5.65
X515.475 Y503.475 Z-5.676
X515.482 Y503.457 Z-5.703
X515.5 Y503.45 Z-5.729
X515.517 Y503.457 Z-5.755
X515.525 Y503.474 Z-5.781
X515.518 Y503.492 Z-5.807
X515.501 Y503.5 Z-5.833
X515.483 Y503.493 Z-5.859
X515.475 Y503.476 Z-5.886
X515.481 Y503.458 Z-5.912
X515.498 Y503.45 Z-5.938
X515.516 Y503.456 Z-5.964
X515.525 Y503.473 Z-5.99
X515.519 Y503.491 Z-6.016
X515.503 Y503.5 Z-6.042
X515.484 Y503.494 Z-6.069
X515.475 Y503.478 Z-6.095
X515.48 Y503.46 Z-6.121
X515.497 Y503.45 Z-6.147
X515.515 Y503.455 Z-6.173
X515.525 Y503.471 Z-6.199
X515.52 Y503.49 Z-6.225
X515.504 Y503.5 Z-6.252
X515.486 Y503.495 Z-6.278
X515.475 Y503.479 Z-6.304
X515.479 Y503.461 Z-6.33
X515.495 Y503.45 Z-6.356
X515.514 Y503.454 Z-6.382
X515.524 Y503.47 Z-6.408
X515.521 Y503.488 Z-6.435
X515.506 Y503.499 Z-6.461
X515.487 Y503.496 Z-6.487
X515.476 Y503.481 Z-6.513
X515.479 Y503.462 Z-6.539
X515.494 Y503.451 Z-6.565
X515.512 Y503.453 Z-6.592
X515.524 Y503.468 Z-6.618
X515.522 Y503.487 Z-6.644
X515.507 Y503.499 Z-6.67
X515.488 Y503.497 Z-6.696
X515.476 Y503.482 Z-6.722
X515.478 Y503.464 Z-6.748
X515.492 Y503.451 Z-6.775
X515.511 Y503.453 Z-6.801
X515.524 Y503.467 Z-6.827
X515.523 Y503.486 Z-6.853
X515.509 Y503.498 Z-6.879
X515.49 Z-6.905
X515.477 Y503.484 Z-6.931
Y503.465 Z-6.958
X515.491 Y503.452 Z-6.984
X515.51 Z-7.01
X515.523 Y503.465 Z-7.036
Y503.484 Z-7.062
X515.51 Y503.498 Z-7.088
X515.491 Z-7.114
X515.477 Y503.485 Z-7.141
X515.476 Y503.466 Z-7.167
X515.489 Y503.452 Z-7.193
X515.508 Y503.451 Z-7.219
X515.522 Y503.464 Z-7.245
X515.524 Y503.483 Z-7.271
X515.511 Y503.497 Z-7.297
X515.493 Y503.499 Z-7.324
X515.478 Y503.487 Z-7.35
X515.476 Y503.468 Z-7.376
X515.488 Y503.453 Z-7.402
X515.507 Y503.451 Z-7.428
X515.522 Y503.462 Z-7.454
X515.524 Y503.481 Z-7.48
X515.513 Y503.496 Z-7.507
X515.494 Y503.499 Z-7.533
X515.479 Y503.488 Z-7.559
X515.476 Y503.47 Z-7.585
X515.486 Y503.454 Z-7.611
X515.505 Y503.45 Z-7.637
X515.521 Y503.461 Z-7.663
X515.525 Y503.48 Z-7.69
X515.514 Y503.496 Z-7.716
X515.496 Y503.5 Z-7.742
X515.48 Y503.49 Z-7.768
X515.475 Y503.471 Z-7.794
X515.485 Y503.455 Z-7.82
X515.504 Y503.45 Z-7.846
X515.52 Y503.46 Z-7.873
X515.525 Y503.478 Z-7.899
X515.515 Y503.495 Z-7.925
X515.497 Y503.5 Z-7.951
X515.481 Y503.491 Z-7.977
X515.475 Y503.473 Z-8.003
X515.484 Y503.456 Z-8.029
X515.502 Y503.45 Z-8.056
X515.519 Y503.459 Z-8.082
X515.525 Y503.477 Z-8.108
X515.517 Y503.494 Z-8.134
X515.499 Y503.5 Z-8.16
X515.482 Y503.492 Z-8.186
X515.475 Y503.474 Z-8.212
X515.483 Y503.457 Z-8.239
X515.5 Y503.45 Z-8.265
X515.518 Y503.457 Z-8.291
X515.525 Y503.475 Z-8.317
X515.518 Y503.493 Z-8.343
X515.5 Y503.5 Z-8.369
X515.483 Y503.493 Z-8.395
X515.475 Y503.476 Z-8.422
X515.482 Y503.458 Z-8.448
X515.499 Y503.45 Z-8.474
X515.517 Y503.456 Z-8.5
G3 X515.519 Y503.492 I-0.017 J0.019
X515.483 Y503.494 I-0.019 J-0.017
X515.481 Y503.458 I0.017 J-0.019
X515.517 Y503.456 I0.019 J0.017
G1 X515.521 Y503.465
X515.518 Y503.474
X515.5 Y503.475
Z5.
Y510.525
Z0.9
Z-0.5
X515.513 Y510.512
X515.521 Y510.516
X515.525 Y510.525
X515.518 Y510.543 Z-0.526
X515.5 Y510.55 Z-0.552
X515.483 Y510.543 Z-0.578
X515.475 Y510.526 Z-0.605
X515.482 Y510.508 Z-0.631
X515.499 Y510.5 Z-0.657
X515.517 Y510.506 Z-0.683
X515.525 Y510.523 Z-0.709
X515.519 Y510.541 Z-0.735
X515.502 Y510.55 Z-0.761
X515.484 Y510.544 Z-0.788
X515.475 Y510.527 Z-0.814
X515.481 Y510.509 Z-0.84
X515.497 Y510.5 Z-0.866
X515.515 Y510.505 Z-0.892
X515.525 Y510.522 Z-0.918
X515.52 Y510.54 Z-0.944
X515.504 Y510.55 Z-0.971
X515.485 Y510.545 Z-0.997
X515.475 Y510.529 Z-1.023
X515.48 Y510.51 Z-1.049
X515.496 Y510.5 Z-1.075
X515.514 Y510.504 Z-1.101
X515.525 Y510.52 Z-1.127
X515.521 Y510.539 Z-1.154
X515.505 Y510.549 Z-1.18
X515.486 Y510.546 Z-1.206
X515.476 Y510.53 Z-1.232
X515.479 Y510.512 Z-1.258
X515.494 Y510.501 Z-1.284
X515.513 Y510.504 Z-1.31
X515.524 Y510.519 Z-1.337
X515.522 Y510.538 Z-1.363
X515.507 Y510.549 Z-1.389
X515.488 Y510.547 Z-1.415
X515.476 Y510.532 Z-1.441
X515.478 Y510.513 Z-1.467
X515.493 Y510.501 Z-1.493
X515.512 Y510.503 Z-1.52
X515.524 Y510.517 Z-1.546
X515.522 Y510.536 Z-1.572
X515.508 Y510.549 Z-1.598
X515.489 Y510.548 Z-1.624
X515.476 Y510.533 Z-1.65
X515.477 Y510.515 Z-1.676
X515.491 Y510.502 Z-1.703
X515.51 Z-1.729
X515.523 Y510.516 Z-1.755
Y510.535 Z-1.781
X515.51 Y510.548 Z-1.807
X515.491 Z-1.833
X515.477 Y510.535 Z-1.859
Y510.516 Z-1.886
X515.49 Y510.502 Z-1.912
X515.509 Z-1.938
X515.523 Y510.514 Z-1.964
X515.524 Y510.533 Z-1.99
X515.511 Y510.547 Z-2.016
X515.492 Y510.549 Z-2.042
X515.478 Y510.536 Z-2.069
X515.476 Y510.517 Z-2.095
X515.488 Y510.503 Z-2.121
X515.507 Y510.501 Z-2.147
X515.522 Y510.513 Z-2.173
X515.524 Y510.532 Z-2.199
X515.512 Y510.547 Z-2.225
X515.494 Y510.549 Z-2.252
X515.479 Y510.538 Z-2.278
X515.476 Y510.519 Z-2.304
X515.487 Y510.504 Z-2.33
X515.506 Y510.501 Z-2.356
X515.521 Y510.512 Z-2.382
X515.524 Y510.53 Z-2.408
X515.514 Y510.546 Z-2.435
X515.495 Y510.55 Z-2.461
X515.479 Y510.539 Z-2.487
X515.475 Y510.521 Z-2.513
X515.486 Y510.505 Z-2.539
X515.504 Y510.5 Z-2.565
X515.52 Y510.51 Z-2.592
X515.525 Y510.529 Z-2.618
X515.515 Y510.545 Z-2.644
X515.497 Y510.55 Z-2.67
X515.48 Y510.54 Z-2.696
X515.475 Y510.522 Z-2.722
X515.484 Y510.506 Z-2.748
X515.502 Y510.5 Z-2.775
X515.519 Y510.509 Z-2.801
X515.525 Y510.527 Z-2.827
X515.516 Y510.544 Z-2.853
X515.498 Y510.55 Z-2.879
X515.481 Y510.542 Z-2.905
X515.475 Y510.524 Z-2.931
X515.483 Y510.507 Z-2.958
X515.501 Y510.5 Z-2.984
X515.518 Y510.508 Z-3.01
X515.525 Y510.526 Z-3.036
X515.517 Y510.543 Z-3.062
X515.5 Y510.55 Z-3.088
X515.482 Y510.543 Z-3.114
X515.475 Y510.525 Z-3.141
X515.482 Y510.508 Z-3.167
X515.499 Y510.5 Z-3.193
X515.517 Y510.507 Z-3.219
X515.525 Y510.524 Z-3.245
X515.519 Y510.542 Z-3.271
X515.501 Y510.55 Z-3.297
X515.484 Y510.544 Z-3.324
X515.475 Y510.527 Z-3.35
X515.481 Y510.509 Z-3.376
X515.498 Y510.5 Z-3.402
X515.516 Y510.506 Z-3.428
X515.525 Y510.522 Z-3.454
X515.52 Y510.541 Z-3.48
X515.503 Y510.55 Z-3.507
X515.485 Y510.545 Z-3.533
X515.475 Y510.528 Z-3.559
X515.48 Y510.51 Z-3.585
X515.496 Y510.5 Z-3.611
X515.515 Y510.505 Z-3.637
X515.525 Y510.521 Z-3.663
X515.521 Y510.539 Z-3.69
X515.505 Y510.55 Z-3.716
X515.486 Y510.546 Z-3.742
X515.475 Y510.53 Z-3.768
X515.479 Y510.511 Z-3.794
X515.495 Y510.501 Z-3.82
X515.513 Y510.504 Z-3.846
X515.524 Y510.519 Z-3.873
X515.521 Y510.538 Z-3.899
X515.506 Y510.549 Z-3.925
X515.487 Y510.547 Z-3.951
X515.476 Y510.531 Z-3.977
X515.478 Y510.513 Z-4.003
X515.493 Y510.501 Z-4.029
X515.512 Y510.503 Z-4.056
X515.524 Y510.518 Z-4.082
X515.522 Y510.537 Z-4.108
X515.508 Y510.549 Z-4.134
X515.489 Y510.547 Z-4.16
X515.476 Y510.533 Z-4.186
X515.477 Y510.514 Z-4.212
X515.492 Y510.501 Z-4.239
X515.511 Y510.502 Z-4.265
X515.523 Y510.516 Z-4.291
Y510.535 Z-4.317
X515.509 Y510.548 Z-4.343
X515.49 Z-4.369
X515.477 Y510.534 Z-4.395
Y510.516 Z-4.422
X515.49 Y510.502 Z-4.448
X515.509 Z-4.474
X515.523 Y510.515 Z-4.5
Y510.534 Z-4.526
X515.511 Y510.548 Z-4.552
X515.492 Y510.549 Z-4.578
X515.478 Y510.536 Z-4.605
X515.476 Y510.517 Z-4.631
X515.489 Y510.503 Z-4.657
X515.508 Y510.501 Z-4.683
X515.522 Y510.513 Z-4.709
X515.524 Y510.532 Z-4.735
X515.512 Y510.547 Z-4.761
X515.493 Y510.549 Z-4.788
X515.478 Y510.537 Z-4.814
X515.476 Y510.519 Z-4.84
X515.487 Y510.503 Z-4.866
X515.506 Y510.501 Z-4.892
X515.521 Y510.512 Z-4.918
X515.524 Y510.531 Z-4.944
X515.513 Y510.546 Z-4.971
X515.495 Y510.549 Z-4.997
X515.479 Y510.539 Z-5.023
X515.476 Y510.52 Z-5.049
X515.486 Y510.504 Z-5.075
X515.505 Y510.5 Z-5.101
X515.52 Y510.511 Z-5.127
X515.525 Y510.529 Z-5.154
X515.515 Y510.545 Z-5.18
X515.496 Y510.55 Z-5.206
X515.48 Y510.54 Z-5.232
X515.475 Y510.522 Z-5.258
X515.485 Y510.505 Z-5.284
X515.503 Y510.5 Z-5.31
X515.52 Y510.509 Z-5.337
X515.525 Y510.528 Z-5.363
X515.516 Y510.544 Z-5.389
X515.498 Y510.55 Z-5.415
X515.481 Y510.541 Z-5.441
X515.475 Y510.523 Z-5.467
X515.483 Y510.506 Z-5.493
X515.501 Y510.5 Z-5.52
X515.519 Y510.508 Z-5.546
X515.525 Y510.526 Z-5.572
X515.517 Y510.543 Z-5.598
X515.499 Y510.55 Z-5.624
X515.482 Y510.542 Z-5.65
X515.475 Y510.525 Z-5.676
X515.482 Y510.507 Z-5.703
X515.5 Y510.5 Z-5.729
X515.517 Y510.507 Z-5.755
X515.525 Y510.524 Z-5.781
X515.518 Y510.542 Z-5.807
X515.501 Y510.55 Z-5.833
X515.483 Y510.543 Z-5.859
X515.475 Y510.526 Z-5.886
X515.481 Y510.508 Z-5.912
X515.498 Y510.5 Z-5.938
X515.516 Y510.506 Z-5.964
X515.525 Y510.523 Z-5.99
X515.519 Y510.541 Z-6.016
X515.503 Y510.55 Z-6.042
X515.484 Y510.544 Z-6.069
X515.475 Y510.528 Z-6.095
X515.48 Y510.51 Z-6.121
X515.497 Y510.5 Z-6.147
X515.515 Y510.505 Z-6.173
X515.525 Y510.521 Z-6.199
X515.52 Y510.54 Z-6.225
X515.504 Y510.55 Z-6.252
X515.486 Y510.545 Z-6.278
X515.475 Y510.529 Z-6.304
X515.479 Y510.511 Z-6.33
X515.495 Y510.5 Z-6.356
X515.514 Y510.504 Z-6.382
X515.524 Y510.52 Z-6.408
X515.521 Y510.538 Z-6.435
X515.506 Y510.549 Z-6.461
X515.487 Y510.546 Z-6.487
X515.476 Y510.531 Z-6.513
X515.479 Y510.512 Z-6.539
X515.494 Y510.501 Z-6.565
X515.512 Y510.503 Z-6.592
X515.524 Y510.518 Z-6.618
X515.522 Y510.537 Z-6.644
X515.507 Y510.549 Z-6.67
X515.488 Y510.547 Z-6.696
X515.476 Y510.533 Z-6.722
X515.478 Y510.514 Z-6.748
X515.492 Y510.501 Z-6.775
X515.511 Y510.503 Z-6.801
X515.524 Y510.517 Z-6.827
X515.523 Y510.536 Z-6.853
X515.509 Y510.548 Z-6.879
X515.49 Z-6.905
X515.477 Y510.534 Z-6.931
Y510.515 Z-6.958
X515.491 Y510.502 Z-6.984
X515.51 Z-7.01
X515.523 Y510.515 Z-7.036
Y510.534 Z-7.062
X515.51 Y510.548 Z-7.088
X515.491 Z-7.114
X515.477 Y510.535 Z-7.141
Y510.517 Z-7.167
X515.489 Y510.502 Z-7.193
X515.508 Y510.501 Z-7.219
X515.522 Y510.514 Z-7.245
X515.524 Y510.533 Z-7.271
X515.512 Y510.547 Z-7.297
X515.493 Y510.549 Z-7.324
X515.478 Y510.537 Z-7.35
X515.476 Y510.518 Z-7.376
X515.488 Y510.503 Z-7.402
X515.507 Y510.501 Z-7.428
X515.522 Y510.512 Z-7.454
X515.524 Y510.531 Z-7.48
X515.513 Y510.546 Z-7.507
X515.494 Y510.549 Z-7.533
X515.479 Y510.538 Z-7.559
X515.476 Y510.52 Z-7.585
X515.486 Y510.504 Z-7.611
X515.505 Y510.501 Z-7.637
X515.521 Y510.511 Z-7.663
X515.525 Y510.53 Z-7.69
X515.514 Y510.546 Z-7.716
X515.496 Y510.55 Z-7.742
X515.48 Y510.54 Z-7.768
X515.475 Y510.521 Z-7.794
X515.485 Y510.505 Z-7.82
X515.504 Y510.5 Z-7.846
X515.52 Y510.51 Z-7.873
X515.525 Y510.528 Z-7.899
X515.515 Y510.545 Z-7.925
X515.497 Y510.55 Z-7.951
X515.481 Y510.541 Z-7.977
X515.475 Y510.523 Z-8.003
X515.484 Y510.506 Z-8.029
X515.502 Y510.5 Z-8.056
X515.519 Y510.509 Z-8.082
X515.525 Y510.527 Z-8.108
X515.517 Y510.544 Z-8.134
X515.499 Y510.55 Z-8.16
X515.482 Y510.542 Z-8.186
X515.475 Y510.524 Z-8.212
X515.483 Y510.507 Z-8.239
X515.5 Y510.5 Z-8.265
X515.518 Y510.507 Z-8.291
X515.525 Y510.525 Z-8.317
X515.518 Y510.543 Z-8.343
X515.5 Y510.55 Z-8.369
X515.483 Y510.543 Z-8.395
X515.475 Y510.526 Z-8.422
X515.482 Y510.508 Z-8.448
X515.499 Y510.5 Z-8.474
X515.517 Y510.506 Z-8.5
G3 X515.519 Y510.542 I-0.017 J0.019
X515.483 Y510.544 I-0.019 J-0.017
X515.481 Y510.508 I0.017 J-0.019
X515.517 Y510.506 I0.019 J0.017
G1 X515.521 Y510.515
X515.518 Y510.524
X515.5 Y510.525
Z5.
Y564.5
Z0.9
Z-0.5
X515.513 Y564.487
X515.521 Y564.491
X515.525 Y564.5
X515.518 Y564.518 Z-0.526
X515.5 Y564.525 Z-0.552
X515.483 Y564.518 Z-0.578
X515.475 Y564.501 Z-0.605
X515.482 Y564.483 Z-0.631
X515.499 Y564.475 Z-0.657
X515.517 Y564.481 Z-0.683
X515.525 Y564.498 Z-0.709
X515.519 Y564.516 Z-0.735
X515.502 Y564.525 Z-0.761
X515.484 Y564.519 Z-0.788
X515.475 Y564.502 Z-0.814
X515.481 Y564.484 Z-0.84
X515.497 Y564.475 Z-0.866
X515.515 Y564.48 Z-0.892
X515.525 Y564.497 Z-0.918
X515.52 Y564.515 Z-0.944
X515.504 Y564.525 Z-0.971
X515.485 Y564.52 Z-0.997
X515.475 Y564.504 Z-1.023
X515.48 Y564.485 Z-1.049
X515.496 Y564.475 Z-1.075
X515.514 Y564.479 Z-1.101
X515.525 Y564.495 Z-1.127
X515.521 Y564.514 Z-1.154
X515.505 Y564.524 Z-1.18
X515.486 Y564.521 Z-1.206
X515.476 Y564.505 Z-1.232
X515.479 Y564.487 Z-1.258
X515.494 Y564.476 Z-1.284
X515.513 Y564.479 Z-1.31
X515.524 Y564.494 Z-1.337
X515.522 Y564.513 Z-1.363
X515.507 Y564.524 Z-1.389
X515.488 Y564.522 Z-1.415
X515.476 Y564.507 Z-1.441
X515.478 Y564.488 Z-1.467
X515.493 Y564.476 Z-1.493
X515.512 Y564.478 Z-1.52
X515.524 Y564.492 Z-1.546
X515.522 Y564.511 Z-1.572
X515.508 Y564.524 Z-1.598
X515.489 Y564.523 Z-1.624
X515.476 Y564.509 Z-1.65
X515.477 Y564.49 Z-1.676
X515.491 Y564.477 Z-1.703
X515.51 Z-1.729
X515.523 Y564.491 Z-1.755
Y564.51 Z-1.781
X515.51 Y564.523 Z-1.807
X515.491 Z-1.833
X515.477 Y564.51 Z-1.859
Y564.491 Z-1.886
X515.49 Y564.477 Z-1.912
X515.509 Z-1.938
X515.523 Y564.489 Z-1.964
X515.524 Y564.508 Z-1.99
X515.511 Y564.522 Z-2.016
X515.492 Y564.524 Z-2.042
X515.478 Y564.511 Z-2.069
X515.476 Y564.492 Z-2.095
X515.488 Y564.478 Z-2.121
X515.507 Y564.476 Z-2.147
X515.522 Y564.488 Z-2.173
X515.524 Y564.507 Z-2.199
X515.512 Y564.522 Z-2.225
X515.494 Y564.524 Z-2.252
X515.479 Y564.513 Z-2.278
X515.476 Y564.494 Z-2.304
X515.487 Y564.479 Z-2.33
X515.506 Y564.476 Z-2.356
X515.521 Y564.487 Z-2.382
X515.524 Y564.505 Z-2.408
X515.514 Y564.521 Z-2.435
X515.495 Y564.525 Z-2.461
X515.479 Y564.514 Z-2.487
X515.475 Y564.496 Z-2.513
X515.486 Y564.48 Z-2.539
X515.504 Y564.475 Z-2.565
X515.52 Y564.485 Z-2.592
X515.525 Y564.504 Z-2.618
X515.515 Y564.52 Z-2.644
X515.497 Y564.525 Z-2.67
X515.48 Y564.515 Z-2.696
X515.475 Y564.497 Z-2.722
X515.484 Y564.481 Z-2.748
X515.502 Y564.475 Z-2.775
X515.519 Y564.484 Z-2.801
X515.525 Y564.502 Z-2.827
X515.516 Y564.519 Z-2.853
X515.498 Y564.525 Z-2.879
X515.481 Y564.517 Z-2.905
X515.475 Y564.499 Z-2.931
X515.483 Y564.482 Z-2.958
X515.501 Y564.475 Z-2.984
X515.518 Y564.483 Z-3.01
X515.525 Y564.501 Z-3.036
X515.517 Y564.518 Z-3.062
X515.5 Y564.525 Z-3.088
X515.482 Y564.518 Z-3.114
X515.475 Y564.5 Z-3.141
X515.482 Y564.483 Z-3.167
X515.499 Y564.475 Z-3.193
X515.517 Y564.482 Z-3.219
X515.525 Y564.499 Z-3.245
X515.519 Y564.517 Z-3.271
X515.501 Y564.525 Z-3.297
X515.484 Y564.519 Z-3.324
X515.475 Y564.502 Z-3.35
X515.481 Y564.484 Z-3.376
X515.498 Y564.475 Z-3.402
X515.516 Y564.481 Z-3.428
X515.525 Y564.497 Z-3.454
X515.52 Y564.516 Z-3.48
X515.503 Y564.525 Z-3.507
X515.485 Y564.52 Z-3.533
X515.475 Y564.503 Z-3.559
X515.48 Y564.485 Z-3.585
X515.496 Y564.475 Z-3.611
X515.515 Y564.48 Z-3.637
X515.525 Y564.496 Z-3.663
X515.52 Y564.514 Z-3.69
X515.505 Y564.525 Z-3.716
X515.486 Y564.521 Z-3.742
X515.475 Y564.505 Z-3.768
X515.479 Y564.486 Z-3.794
X515.495 Y564.476 Z-3.82
X515.513 Y564.479 Z-3.846
X515.524 Y564.494 Z-3.873
X515.521 Y564.513 Z-3.899
X515.506 Y564.524 Z-3.925
X515.487 Y564.522 Z-3.951
X515.476 Y564.507 Z-3.977
X515.478 Y564.488 Z-4.003
X515.493 Y564.476 Z-4.029
X515.512 Y564.478 Z-4.056
X515.524 Y564.493 Z-4.082
X515.522 Y564.512 Z-4.108
X515.508 Y564.524 Z-4.134
X515.489 Y564.522 Z-4.16
X515.476 Y564.508 Z-4.186
X515.477 Y564.489 Z-4.212
X515.492 Y564.476 Z-4.239
X515.511 Y564.477 Z-4.265
X515.523 Y564.491 Z-4.291
Y564.51 Z-4.317
X515.509 Y564.523 Z-4.343
X515.49 Z-4.369
X515.477 Y564.509 Z-4.395
Y564.491 Z-4.422
X515.49 Y564.477 Z-4.448
X515.509 Z-4.474
X515.523 Y564.49 Z-4.5
Y564.509 Z-4.526
X515.511 Y564.523 Z-4.552
X515.492 Y564.524 Z-4.578
X515.478 Y564.511 Z-4.605
X515.476 Y564.492 Z-4.631
X515.489 Y564.478 Z-4.657
X515.508 Y564.476 Z-4.683
X515.522 Y564.488 Z-4.709
X515.524 Y564.507 Z-4.735
X515.512 Y564.522 Z-4.761
X515.493 Y564.524 Z-4.788
X515.478 Y564.512 Z-4.814
X515.476 Y564.494 Z-4.84
X515.487 Y564.478 Z-4.866
X515.506 Y564.476 Z-4.892
X515.521 Y564.487 Z-4.918
X515.524 Y564.506 Z-4.944
X515.513 Y564.521 Z-4.971
X515.495 Y564.524 Z-4.997
X515.479 Y564.514 Z-5.023
X515.475 Y564.495 Z-5.049
X515.486 Y564.479 Z-5.075
X515.505 Y564.475 Z-5.101
X515.52 Y564.486 Z-5.127
X515.525 Y564.504 Z-5.154
X515.515 Y564.52 Z-5.18
X515.496 Y564.525 Z-5.206
X515.48 Y564.515 Z-5.232
X515.475 Y564.497 Z-5.258
X515.485 Y564.48 Z-5.284
X515.503 Y564.475 Z-5.31
X515.52 Y564.484 Z-5.337
X515.525 Y564.503 Z-5.363
X515.516 Y564.519 Z-5.389
X515.498 Y564.525 Z-5.415
X515.481 Y564.516 Z-5.441
X515.475 Y564.498 Z-5.467
X515.483 Y564.481 Z-5.493
X515.501 Y564.475 Z-5.52
X515.519 Y564.483 Z-5.546
X515.525 Y564.501 Z-5.572
X515.517 Y564.518 Z-5.598
X515.499 Y564.525 Z-5.624
X515.482 Y564.517 Z-5.65
X515.475 Y564.5 Z-5.676
X515.482 Y564.482 Z-5.703
X515.5 Y564.475 Z-5.729
X515.517 Y564.482 Z-5.755
X515.525 Y564.499 Z-5.781
X515.518 Y564.517 Z-5.807
X515.501 Y564.525 Z-5.833
X515.483 Y564.518 Z-5.859
X515.475 Y564.501 Z-5.886
X515.481 Y564.483 Z-5.912
X515.498 Y564.475 Z-5.938
X515.516 Y564.481 Z-5.964
X515.525 Y564.498 Z-5.99
X515.519 Y564.516 Z-6.016
X515.503 Y564.525 Z-6.042
X515.484 Y564.519 Z-6.069
X515.475 Y564.503 Z-6.095
X515.48 Y564.485 Z-6.121
X515.497 Y564.475 Z-6.147
X515.515 Y564.48 Z-6.173
X515.525 Y564.496 Z-6.199
X515.52 Y564.515 Z-6.225
X515.504 Y564.525 Z-6.252
X515.486 Y564.52 Z-6.278
X515.475 Y564.504 Z-6.304
X515.479 Y564.486 Z-6.33
X515.495 Y564.475 Z-6.356
X515.514 Y564.479 Z-6.382
X515.524 Y564.495 Z-6.408
X515.521 Y564.513 Z-6.435
X515.506 Y564.524 Z-6.461
X515.487 Y564.521 Z-6.487
X515.476 Y564.506 Z-6.513
X515.479 Y564.487 Z-6.539
X515.494 Y564.476 Z-6.565
X515.512 Y564.478 Z-6.592
X515.524 Y564.493 Z-6.618
X515.522 Y564.512 Z-6.644
X515.507 Y564.524 Z-6.67
X515.488 Y564.522 Z-6.696
X515.476 Y564.508 Z-6.722
X515.478 Y564.489 Z-6.748
X515.492 Y564.476 Z-6.775
X515.511 Y564.478 Z-6.801
X515.524 Y564.492 Z-6.827
X515.523 Y564.511 Z-6.853
X515.509 Y564.523 Z-6.879
X515.49 Z-6.905
X515.477 Y564.509 Z-6.931
Y564.49 Z-6.958
X515.491 Y564.477 Z-6.984
X515.51 Z-7.01
X515.523 Y564.49 Z-7.036
Y564.509 Z-7.062
X515.51 Y564.523 Z-7.088
X515.491 Z-7.114
X515.477 Y564.51 Z-7.141
Y564.492 Z-7.167
X515.489 Y564.477 Z-7.193
X515.508 Y564.476 Z-7.219
X515.522 Y564.489 Z-7.245
X515.524 Y564.508 Z-7.271
X515.512 Y564.522 Z-7.297
X515.493 Y564.524 Z-7.324
X515.478 Y564.512 Z-7.35
X515.476 Y564.493 Z-7.376
X515.488 Y564.478 Z-7.402
X515.507 Y564.476 Z-7.428
X515.522 Y564.487 Z-7.454
X515.524 Y564.506 Z-7.48
X515.513 Y564.521 Z-7.507
X515.494 Y564.524 Z-7.533
X515.479 Y564.513 Z-7.559
X515.476 Y564.495 Z-7.585
X515.486 Y564.479 Z-7.611
X515.505 Y564.476 Z-7.637
X515.521 Y564.486 Z-7.663
X515.525 Y564.505 Z-7.69
X515.514 Y564.521 Z-7.716
X515.496 Y564.525 Z-7.742
X515.48 Y564.515 Z-7.768
X515.475 Y564.496 Z-7.794
X515.485 Y564.48 Z-7.82
X515.504 Y564.475 Z-7.846
X515.52 Y564.485 Z-7.873
X515.525 Y564.503 Z-7.899
X515.516 Y564.52 Z-7.925
X515.497 Y564.525 Z-7.951
X515.481 Y564.516 Z-7.977
X515.475 Y564.498 Z-8.003
X515.484 Y564.481 Z-8.029
X515.502 Y564.475 Z-8.056
X515.519 Y564.484 Z-8.082
X515.525 Y564.502 Z-8.108
X515.517 Y564.519 Z-8.134
X515.499 Y564.525 Z-8.16
X515.482 Y564.517 Z-8.186
X515.475 Y564.499 Z-8.212
X515.483 Y564.482 Z-8.239
X515.5 Y564.475 Z-8.265
X515.518 Y564.482 Z-8.291
X515.525 Y564.5 Z-8.317
X515.518 Y564.518 Z-8.343
X515.5 Y564.525 Z-8.369
X515.483 Y564.518 Z-8.395
X515.475 Y564.501 Z-8.422
X515.482 Y564.483 Z-8.448
X515.499 Y564.475 Z-8.474
X515.517 Y564.481 Z-8.5
G3 X515.519 Y564.517 I-0.017 J0.019
X515.483 Y564.519 I-0.019 J-0.017
X515.481 Y564.483 I0.017 J-0.019
X515.517 Y564.481 I0.019 J0.017
G1 X515.521 Y564.49
X515.518 Y564.499
X515.5 Y564.5
Z5.
Y632.
Z0.9
Z-0.5
X515.513 Y631.987
X515.521 Y631.991
X515.525 Y632.
X515.518 Y632.018 Z-0.526
X515.5 Y632.025 Z-0.552
X515.483 Y632.018 Z-0.578
X515.475 Y632.001 Z-0.605
X515.482 Y631.983 Z-0.631
X515.499 Y631.975 Z-0.657
X515.517 Y631.981 Z-0.683
X515.525 Y631.998 Z-0.709
X515.519 Y632.016 Z-0.735
X515.502 Y632.025 Z-0.761
X515.484 Y632.019 Z-0.788
X515.475 Y632.002 Z-0.814
X515.481 Y631.984 Z-0.84
X515.497 Y631.975 Z-0.866
X515.515 Y631.98 Z-0.892
X515.525 Y631.997 Z-0.918
X515.52 Y632.015 Z-0.944
X515.504 Y632.025 Z-0.971
X515.485 Y632.02 Z-0.997
X515.475 Y632.004 Z-1.023
X515.48 Y631.985 Z-1.049
X515.496 Y631.975 Z-1.075
X515.514 Y631.979 Z-1.101
X515.525 Y631.995 Z-1.127
X515.521 Y632.014 Z-1.154
X515.505 Y632.024 Z-1.18
X515.486 Y632.021 Z-1.206
X515.476 Y632.005 Z-1.232
X515.479 Y631.987 Z-1.258
X515.494 Y631.976 Z-1.284
X515.513 Y631.979 Z-1.31
X515.524 Y631.994 Z-1.337
X515.522 Y632.013 Z-1.363
X515.507 Y632.024 Z-1.389
X515.488 Y632.022 Z-1.415
X515.476 Y632.007 Z-1.441
X515.478 Y631.988 Z-1.467
X515.493 Y631.976 Z-1.493
X515.512 Y631.978 Z-1.52
X515.524 Y631.992 Z-1.546
X515.522 Y632.011 Z-1.572
X515.508 Y632.024 Z-1.598
X515.489 Y632.023 Z-1.624
X515.476 Y632.009 Z-1.65
X515.477 Y631.99 Z-1.676
X515.491 Y631.977 Z-1.703
X515.51 Z-1.729
X515.523 Y631.991 Z-1.755
Y632.01 Z-1.781
X515.51 Y632.023 Z-1.807
X515.491 Z-1.833
X515.477 Y632.01 Z-1.859
Y631.991 Z-1.886
X515.49 Y631.977 Z-1.912
X515.509 Z-1.938
X515.523 Y631.989 Z-1.964
X515.524 Y632.008 Z-1.99
X515.511 Y632.022 Z-2.016
X515.492 Y632.024 Z-2.042
X515.478 Y632.011 Z-2.069
X515.476 Y631.992 Z-2.095
X515.488 Y631.978 Z-2.121
X515.507 Y631.976 Z-2.147
X515.522 Y631.988 Z-2.173
X515.524 Y632.007 Z-2.199
X515.512 Y632.022 Z-2.225
X515.494 Y632.024 Z-2.252
X515.479 Y632.013 Z-2.278
X515.476 Y631.994 Z-2.304
X515.487 Y631.979 Z-2.33
X515.506 Y631.976 Z-2.356
X515.521 Y631.987 Z-2.382
X515.524 Y632.005 Z-2.408
X515.514 Y632.021 Z-2.435
X515.495 Y632.025 Z-2.461
X515.479 Y632.014 Z-2.487
X515.475 Y631.996 Z-2.513
X515.486 Y631.98 Z-2.539
X515.504 Y631.975 Z-2.565
X515.52 Y631.985 Z-2.592
X515.525 Y632.004 Z-2.618
X515.515 Y632.02 Z-2.644
X515.497 Y632.025 Z-2.67
X515.48 Y632.015 Z-2.696
X515.475 Y631.997 Z-2.722
X515.484 Y631.981 Z-2.748
X515.502 Y631.975 Z-2.775
X515.519 Y631.984 Z-2.801
X515.525 Y632.002 Z-2.827
X515.516 Y632.019 Z-2.853
X515.498 Y632.025 Z-2.879
X515.481 Y632.017 Z-2.905
X515.475 Y631.999 Z-2.931
X515.483 Y631.982 Z-2.958
X515.501 Y631.975 Z-2.984
X515.518 Y631.983 Z-3.01
X515.525 Y632.001 Z-3.036
X515.517 Y632.018 Z-3.062
X515.5 Y632.025 Z-3.088
X515.482 Y632.018 Z-3.114
X515.475 Y632. Z-3.141
X515.482 Y631.983 Z-3.167
X515.499 Y631.975 Z-3.193
X515.517 Y631.982 Z-3.219
X515.525 Y631.999 Z-3.245
X515.519 Y632.017 Z-3.271
X515.501 Y632.025 Z-3.297
X515.484 Y632.019 Z-3.324
X515.475 Y632.002 Z-3.35
X515.481 Y631.984 Z-3.376
X515.498 Y631.975 Z-3.402
X515.516 Y631.981 Z-3.428
X515.525 Y631.997 Z-3.454
X515.52 Y632.016 Z-3.48
X515.503 Y632.025 Z-3.507
X515.485 Y632.02 Z-3.533
X515.475 Y632.003 Z-3.559
X515.48 Y631.985 Z-3.585
X515.496 Y631.975 Z-3.611
X515.515 Y631.98 Z-3.637
X515.525 Y631.996 Z-3.663
X515.52 Y632.014 Z-3.69
X515.505 Y632.025 Z-3.716
X515.486 Y632.021 Z-3.742
X515.475 Y632.005 Z-3.768
X515.479 Y631.986 Z-3.794
X515.495 Y631.976 Z-3.82
X515.513 Y631.979 Z-3.846
X515.524 Y631.994 Z-3.873
X515.521 Y632.013 Z-3.899
X515.506 Y632.024 Z-3.925
X515.487 Y632.022 Z-3.951
X515.476 Y632.007 Z-3.977
X515.478 Y631.988 Z-4.003
X515.493 Y631.976 Z-4.029
X515.512 Y631.978 Z-4.056
X515.524 Y631.993 Z-4.082
X515.522 Y632.012 Z-4.108
X515.508 Y632.024 Z-4.134
X515.489 Y632.022 Z-4.16
X515.476 Y632.008 Z-4.186
X515.477 Y631.989 Z-4.212
X515.492 Y631.976 Z-4.239
X515.511 Y631.977 Z-4.265
X515.523 Y631.991 Z-4.291
Y632.01 Z-4.317
X515.509 Y632.023 Z-4.343
X515.49 Z-4.369
X515.477 Y632.009 Z-4.395
Y631.991 Z-4.422
X515.49 Y631.977 Z-4.448
X515.509 Z-4.474
X515.523 Y631.99 Z-4.5
Y632.009 Z-4.526
X515.511 Y632.023 Z-4.552
X515.492 Y632.024 Z-4.578
X515.478 Y632.011 Z-4.605
X515.476 Y631.992 Z-4.631
X515.489 Y631.978 Z-4.657
X515.508 Y631.976 Z-4.683
X515.522 Y631.988 Z-4.709
X515.524 Y632.007 Z-4.735
X515.512 Y632.022 Z-4.761
X515.493 Y632.024 Z-4.788
X515.478 Y632.012 Z-4.814
X515.476 Y631.994 Z-4.84
X515.487 Y631.978 Z-4.866
X515.506 Y631.976 Z-4.892
X515.521 Y631.987 Z-4.918
X515.524 Y632.006 Z-4.944
X515.513 Y632.021 Z-4.971
X515.495 Y632.024 Z-4.997
X515.479 Y632.014 Z-5.023
X515.475 Y631.995 Z-5.049
X515.486 Y631.979 Z-5.075
X515.505 Y631.975 Z-5.101
X515.52 Y631.986 Z-5.127
X515.525 Y632.004 Z-5.154
X515.515 Y632.02 Z-5.18
X515.496 Y632.025 Z-5.206
X515.48 Y632.015 Z-5.232
X515.475 Y631.997 Z-5.258
X515.485 Y631.98 Z-5.284
X515.503 Y631.975 Z-5.31
X515.52 Y631.984 Z-5.337
X515.525 Y632.003 Z-5.363
X515.516 Y632.019 Z-5.389
X515.498 Y632.025 Z-5.415
X515.481 Y632.016 Z-5.441
X515.475 Y631.998 Z-5.467
X515.483 Y631.981 Z-5.493
X515.501 Y631.975 Z-5.52
X515.519 Y631.983 Z-5.546
X515.525 Y632.001 Z-5.572
X515.517 Y632.018 Z-5.598
X515.499 Y632.025 Z-5.624
X515.482 Y632.017 Z-5.65
X515.475 Y632. Z-5.676
X515.482 Y631.982 Z-5.703
X515.5 Y631.975 Z-5.729
X515.517 Y631.982 Z-5.755
X515.525 Y631.999 Z-5.781
X515.518 Y632.017 Z-5.807
X515.501 Y632.025 Z-5.833
X515.483 Y632.018 Z-5.859
X515.475 Y632.001 Z-5.886
X515.481 Y631.983 Z-5.912
X515.498 Y631.975 Z-5.938
X515.516 Y631.981 Z-5.964
X515.525 Y631.998 Z-5.99
X515.519 Y632.016 Z-6.016
X515.503 Y632.025 Z-6.042
X515.484 Y632.019 Z-6.069
X515.475 Y632.003 Z-6.095
X515.48 Y631.985 Z-6.121
X515.497 Y631.975 Z-6.147
X515.515 Y631.98 Z-6.173
X515.525 Y631.996 Z-6.199
X515.52 Y632.015 Z-6.225
X515.504 Y632.025 Z-6.252
X515.486 Y632.02 Z-6.278
X515.475 Y632.004 Z-6.304
X515.479 Y631.986 Z-6.33
X515.495 Y631.975 Z-6.356
X515.514 Y631.979 Z-6.382
X515.524 Y631.995 Z-6.408
X515.521 Y632.013 Z-6.435
X515.506 Y632.024 Z-6.461
X515.487 Y632.021 Z-6.487
X515.476 Y632.006 Z-6.513
X515.479 Y631.987 Z-6.539
X515.494 Y631.976 Z-6.565
X515.512 Y631.978 Z-6.592
X515.524 Y631.993 Z-6.618
X515.522 Y632.012 Z-6.644
X515.507 Y632.024 Z-6.67
X515.488 Y632.022 Z-6.696
X515.476 Y632.008 Z-6.722
X515.478 Y631.989 Z-6.748
X515.492 Y631.976 Z-6.775
X515.511 Y631.978 Z-6.801
X515.524 Y631.992 Z-6.827
X515.523 Y632.011 Z-6.853
X515.509 Y632.023 Z-6.879
X515.49 Z-6.905
X515.477 Y632.009 Z-6.931
Y631.99 Z-6.958
X515.491 Y631.977 Z-6.984
X515.51 Z-7.01
X515.523 Y631.99 Z-7.036
Y632.009 Z-7.062
X515.51 Y632.023 Z-7.088
X515.491 Z-7.114
X515.477 Y632.01 Z-7.141
Y631.992 Z-7.167
X515.489 Y631.977 Z-7.193
X515.508 Y631.976 Z-7.219
X515.522 Y631.989 Z-7.245
X515.524 Y632.008 Z-7.271
X515.512 Y632.022 Z-7.297
X515.493 Y632.024 Z-7.324
X515.478 Y632.012 Z-7.35
X515.476 Y631.993 Z-7.376
X515.488 Y631.978 Z-7.402
X515.507 Y631.976 Z-7.428
X515.522 Y631.987 Z-7.454
X515.524 Y632.006 Z-7.48
X515.513 Y632.021 Z-7.507
X515.494 Y632.024 Z-7.533
X515.479 Y632.013 Z-7.559
X515.476 Y631.995 Z-7.585
X515.486 Y631.979 Z-7.611
X515.505 Y631.976 Z-7.637
X515.521 Y631.986 Z-7.663
X515.525 Y632.005 Z-7.69
X515.514 Y632.021 Z-7.716
X515.496 Y632.025 Z-7.742
X515.48 Y632.015 Z-7.768
X515.475 Y631.996 Z-7.794
X515.485 Y631.98 Z-7.82
X515.504 Y631.975 Z-7.846
X515.52 Y631.985 Z-7.873
X515.525 Y632.003 Z-7.899
X515.516 Y632.02 Z-7.925
X515.497 Y632.025 Z-7.951
X515.481 Y632.016 Z-7.977
X515.475 Y631.998 Z-8.003
X515.484 Y631.981 Z-8.029
X515.502 Y631.975 Z-8.056
X515.519 Y631.984 Z-8.082
X515.525 Y632.002 Z-8.108
X515.517 Y632.019 Z-8.134
X515.499 Y632.025 Z-8.16
X515.482 Y632.017 Z-8.186
X515.475 Y631.999 Z-8.212
X515.483 Y631.982 Z-8.239
X515.5 Y631.975 Z-8.265
X515.518 Y631.982 Z-8.291
X515.525 Y632. Z-8.317
X515.518 Y632.018 Z-8.343
X515.5 Y632.025 Z-8.369
X515.483 Y632.018 Z-8.395
X515.475 Y632.001 Z-8.422
X515.482 Y631.983 Z-8.448
X515.499 Y631.975 Z-8.474
X515.517 Y631.981 Z-8.5
G3 X515.519 Y632.017 I-0.017 J0.019
X515.483 Y632.019 I-0.019 J-0.017
X515.481 Y631.983 I0.017 J-0.019
X515.517 Y631.981 I0.019 J0.017
G1 X515.521 Y631.99
X515.518 Y631.999
X515.5 Y632.
Z5.
Y699.5
Z0.9
Z-0.5
X515.513 Y699.487
X515.521 Y699.491
X515.525 Y699.5
X515.518 Y699.518 Z-0.526
X515.5 Y699.525 Z-0.552
X515.483 Y699.518 Z-0.578
X515.475 Y699.501 Z-0.605
X515.482 Y699.483 Z-0.631
X515.499 Y699.475 Z-0.657
X515.517 Y699.481 Z-0.683
X515.525 Y699.498 Z-0.709
X515.519 Y699.516 Z-0.735
X515.502 Y699.525 Z-0.761
X515.484 Y699.519 Z-0.788
X515.475 Y699.502 Z-0.814
X515.481 Y699.484 Z-0.84
X515.497 Y699.475 Z-0.866
X515.515 Y699.48 Z-0.892
X515.525 Y699.497 Z-0.918
X515.52 Y699.515 Z-0.944
X515.504 Y699.525 Z-0.971
X515.485 Y699.52 Z-0.997
X515.475 Y699.504 Z-1.023
X515.48 Y699.485 Z-1.049
X515.496 Y699.475 Z-1.075
X515.514 Y699.479 Z-1.101
X515.525 Y699.495 Z-1.127
X515.521 Y699.514 Z-1.154
X515.505 Y699.524 Z-1.18
X515.486 Y699.521 Z-1.206
X515.476 Y699.505 Z-1.232
X515.479 Y699.487 Z-1.258
X515.494 Y699.476 Z-1.284
X515.513 Y699.479 Z-1.31
X515.524 Y699.494 Z-1.337
X515.522 Y699.513 Z-1.363
X515.507 Y699.524 Z-1.389
X515.488 Y699.522 Z-1.415
X515.476 Y699.507 Z-1.441
X515.478 Y699.488 Z-1.467
X515.493 Y699.476 Z-1.493
X515.512 Y699.478 Z-1.52
X515.524 Y699.492 Z-1.546
X515.522 Y699.511 Z-1.572
X515.508 Y699.524 Z-1.598
X515.489 Y699.523 Z-1.624
X515.476 Y699.509 Z-1.65
X515.477 Y699.49 Z-1.676
X515.491 Y699.477 Z-1.703
X515.51 Z-1.729
X515.523 Y699.491 Z-1.755
Y699.51 Z-1.781
X515.51 Y699.523 Z-1.807
X515.491 Z-1.833
X515.477 Y699.51 Z-1.859
Y699.491 Z-1.886
X515.49 Y699.477 Z-1.912
X515.509 Z-1.938
X515.523 Y699.489 Z-1.964
X515.524 Y699.508 Z-1.99
X515.511 Y699.522 Z-2.016
X515.492 Y699.524 Z-2.042
X515.478 Y699.511 Z-2.069
X515.476 Y699.492 Z-2.095
X515.488 Y699.478 Z-2.121
X515.507 Y699.476 Z-2.147
X515.522 Y699.488 Z-2.173
X515.524 Y699.507 Z-2.199
X515.512 Y699.522 Z-2.225
X515.494 Y699.524 Z-2.252
X515.479 Y699.513 Z-2.278
X515.476 Y699.494 Z-2.304
X515.487 Y699.479 Z-2.33
X515.506 Y699.476 Z-2.356
X515.521 Y699.487 Z-2.382
X515.524 Y699.505 Z-2.408
X515.514 Y699.521 Z-2.435
X515.495 Y699.525 Z-2.461
X515.479 Y699.514 Z-2.487
X515.475 Y699.496 Z-2.513
X515.486 Y699.48 Z-2.539
X515.504 Y699.475 Z-2.565
X515.52 Y699.485 Z-2.592
X515.525 Y699.504 Z-2.618
X515.515 Y699.52 Z-2.644
X515.497 Y699.525 Z-2.67
X515.48 Y699.515 Z-2.696
X515.475 Y699.497 Z-2.722
X515.484 Y699.481 Z-2.748
X515.502 Y699.475 Z-2.775
X515.519 Y699.484 Z-2.801
X515.525 Y699.502 Z-2.827
X515.516 Y699.519 Z-2.853
X515.498 Y699.525 Z-2.879
X515.481 Y699.517 Z-2.905
X515.475 Y699.499 Z-2.931
X515.483 Y699.482 Z-2.958
X515.501 Y699.475 Z-2.984
X515.518 Y699.483 Z-3.01
X515.525 Y699.501 Z-3.036
X515.517 Y699.518 Z-3.062
X515.5 Y699.525 Z-3.088
X515.482 Y699.518 Z-3.114
X515.475 Y699.5 Z-3.141
X515.482 Y699.483 Z-3.167
X515.499 Y699.475 Z-3.193
X515.517 Y699.482 Z-3.219
X515.525 Y699.499 Z-3.245
X515.519 Y699.517 Z-3.271
X515.501 Y699.525 Z-3.297
X515.484 Y699.519 Z-3.324
X515.475 Y699.502 Z-3.35
X515.481 Y699.484 Z-3.376
X515.498 Y699.475 Z-3.402
X515.516 Y699.481 Z-3.428
X515.525 Y699.497 Z-3.454
X515.52 Y699.516 Z-3.48
X515.503 Y699.525 Z-3.507
X515.485 Y699.52 Z-3.533
X515.475 Y699.503 Z-3.559
X515.48 Y699.485 Z-3.585
X515.496 Y699.475 Z-3.611
X515.515 Y699.48 Z-3.637
X515.525 Y699.496 Z-3.663
X515.52 Y699.514 Z-3.69
X515.505 Y699.525 Z-3.716
X515.486 Y699.521 Z-3.742
X515.475 Y699.505 Z-3.768
X515.479 Y699.486 Z-3.794
X515.495 Y699.476 Z-3.82
X515.513 Y699.479 Z-3.846
X515.524 Y699.494 Z-3.873
X515.521 Y699.513 Z-3.899
X515.506 Y699.524 Z-3.925
X515.487 Y699.522 Z-3.951
X515.476 Y699.507 Z-3.977
X515.478 Y699.488 Z-4.003
X515.493 Y699.476 Z-4.029
X515.512 Y699.478 Z-4.056
X515.524 Y699.493 Z-4.082
X515.522 Y699.512 Z-4.108
X515.508 Y699.524 Z-4.134
X515.489 Y699.522 Z-4.16
X515.476 Y699.508 Z-4.186
X515.477 Y699.489 Z-4.212
X515.492 Y699.476 Z-4.239
X515.511 Y699.477 Z-4.265
X515.523 Y699.491 Z-4.291
Y699.51 Z-4.317
X515.509 Y699.523 Z-4.343
X515.49 Z-4.369
X515.477 Y699.509 Z-4.395
Y699.491 Z-4.422
X515.49 Y699.477 Z-4.448
X515.509 Z-4.474
X515.523 Y699.49 Z-4.5
Y699.509 Z-4.526
X515.511 Y699.523 Z-4.552
X515.492 Y699.524 Z-4.578
X515.478 Y699.511 Z-4.605
X515.476 Y699.492 Z-4.631
X515.489 Y699.478 Z-4.657
X515.508 Y699.476 Z-4.683
X515.522 Y699.488 Z-4.709
X515.524 Y699.507 Z-4.735
X515.512 Y699.522 Z-4.761
X515.493 Y699.524 Z-4.788
X515.478 Y699.512 Z-4.814
X515.476 Y699.494 Z-4.84
X515.487 Y699.478 Z-4.866
X515.506 Y699.476 Z-4.892
X515.521 Y699.487 Z-4.918
X515.524 Y699.506 Z-4.944
X515.513 Y699.521 Z-4.971
X515.495 Y699.524 Z-4.997
X515.479 Y699.514 Z-5.023
X515.475 Y699.495 Z-5.049
X515.486 Y699.479 Z-5.075
X515.505 Y699.475 Z-5.101
X515.52 Y699.486 Z-5.127
X515.525 Y699.504 Z-5.154
X515.515 Y699.52 Z-5.18
X515.496 Y699.525 Z-5.206
X515.48 Y699.515 Z-5.232
X515.475 Y699.497 Z-5.258
X515.485 Y699.48 Z-5.284
X515.503 Y699.475 Z-5.31
X515.52 Y699.484 Z-5.337
X515.525 Y699.503 Z-5.363
X515.516 Y699.519 Z-5.389
X515.498 Y699.525 Z-5.415
X515.481 Y699.516 Z-5.441
X515.475 Y699.498 Z-5.467
X515.483 Y699.481 Z-5.493
X515.501 Y699.475 Z-5.52
X515.519 Y699.483 Z-5.546
X515.525 Y699.501 Z-5.572
X515.517 Y699.518 Z-5.598
X515.499 Y699.525 Z-5.624
X515.482 Y699.517 Z-5.65
X515.475 Y699.5 Z-5.676
X515.482 Y699.482 Z-5.703
X515.5 Y699.475 Z-5.729
X515.517 Y699.482 Z-5.755
X515.525 Y699.499 Z-5.781
X515.518 Y699.517 Z-5.807
X515.501 Y699.525 Z-5.833
X515.483 Y699.518 Z-5.859
X515.475 Y699.501 Z-5.886
X515.481 Y699.483 Z-5.912
X515.498 Y699.475 Z-5.938
X515.516 Y699.481 Z-5.964
X515.525 Y699.498 Z-5.99
X515.519 Y699.516 Z-6.016
X515.503 Y699.525 Z-6.042
X515.484 Y699.519 Z-6.069
X515.475 Y699.503 Z-6.095
X515.48 Y699.485 Z-6.121
X515.497 Y699.475 Z-6.147
X515.515 Y699.48 Z-6.173
X515.525 Y699.496 Z-6.199
X515.52 Y699.515 Z-6.225
X515.504 Y699.525 Z-6.252
X515.486 Y699.52 Z-6.278
X515.475 Y699.504 Z-6.304
X515.479 Y699.486 Z-6.33
X515.495 Y699.475 Z-6.356
X515.514 Y699.479 Z-6.382
X515.524 Y699.495 Z-6.408
X515.521 Y699.513 Z-6.435
X515.506 Y699.524 Z-6.461
X515.487 Y699.521 Z-6.487
X515.476 Y699.506 Z-6.513
X515.479 Y699.487 Z-6.539
X515.494 Y699.476 Z-6.565
X515.512 Y699.478 Z-6.592
X515.524 Y699.493 Z-6.618
X515.522 Y699.512 Z-6.644
X515.507 Y699.524 Z-6.67
X515.488 Y699.522 Z-6.696
X515.476 Y699.508 Z-6.722
X515.478 Y699.489 Z-6.748
X515.492 Y699.476 Z-6.775
X515.511 Y699.478 Z-6.801
X515.524 Y699.492 Z-6.827
X515.523 Y699.511 Z-6.853
X515.509 Y699.523 Z-6.879
X515.49 Z-6.905
X515.477 Y699.509 Z-6.931
Y699.49 Z-6.958
X515.491 Y699.477 Z-6.984
X515.51 Z-7.01
X515.523 Y699.49 Z-7.036
Y699.509 Z-7.062
X515.51 Y699.523 Z-7.088
X515.491 Z-7.114
X515.477 Y699.51 Z-7.141
Y699.492 Z-7.167
X515.489 Y699.477 Z-7.193
X515.508 Y699.476 Z-7.219
X515.522 Y699.489 Z-7.245
X515.524 Y699.508 Z-7.271
X515.512 Y699.522 Z-7.297
X515.493 Y699.524 Z-7.324
X515.478 Y699.512 Z-7.35
X515.476 Y699.493 Z-7.376
X515.488 Y699.478 Z-7.402
X515.507 Y699.476 Z-7.428
X515.522 Y699.487 Z-7.454
X515.524 Y699.506 Z-7.48
X515.513 Y699.521 Z-7.507
X515.494 Y699.524 Z-7.533
X515.479 Y699.513 Z-7.559
X515.476 Y699.495 Z-7.585
X515.486 Y699.479 Z-7.611
X515.505 Y699.476 Z-7.637
X515.521 Y699.486 Z-7.663
X515.525 Y699.505 Z-7.69
X515.514 Y699.521 Z-7.716
X515.496 Y699.525 Z-7.742
X515.48 Y699.515 Z-7.768
X515.475 Y699.496 Z-7.794
X515.485 Y699.48 Z-7.82
X515.504 Y699.475 Z-7.846
X515.52 Y699.485 Z-7.873
X515.525 Y699.503 Z-7.899
X515.516 Y699.52 Z-7.925
X515.497 Y699.525 Z-7.951
X515.481 Y699.516 Z-7.977
X515.475 Y699.498 Z-8.003
X515.484 Y699.481 Z-8.029
X515.502 Y699.475 Z-8.056
X515.519 Y699.484 Z-8.082
X515.525 Y699.502 Z-8.108
X515.517 Y699.519 Z-8.134
X515.499 Y699.525 Z-8.16
X515.482 Y699.517 Z-8.186
X515.475 Y699.499 Z-8.212
X515.483 Y699.482 Z-8.239
X515.5 Y699.475 Z-8.265
X515.518 Y699.482 Z-8.291
X515.525 Y699.5 Z-8.317
X515.518 Y699.518 Z-8.343
X515.5 Y699.525 Z-8.369
X515.483 Y699.518 Z-8.395
X515.475 Y699.501 Z-8.422
X515.482 Y699.483 Z-8.448
X515.499 Y699.475 Z-8.474
X515.517 Y699.481 Z-8.5
G3 X515.519 Y699.517 I-0.017 J0.019
X515.483 Y699.519 I-0.019 J-0.017
X515.481 Y699.483 I0.017 J-0.019
X515.517 Y699.481 I0.019 J0.017
G1 X515.521 Y699.49
X515.518 Y699.499
X515.5 Y699.5
Z5.
X605.5
Z0.9
Z-0.5
X605.512 Y699.487
X605.521 Y699.491
X605.524 Y699.5
X605.517 Y699.518 Z-0.526
X605.5 Y699.525 Z-0.552
X605.482 Y699.518 Z-0.578
X605.475 Y699.501 Z-0.605
X605.481 Y699.483 Z-0.631
X605.498 Y699.475 Z-0.657
X605.516 Y699.481 Z-0.683
X605.524 Y699.498 Z-0.709
X605.518 Y699.516 Z-0.735
X605.501 Y699.525 Z-0.761
X605.483 Y699.519 Z-0.788
X605.475 Y699.502 Z-0.814
X605.48 Y699.484 Z-0.84
X605.497 Y699.475 Z-0.866
X605.515 Y699.48 Z-0.892
X605.524 Y699.497 Z-0.918
X605.519 Y699.515 Z-0.944
X605.503 Y699.525 Z-0.971
X605.485 Y699.52 Z-0.997
X605.475 Y699.504 Z-1.023
X605.479 Y699.485 Z-1.049
X605.495 Y699.475 Z-1.075
X605.514 Y699.479 Z-1.101
X605.524 Y699.495 Z-1.127
X605.52 Y699.514 Z-1.154
X605.505 Y699.524 Z-1.18
X605.486 Y699.521 Z-1.206
X605.475 Y699.505 Z-1.232
X605.478 Y699.487 Z-1.258
X605.494 Y699.476 Z-1.284
X605.512 Y699.479 Z-1.31
X605.524 Y699.494 Z-1.337
X605.521 Y699.513 Z-1.363
X605.506 Y699.524 Z-1.389
X605.487 Y699.522 Z-1.415
X605.476 Y699.507 Z-1.441
X605.478 Y699.488 Z-1.467
X605.492 Y699.476 Z-1.493
X605.511 Y699.478 Z-1.52
X605.523 Y699.492 Z-1.546
X605.522 Y699.511 Z-1.572
X605.508 Y699.524 Z-1.598
X605.489 Y699.523 Z-1.624
X605.476 Y699.509 Z-1.65
X605.477 Y699.49 Z-1.676
X605.491 Y699.477 Z-1.703
X605.51 Z-1.729
X605.523 Y699.491 Z-1.755
Y699.51 Z-1.781
X605.509 Y699.523 Z-1.807
X605.49 Z-1.833
X605.477 Y699.51 Z-1.859
X605.476 Y699.491 Z-1.886
X605.489 Y699.477 Z-1.912
X605.508 Z-1.938
X605.522 Y699.489 Z-1.964
X605.523 Y699.508 Z-1.99
X605.511 Y699.522 Z-2.016
X605.492 Y699.524 Z-2.042
X605.477 Y699.511 Z-2.069
X605.476 Y699.492 Z-2.095
X605.488 Y699.478 Z-2.121
X605.507 Y699.476 Z-2.147
X605.521 Y699.488 Z-2.173
X605.524 Y699.507 Z-2.199
X605.512 Y699.522 Z-2.225
X605.493 Y699.524 Z-2.252
X605.478 Y699.513 Z-2.278
X605.475 Y699.494 Z-2.304
X605.486 Y699.479 Z-2.33
X605.505 Y699.476 Z-2.356
X605.521 Y699.487 Z-2.382
X605.524 Y699.505 Z-2.408
X605.513 Y699.521 Z-2.435
X605.495 Y699.525 Z-2.461
X605.479 Y699.514 Z-2.487
X605.475 Y699.496 Z-2.513
X605.485 Y699.48 Z-2.539
X605.504 Y699.475 Z-2.565
X605.52 Y699.485 Z-2.592
X605.524 Y699.504 Z-2.618
X605.515 Y699.52 Z-2.644
X605.496 Y699.525 Z-2.67
X605.48 Y699.515 Z-2.696
X605.475 Y699.497 Z-2.722
X605.484 Y699.481 Z-2.748
X605.502 Y699.475 Z-2.775
X605.519 Y699.484 Z-2.801
X605.524 Y699.502 Z-2.827
X605.516 Y699.519 Z-2.853
X605.498 Y699.525 Z-2.879
X605.481 Y699.517 Z-2.905
X605.475 Y699.499 Z-2.931
X605.483 Y699.482 Z-2.958
X605.5 Y699.475 Z-2.984
X605.518 Y699.483 Z-3.01
X605.525 Y699.501 Z-3.036
X605.517 Y699.518 Z-3.062
X605.499 Y699.525 Z-3.088
X605.482 Y699.518 Z-3.114
X605.475 Y699.5 Z-3.141
X605.482 Y699.483 Z-3.167
X605.499 Y699.475 Z-3.193
X605.517 Y699.482 Z-3.219
X605.524 Y699.499 Z-3.245
X605.518 Y699.517 Z-3.271
X605.501 Y699.525 Z-3.297
X605.483 Y699.519 Z-3.324
X605.475 Y699.502 Z-3.35
X605.48 Y699.484 Z-3.376
X605.497 Y699.475 Z-3.402
X605.515 Y699.481 Z-3.428
X605.524 Y699.497 Z-3.454
X605.519 Y699.516 Z-3.48
X605.503 Y699.525 Z-3.507
X605.484 Y699.52 Z-3.533
X605.475 Y699.503 Z-3.559
X605.479 Y699.485 Z-3.585
X605.496 Y699.475 Z-3.611
X605.514 Y699.48 Z-3.637
X605.524 Y699.496 Z-3.663
X605.52 Y699.514 Z-3.69
X605.504 Y699.525 Z-3.716
X605.486 Y699.521 Z-3.742
X605.475 Y699.505 Z-3.768
X605.479 Y699.486 Z-3.794
X605.494 Y699.476 Z-3.82
X605.513 Y699.479 Z-3.846
X605.524 Y699.494 Z-3.873
X605.521 Y699.513 Z-3.899
X605.506 Y699.524 Z-3.925
X605.487 Y699.522 Z-3.951
X605.475 Y699.507 Z-3.977
X605.478 Y699.488 Z-4.003
X605.493 Y699.476 Z-4.029
X605.511 Y699.478 Z-4.056
X605.523 Y699.493 Z-4.082
X605.522 Y699.512 Z-4.108
X605.507 Y699.524 Z-4.134
X605.488 Y699.522 Z-4.16
X605.476 Y699.508 Z-4.186
X605.477 Y699.489 Z-4.212
X605.491 Y699.476 Z-4.239
X605.51 Y699.477 Z-4.265
X605.523 Y699.491 Z-4.291
X605.522 Y699.51 Z-4.317
X605.509 Y699.523 Z-4.343
X605.49 Z-4.369
X605.476 Y699.509 Z-4.395
Y699.491 Z-4.422
X605.49 Y699.477 Z-4.448
X605.509 Z-4.474
X605.522 Y699.49 Z-4.5
X605.523 Y699.509 Z-4.526
X605.51 Y699.523 Z-4.552
X605.491 Y699.524 Z-4.578
X605.477 Y699.511 Z-4.605
X605.476 Y699.492 Z-4.631
X605.488 Y699.478 Z-4.657
X605.507 Y699.476 Z-4.683
X605.522 Y699.488 Z-4.709
X605.523 Y699.507 Z-4.735
X605.512 Y699.522 Z-4.761
X605.493 Y699.524 Z-4.788
X605.478 Y699.512 Z-4.814
X605.475 Y699.494 Z-4.84
X605.487 Y699.478 Z-4.866
X605.506 Y699.476 Z-4.892
X605.521 Y699.487 Z-4.918
X605.524 Y699.506 Z-4.944
X605.513 Y699.521 Z-4.971
X605.494 Y699.524 Z-4.997
X605.479 Y699.514 Z-5.023
X605.475 Y699.495 Z-5.049
X605.485 Y699.479 Z-5.075
X605.504 Y699.475 Z-5.101
X605.52 Y699.486 Z-5.127
X605.524 Y699.504 Z-5.154
X605.514 Y699.52 Z-5.18
X605.496 Y699.525 Z-5.206
X605.479 Y699.515 Z-5.232
X605.475 Y699.497 Z-5.258
X605.484 Y699.48 Z-5.284
X605.503 Y699.475 Z-5.31
X605.519 Y699.484 Z-5.337
X605.524 Y699.503 Z-5.363
X605.515 Y699.519 Z-5.389
X605.497 Y699.525 Z-5.415
X605.48 Y699.516 Z-5.441
X605.475 Y699.498 Z-5.467
X605.483 Y699.481 Z-5.493
X605.501 Y699.475 Z-5.52
X605.518 Y699.483 Z-5.546
X605.524 Y699.501 Z-5.572
X605.517 Y699.518 Z-5.598
X605.499 Y699.525 Z-5.624
X605.482 Y699.517 Z-5.65
X605.475 Y699.5 Z-5.676
X605.482 Y699.482 Z-5.703
X605.499 Y699.475 Z-5.729
X605.517 Y699.482 Z-5.755
X605.524 Y699.499 Z-5.781
X605.518 Y699.517 Z-5.807
X605.5 Y699.525 Z-5.833
X605.483 Y699.518 Z-5.859
X605.475 Y699.501 Z-5.886
X605.481 Y699.483 Z-5.912
X605.498 Y699.475 Z-5.938
X605.516 Y699.481 Z-5.964
X605.524 Y699.498 Z-5.99
X605.519 Y699.516 Z-6.016
X605.502 Y699.525 Z-6.042
X605.484 Y699.519 Z-6.069
X605.475 Y699.503 Z-6.095
X605.48 Y699.485 Z-6.121
X605.496 Y699.475 Z-6.147
X605.515 Y699.48 Z-6.173
X605.524 Y699.496 Z-6.199
X605.52 Y699.515 Z-6.225
X605.504 Y699.525 Z-6.252
X605.485 Y699.52 Z-6.278
X605.475 Y699.504 Z-6.304
X605.479 Y699.486 Z-6.33
X605.495 Y699.475 Z-6.356
X605.513 Y699.479 Z-6.382
X605.524 Y699.495 Z-6.408
X605.521 Y699.513 Z-6.435
X605.505 Y699.524 Z-6.461
X605.486 Y699.521 Z-6.487
X605.475 Y699.506 Z-6.513
X605.478 Y699.487 Z-6.539
X605.493 Y699.476 Z-6.565
X605.512 Y699.478 Z-6.592
X605.524 Y699.493 Z-6.618
X605.521 Y699.512 Z-6.644
X605.507 Y699.524 Z-6.67
X605.488 Y699.522 Z-6.696
X605.476 Y699.508 Z-6.722
X605.477 Y699.489 Z-6.748
X605.492 Y699.476 Z-6.775
X605.511 Y699.478 Z-6.801
X605.523 Y699.492 Z-6.827
X605.522 Y699.511 Z-6.853
X605.508 Y699.523 Z-6.879
X605.489 Z-6.905
X605.476 Y699.509 Z-6.931
X605.477 Y699.49 Z-6.958
X605.49 Y699.477 Z-6.984
X605.509 Z-7.01
X605.523 Y699.49 Z-7.036
Y699.509 Z-7.062
X605.51 Y699.523 Z-7.088
X605.491 Z-7.114
X605.477 Y699.51 Z-7.141
X605.476 Y699.492 Z-7.167
X605.489 Y699.477 Z-7.193
X605.508 Y699.476 Z-7.219
X605.522 Y699.489 Z-7.245
X605.523 Y699.508 Z-7.271
X605.511 Y699.522 Z-7.297
X605.492 Y699.524 Z-7.324
X605.478 Y699.512 Z-7.35
X605.476 Y699.493 Z-7.376
X605.487 Y699.478 Z-7.402
X605.506 Y699.476 Z-7.428
X605.521 Y699.487 Z-7.454
X605.524 Y699.506 Z-7.48
X605.512 Y699.521 Z-7.507
X605.494 Y699.524 Z-7.533
X605.478 Y699.513 Z-7.559
X605.475 Y699.495 Z-7.585
X605.486 Y699.479 Z-7.611
X605.505 Y699.476 Z-7.637
X605.52 Y699.486 Z-7.663
X605.524 Y699.505 Z-7.69
X605.514 Y699.521 Z-7.716
X605.495 Y699.525 Z-7.742
X605.479 Y699.515 Z-7.768
X605.475 Y699.496 Z-7.794
X605.485 Y699.48 Z-7.82
X605.503 Y699.475 Z-7.846
X605.519 Y699.485 Z-7.873
X605.524 Y699.503 Z-7.899
X605.515 Y699.52 Z-7.925
X605.497 Y699.525 Z-7.951
X605.48 Y699.516 Z-7.977
X605.475 Y699.498 Z-8.003
X605.483 Y699.481 Z-8.029
X605.501 Y699.475 Z-8.056
X605.518 Y699.484 Z-8.082
X605.524 Y699.502 Z-8.108
X605.516 Y699.519 Z-8.134
X605.498 Y699.525 Z-8.16
X605.481 Y699.517 Z-8.186
X605.475 Y699.499 Z-8.212
X605.482 Y699.482 Z-8.239
X605.5 Y699.475 Z-8.265
X605.517 Y699.482 Z-8.291
X605.525 Y699.5 Z-8.317
X605.517 Y699.518 Z-8.343
X605.5 Y699.525 Z-8.369
X605.482 Y699.518 Z-8.395
X605.475 Y699.501 Z-8.422
X605.481 Y699.483 Z-8.448
X605.498 Y699.475 Z-8.474
X605.516 Y699.481 Z-8.5
G3 X605.518 Y699.517 I-0.017 J0.019
X605.483 Y699.519 I-0.019 J-0.017
X605.481 Y699.483 I0.017 J-0.019
X605.516 Y699.481 I0.019 J0.017
G1 X605.52 Y699.49
X605.517 Y699.499
X605.5 Y699.5
Z5.
Y632.
Z0.9
Z-0.5
X605.512 Y631.987
X605.521 Y631.991
X605.524 Y632.
X605.517 Y632.018 Z-0.526
X605.5 Y632.025 Z-0.552
X605.482 Y632.018 Z-0.578
X605.475 Y632.001 Z-0.605
X605.481 Y631.983 Z-0.631
X605.498 Y631.975 Z-0.657
X605.516 Y631.981 Z-0.683
X605.524 Y631.998 Z-0.709
X605.518 Y632.016 Z-0.735
X605.501 Y632.025 Z-0.761
X605.483 Y632.019 Z-0.788
X605.475 Y632.002 Z-0.814
X605.48 Y631.984 Z-0.84
X605.497 Y631.975 Z-0.866
X605.515 Y631.98 Z-0.892
X605.524 Y631.997 Z-0.918
X605.519 Y632.015 Z-0.944
X605.503 Y632.025 Z-0.971
X605.485 Y632.02 Z-0.997
X605.475 Y632.004 Z-1.023
X605.479 Y631.985 Z-1.049
X605.495 Y631.975 Z-1.075
X605.514 Y631.979 Z-1.101
X605.524 Y631.995 Z-1.127
X605.52 Y632.014 Z-1.154
X605.505 Y632.024 Z-1.18
X605.486 Y632.021 Z-1.206
X605.475 Y632.005 Z-1.232
X605.478 Y631.987 Z-1.258
X605.494 Y631.976 Z-1.284
X605.512 Y631.979 Z-1.31
X605.524 Y631.994 Z-1.337
X605.521 Y632.013 Z-1.363
X605.506 Y632.024 Z-1.389
X605.487 Y632.022 Z-1.415
X605.476 Y632.007 Z-1.441
X605.478 Y631.988 Z-1.467
X605.492 Y631.976 Z-1.493
X605.511 Y631.978 Z-1.52
X605.523 Y631.992 Z-1.546
X605.522 Y632.011 Z-1.572
X605.508 Y632.024 Z-1.598
X605.489 Y632.023 Z-1.624
X605.476 Y632.009 Z-1.65
X605.477 Y631.99 Z-1.676
X605.491 Y631.977 Z-1.703
X605.51 Z-1.729
X605.523 Y631.991 Z-1.755
Y632.01 Z-1.781
X605.509 Y632.023 Z-1.807
X605.49 Z-1.833
X605.477 Y632.01 Z-1.859
X605.476 Y631.991 Z-1.886
X605.489 Y631.977 Z-1.912
X605.508 Z-1.938
X605.522 Y631.989 Z-1.964
X605.523 Y632.008 Z-1.99
X605.511 Y632.022 Z-2.016
X605.492 Y632.024 Z-2.042
X605.477 Y632.011 Z-2.069
X605.476 Y631.992 Z-2.095
X605.488 Y631.978 Z-2.121
X605.507 Y631.976 Z-2.147
X605.521 Y631.988 Z-2.173
X605.524 Y632.007 Z-2.199
X605.512 Y632.022 Z-2.225
X605.493 Y632.024 Z-2.252
X605.478 Y632.013 Z-2.278
X605.475 Y631.994 Z-2.304
X605.486 Y631.979 Z-2.33
X605.505 Y631.976 Z-2.356
X605.521 Y631.987 Z-2.382
X605.524 Y632.005 Z-2.408
X605.513 Y632.021 Z-2.435
X605.495 Y632.025 Z-2.461
X605.479 Y632.014 Z-2.487
X605.475 Y631.996 Z-2.513
X605.485 Y631.98 Z-2.539
X605.504 Y631.975 Z-2.565
X605.52 Y631.985 Z-2.592
X605.524 Y632.004 Z-2.618
X605.515 Y632.02 Z-2.644
X605.496 Y632.025 Z-2.67
X605.48 Y632.015 Z-2.696
X605.475 Y631.997 Z-2.722
X605.484 Y631.981 Z-2.748
X605.502 Y631.975 Z-2.775
X605.519 Y631.984 Z-2.801
X605.524 Y632.002 Z-2.827
X605.516 Y632.019 Z-2.853
X605.498 Y632.025 Z-2.879
X605.481 Y632.017 Z-2.905
X605.475 Y631.999 Z-2.931
X605.483 Y631.982 Z-2.958
X605.5 Y631.975 Z-2.984
X605.518 Y631.983 Z-3.01
X605.525 Y632.001 Z-3.036
X605.517 Y632.018 Z-3.062
X605.499 Y632.025 Z-3.088
X605.482 Y632.018 Z-3.114
X605.475 Y632. Z-3.141
X605.482 Y631.983 Z-3.167
X605.499 Y631.975 Z-3.193
X605.517 Y631.982 Z-3.219
X605.524 Y631.999 Z-3.245
X605.518 Y632.017 Z-3.271
X605.501 Y632.025 Z-3.297
X605.483 Y632.019 Z-3.324
X605.475 Y632.002 Z-3.35
X605.48 Y631.984 Z-3.376
X605.497 Y631.975 Z-3.402
X605.515 Y631.981 Z-3.428
X605.524 Y631.997 Z-3.454
X605.519 Y632.016 Z-3.48
X605.503 Y632.025 Z-3.507
X605.484 Y632.02 Z-3.533
X605.475 Y632.003 Z-3.559
X605.479 Y631.985 Z-3.585
X605.496 Y631.975 Z-3.611
X605.514 Y631.98 Z-3.637
X605.524 Y631.996 Z-3.663
X605.52 Y632.014 Z-3.69
X605.504 Y632.025 Z-3.716
X605.486 Y632.021 Z-3.742
X605.475 Y632.005 Z-3.768
X605.479 Y631.986 Z-3.794
X605.494 Y631.976 Z-3.82
X605.513 Y631.979 Z-3.846
X605.524 Y631.994 Z-3.873
X605.521 Y632.013 Z-3.899
X605.506 Y632.024 Z-3.925
X605.487 Y632.022 Z-3.951
X605.475 Y632.007 Z-3.977
X605.478 Y631.988 Z-4.003
X605.493 Y631.976 Z-4.029
X605.511 Y631.978 Z-4.056
X605.523 Y631.993 Z-4.082
X605.522 Y632.012 Z-4.108
X605.507 Y632.024 Z-4.134
X605.488 Y632.022 Z-4.16
X605.476 Y632.008 Z-4.186
X605.477 Y631.989 Z-4.212
X605.491 Y631.976 Z-4.239
X605.51 Y631.977 Z-4.265
X605.523 Y631.991 Z-4.291
X605.522 Y632.01 Z-4.317
X605.509 Y632.023 Z-4.343
X605.49 Z-4.369
X605.476 Y632.009 Z-4.395
Y631.991 Z-4.422
X605.49 Y631.977 Z-4.448
X605.509 Z-4.474
X605.522 Y631.99 Z-4.5
X605.523 Y632.009 Z-4.526
X605.51 Y632.023 Z-4.552
X605.491 Y632.024 Z-4.578
X605.477 Y632.011 Z-4.605
X605.476 Y631.992 Z-4.631
X605.488 Y631.978 Z-4.657
X605.507 Y631.976 Z-4.683
X605.522 Y631.988 Z-4.709
X605.523 Y632.007 Z-4.735
X605.512 Y632.022 Z-4.761
X605.493 Y632.024 Z-4.788
X605.478 Y632.012 Z-4.814
X605.475 Y631.994 Z-4.84
X605.487 Y631.978 Z-4.866
X605.506 Y631.976 Z-4.892
X605.521 Y631.987 Z-4.918
X605.524 Y632.006 Z-4.944
X605.513 Y632.021 Z-4.971
X605.494 Y632.024 Z-4.997
X605.479 Y632.014 Z-5.023
X605.475 Y631.995 Z-5.049
X605.485 Y631.979 Z-5.075
X605.504 Y631.975 Z-5.101
X605.52 Y631.986 Z-5.127
X605.524 Y632.004 Z-5.154
X605.514 Y632.02 Z-5.18
X605.496 Y632.025 Z-5.206
X605.479 Y632.015 Z-5.232
X605.475 Y631.997 Z-5.258
X605.484 Y631.98 Z-5.284
X605.503 Y631.975 Z-5.31
X605.519 Y631.984 Z-5.337
X605.524 Y632.003 Z-5.363
X605.515 Y632.019 Z-5.389
X605.497 Y632.025 Z-5.415
X605.48 Y632.016 Z-5.441
X605.475 Y631.998 Z-5.467
X605.483 Y631.981 Z-5.493
X605.501 Y631.975 Z-5.52
X605.518 Y631.983 Z-5.546
X605.524 Y632.001 Z-5.572
X605.517 Y632.018 Z-5.598
X605.499 Y632.025 Z-5.624
X605.482 Y632.017 Z-5.65
X605.475 Y632. Z-5.676
X605.482 Y631.982 Z-5.703
X605.499 Y631.975 Z-5.729
X605.517 Y631.982 Z-5.755
X605.524 Y631.999 Z-5.781
X605.518 Y632.017 Z-5.807
X605.5 Y632.025 Z-5.833
X605.483 Y632.018 Z-5.859
X605.475 Y632.001 Z-5.886
X605.481 Y631.983 Z-5.912
X605.498 Y631.975 Z-5.938
X605.516 Y631.981 Z-5.964
X605.524 Y631.998 Z-5.99
X605.519 Y632.016 Z-6.016
X605.502 Y632.025 Z-6.042
X605.484 Y632.019 Z-6.069
X605.475 Y632.003 Z-6.095
X605.48 Y631.985 Z-6.121
X605.496 Y631.975 Z-6.147
X605.515 Y631.98 Z-6.173
X605.524 Y631.996 Z-6.199
X605.52 Y632.015 Z-6.225
X605.504 Y632.025 Z-6.252
X605.485 Y632.02 Z-6.278
X605.475 Y632.004 Z-6.304
X605.479 Y631.986 Z-6.33
X605.495 Y631.975 Z-6.356
X605.513 Y631.979 Z-6.382
X605.524 Y631.995 Z-6.408
X605.521 Y632.013 Z-6.435
X605.505 Y632.024 Z-6.461
X605.486 Y632.021 Z-6.487
X605.475 Y632.006 Z-6.513
X605.478 Y631.987 Z-6.539
X605.493 Y631.976 Z-6.565
X605.512 Y631.978 Z-6.592
X605.524 Y631.993 Z-6.618
X605.521 Y632.012 Z-6.644
X605.507 Y632.024 Z-6.67
X605.488 Y632.022 Z-6.696
X605.476 Y632.008 Z-6.722
X605.477 Y631.989 Z-6.748
X605.492 Y631.976 Z-6.775
X605.511 Y631.978 Z-6.801
X605.523 Y631.992 Z-6.827
X605.522 Y632.011 Z-6.853
X605.508 Y632.023 Z-6.879
X605.489 Z-6.905
X605.476 Y632.009 Z-6.931
X605.477 Y631.99 Z-6.958
X605.49 Y631.977 Z-6.984
X605.509 Z-7.01
X605.523 Y631.99 Z-7.036
Y632.009 Z-7.062
X605.51 Y632.023 Z-7.088
X605.491 Z-7.114
X605.477 Y632.01 Z-7.141
X605.476 Y631.992 Z-7.167
X605.489 Y631.977 Z-7.193
X605.508 Y631.976 Z-7.219
X605.522 Y631.989 Z-7.245
X605.523 Y632.008 Z-7.271
X605.511 Y632.022 Z-7.297
X605.492 Y632.024 Z-7.324
X605.478 Y632.012 Z-7.35
X605.476 Y631.993 Z-7.376
X605.487 Y631.978 Z-7.402
X605.506 Y631.976 Z-7.428
X605.521 Y631.987 Z-7.454
X605.524 Y632.006 Z-7.48
X605.512 Y632.021 Z-7.507
X605.494 Y632.024 Z-7.533
X605.478 Y632.013 Z-7.559
X605.475 Y631.995 Z-7.585
X605.486 Y631.979 Z-7.611
X605.505 Y631.976 Z-7.637
X605.52 Y631.986 Z-7.663
X605.524 Y632.005 Z-7.69
X605.514 Y632.021 Z-7.716
X605.495 Y632.025 Z-7.742
X605.479 Y632.015 Z-7.768
X605.475 Y631.996 Z-7.794
X605.485 Y631.98 Z-7.82
X605.503 Y631.975 Z-7.846
X605.519 Y631.985 Z-7.873
X605.524 Y632.003 Z-7.899
X605.515 Y632.02 Z-7.925
X605.497 Y632.025 Z-7.951
X605.48 Y632.016 Z-7.977
X605.475 Y631.998 Z-8.003
X605.483 Y631.981 Z-8.029
X605.501 Y631.975 Z-8.056
X605.518 Y631.984 Z-8.082
X605.524 Y632.002 Z-8.108
X605.516 Y632.019 Z-8.134
X605.498 Y632.025 Z-8.16
X605.481 Y632.017 Z-8.186
X605.475 Y631.999 Z-8.212
X605.482 Y631.982 Z-8.239
X605.5 Y631.975 Z-8.265
X605.517 Y631.982 Z-8.291
X605.525 Y632. Z-8.317
X605.517 Y632.018 Z-8.343
X605.5 Y632.025 Z-8.369
X605.482 Y632.018 Z-8.395
X605.475 Y632.001 Z-8.422
X605.481 Y631.983 Z-8.448
X605.498 Y631.975 Z-8.474
X605.516 Y631.981 Z-8.5
G3 X605.518 Y632.017 I-0.017 J0.019
X605.483 Y632.019 I-0.019 J-0.017
X605.481 Y631.983 I0.017 J-0.019
X605.516 Y631.981 I0.019 J0.017
G1 X605.52 Y631.99
X605.517 Y631.999
X605.5 Y632.
Z5.
Y564.5
Z0.9
Z-0.5
X605.512 Y564.487
X605.521 Y564.491
X605.524 Y564.5
X605.517 Y564.518 Z-0.526
X605.5 Y564.525 Z-0.552
X605.482 Y564.518 Z-0.578
X605.475 Y564.501 Z-0.605
X605.481 Y564.483 Z-0.631
X605.498 Y564.475 Z-0.657
X605.516 Y564.481 Z-0.683
X605.524 Y564.498 Z-0.709
X605.518 Y564.516 Z-0.735
X605.501 Y564.525 Z-0.761
X605.483 Y564.519 Z-0.788
X605.475 Y564.502 Z-0.814
X605.48 Y564.484 Z-0.84
X605.497 Y564.475 Z-0.866
X605.515 Y564.48 Z-0.892
X605.524 Y564.497 Z-0.918
X605.519 Y564.515 Z-0.944
X605.503 Y564.525 Z-0.971
X605.485 Y564.52 Z-0.997
X605.475 Y564.504 Z-1.023
X605.479 Y564.485 Z-1.049
X605.495 Y564.475 Z-1.075
X605.514 Y564.479 Z-1.101
X605.524 Y564.495 Z-1.127
X605.52 Y564.514 Z-1.154
X605.505 Y564.524 Z-1.18
X605.486 Y564.521 Z-1.206
X605.475 Y564.505 Z-1.232
X605.478 Y564.487 Z-1.258
X605.494 Y564.476 Z-1.284
X605.512 Y564.479 Z-1.31
X605.524 Y564.494 Z-1.337
X605.521 Y564.513 Z-1.363
X605.506 Y564.524 Z-1.389
X605.487 Y564.522 Z-1.415
X605.476 Y564.507 Z-1.441
X605.478 Y564.488 Z-1.467
X605.492 Y564.476 Z-1.493
X605.511 Y564.478 Z-1.52
X605.523 Y564.492 Z-1.546
X605.522 Y564.511 Z-1.572
X605.508 Y564.524 Z-1.598
X605.489 Y564.523 Z-1.624
X605.476 Y564.509 Z-1.65
X605.477 Y564.49 Z-1.676
X605.491 Y564.477 Z-1.703
X605.51 Z-1.729
X605.523 Y564.491 Z-1.755
Y564.51 Z-1.781
X605.509 Y564.523 Z-1.807
X605.49 Z-1.833
X605.477 Y564.51 Z-1.859
X605.476 Y564.491 Z-1.886
X605.489 Y564.477 Z-1.912
X605.508 Z-1.938
X605.522 Y564.489 Z-1.964
X605.523 Y564.508 Z-1.99
X605.511 Y564.522 Z-2.016
X605.492 Y564.524 Z-2.042
X605.477 Y564.511 Z-2.069
X605.476 Y564.492 Z-2.095
X605.488 Y564.478 Z-2.121
X605.507 Y564.476 Z-2.147
X605.521 Y564.488 Z-2.173
X605.524 Y564.507 Z-2.199
X605.512 Y564.522 Z-2.225
X605.493 Y564.524 Z-2.252
X605.478 Y564.513 Z-2.278
X605.475 Y564.494 Z-2.304
X605.486 Y564.479 Z-2.33
X605.505 Y564.476 Z-2.356
X605.521 Y564.487 Z-2.382
X605.524 Y564.505 Z-2.408
X605.513 Y564.521 Z-2.435
X605.495 Y564.525 Z-2.461
X605.479 Y564.514 Z-2.487
X605.475 Y564.496 Z-2.513
X605.485 Y564.48 Z-2.539
X605.504 Y564.475 Z-2.565
X605.52 Y564.485 Z-2.592
X605.524 Y564.504 Z-2.618
X605.515 Y564.52 Z-2.644
X605.496 Y564.525 Z-2.67
X605.48 Y564.515 Z-2.696
X605.475 Y564.497 Z-2.722
X605.484 Y564.481 Z-2.748
X605.502 Y564.475 Z-2.775
X605.519 Y564.484 Z-2.801
X605.524 Y564.502 Z-2.827
X605.516 Y564.519 Z-2.853
X605.498 Y564.525 Z-2.879
X605.481 Y564.517 Z-2.905
X605.475 Y564.499 Z-2.931
X605.483 Y564.482 Z-2.958
X605.5 Y564.475 Z-2.984
X605.518 Y564.483 Z-3.01
X605.525 Y564.501 Z-3.036
X605.517 Y564.518 Z-3.062
X605.499 Y564.525 Z-3.088
X605.482 Y564.518 Z-3.114
X605.475 Y564.5 Z-3.141
X605.482 Y564.483 Z-3.167
X605.499 Y564.475 Z-3.193
X605.517 Y564.482 Z-3.219
X605.524 Y564.499 Z-3.245
X605.518 Y564.517 Z-3.271
X605.501 Y564.525 Z-3.297
X605.483 Y564.519 Z-3.324
X605.475 Y564.502 Z-3.35
X605.48 Y564.484 Z-3.376
X605.497 Y564.475 Z-3.402
X605.515 Y564.481 Z-3.428
X605.524 Y564.497 Z-3.454
X605.519 Y564.516 Z-3.48
X605.503 Y564.525 Z-3.507
X605.484 Y564.52 Z-3.533
X605.475 Y564.503 Z-3.559
X605.479 Y564.485 Z-3.585
X605.496 Y564.475 Z-3.611
X605.514 Y564.48 Z-3.637
X605.524 Y564.496 Z-3.663
X605.52 Y564.514 Z-3.69
X605.504 Y564.525 Z-3.716
X605.486 Y564.521 Z-3.742
X605.475 Y564.505 Z-3.768
X605.479 Y564.486 Z-3.794
X605.494 Y564.476 Z-3.82
X605.513 Y564.479 Z-3.846
X605.524 Y564.494 Z-3.873
X605.521 Y564.513 Z-3.899
X605.506 Y564.524 Z-3.925
X605.487 Y564.522 Z-3.951
X605.475 Y564.507 Z-3.977
X605.478 Y564.488 Z-4.003
X605.493 Y564.476 Z-4.029
X605.511 Y564.478 Z-4.056
X605.523 Y564.493 Z-4.082
X605.522 Y564.512 Z-4.108
X605.507 Y564.524 Z-4.134
X605.488 Y564.522 Z-4.16
X605.476 Y564.508 Z-4.186
X605.477 Y564.489 Z-4.212
X605.491 Y564.476 Z-4.239
X605.51 Y564.477 Z-4.265
X605.523 Y564.491 Z-4.291
X605.522 Y564.51 Z-4.317
X605.509 Y564.523 Z-4.343
X605.49 Z-4.369
X605.476 Y564.509 Z-4.395
Y564.491 Z-4.422
X605.49 Y564.477 Z-4.448
X605.509 Z-4.474
X605.522 Y564.49 Z-4.5
X605.523 Y564.509 Z-4.526
X605.51 Y564.523 Z-4.552
X605.491 Y564.524 Z-4.578
X605.477 Y564.511 Z-4.605
X605.476 Y564.492 Z-4.631
X605.488 Y564.478 Z-4.657
X605.507 Y564.476 Z-4.683
X605.522 Y564.488 Z-4.709
X605.523 Y564.507 Z-4.735
X605.512 Y564.522 Z-4.761
X605.493 Y564.524 Z-4.788
X605.478 Y564.512 Z-4.814
X605.475 Y564.494 Z-4.84
X605.487 Y564.478 Z-4.866
X605.506 Y564.476 Z-4.892
X605.521 Y564.487 Z-4.918
X605.524 Y564.506 Z-4.944
X605.513 Y564.521 Z-4.971
X605.494 Y564.524 Z-4.997
X605.479 Y564.514 Z-5.023
X605.475 Y564.495 Z-5.049
X605.485 Y564.479 Z-5.075
X605.504 Y564.475 Z-5.101
X605.52 Y564.486 Z-5.127
X605.524 Y564.504 Z-5.154
X605.514 Y564.52 Z-5.18
X605.496 Y564.525 Z-5.206
X605.479 Y564.515 Z-5.232
X605.475 Y564.497 Z-5.258
X605.484 Y564.48 Z-5.284
X605.503 Y564.475 Z-5.31
X605.519 Y564.484 Z-5.337
X605.524 Y564.503 Z-5.363
X605.515 Y564.519 Z-5.389
X605.497 Y564.525 Z-5.415
X605.48 Y564.516 Z-5.441
X605.475 Y564.498 Z-5.467
X605.483 Y564.481 Z-5.493
X605.501 Y564.475 Z-5.52
X605.518 Y564.483 Z-5.546
X605.524 Y564.501 Z-5.572
X605.517 Y564.518 Z-5.598
X605.499 Y564.525 Z-5.624
X605.482 Y564.517 Z-5.65
X605.475 Y564.5 Z-5.676
X605.482 Y564.482 Z-5.703
X605.499 Y564.475 Z-5.729
X605.517 Y564.482 Z-5.755
X605.524 Y564.499 Z-5.781
X605.518 Y564.517 Z-5.807
X605.5 Y564.525 Z-5.833
X605.483 Y564.518 Z-5.859
X605.475 Y564.501 Z-5.886
X605.481 Y564.483 Z-5.912
X605.498 Y564.475 Z-5.938
X605.516 Y564.481 Z-5.964
X605.524 Y564.498 Z-5.99
X605.519 Y564.516 Z-6.016
X605.502 Y564.525 Z-6.042
X605.484 Y564.519 Z-6.069
X605.475 Y564.503 Z-6.095
X605.48 Y564.485 Z-6.121
X605.496 Y564.475 Z-6.147
X605.515 Y564.48 Z-6.173
X605.524 Y564.496 Z-6.199
X605.52 Y564.515 Z-6.225
X605.504 Y564.525 Z-6.252
X605.485 Y564.52 Z-6.278
X605.475 Y564.504 Z-6.304
X605.479 Y564.486 Z-6.33
X605.495 Y564.475 Z-6.356
X605.513 Y564.479 Z-6.382
X605.524 Y564.495 Z-6.408
X605.521 Y564.513 Z-6.435
X605.505 Y564.524 Z-6.461
X605.486 Y564.521 Z-6.487
X605.475 Y564.506 Z-6.513
X605.478 Y564.487 Z-6.539
X605.493 Y564.476 Z-6.565
X605.512 Y564.478 Z-6.592
X605.524 Y564.493 Z-6.618
X605.521 Y564.512 Z-6.644
X605.507 Y564.524 Z-6.67
X605.488 Y564.522 Z-6.696
X605.476 Y564.508 Z-6.722
X605.477 Y564.489 Z-6.748
X605.492 Y564.476 Z-6.775
X605.511 Y564.478 Z-6.801
X605.523 Y564.492 Z-6.827
X605.522 Y564.511 Z-6.853
X605.508 Y564.523 Z-6.879
X605.489 Z-6.905
X605.476 Y564.509 Z-6.931
X605.477 Y564.49 Z-6.958
X605.49 Y564.477 Z-6.984
X605.509 Z-7.01
X605.523 Y564.49 Z-7.036
Y564.509 Z-7.062
X605.51 Y564.523 Z-7.088
X605.491 Z-7.114
X605.477 Y564.51 Z-7.141
X605.476 Y564.492 Z-7.167
X605.489 Y564.477 Z-7.193
X605.508 Y564.476 Z-7.219
X605.522 Y564.489 Z-7.245
X605.523 Y564.508 Z-7.271
X605.511 Y564.522 Z-7.297
X605.492 Y564.524 Z-7.324
X605.478 Y564.512 Z-7.35
X605.476 Y564.493 Z-7.376
X605.487 Y564.478 Z-7.402
X605.506 Y564.476 Z-7.428
X605.521 Y564.487 Z-7.454
X605.524 Y564.506 Z-7.48
X605.512 Y564.521 Z-7.507
X605.494 Y564.524 Z-7.533
X605.478 Y564.513 Z-7.559
X605.475 Y564.495 Z-7.585
X605.486 Y564.479 Z-7.611
X605.505 Y564.476 Z-7.637
X605.52 Y564.486 Z-7.663
X605.524 Y564.505 Z-7.69
X605.514 Y564.521 Z-7.716
X605.495 Y564.525 Z-7.742
X605.479 Y564.515 Z-7.768
X605.475 Y564.496 Z-7.794
X605.485 Y564.48 Z-7.82
X605.503 Y564.475 Z-7.846
X605.519 Y564.485 Z-7.873
X605.524 Y564.503 Z-7.899
X605.515 Y564.52 Z-7.925
X605.497 Y564.525 Z-7.951
X605.48 Y564.516 Z-7.977
X605.475 Y564.498 Z-8.003
X605.483 Y564.481 Z-8.029
X605.501 Y564.475 Z-8.056
X605.518 Y564.484 Z-8.082
X605.524 Y564.502 Z-8.108
X605.516 Y564.519 Z-8.134
X605.498 Y564.525 Z-8.16
X605.481 Y564.517 Z-8.186
X605.475 Y564.499 Z-8.212
X605.482 Y564.482 Z-8.239
X605.5 Y564.475 Z-8.265
X605.517 Y564.482 Z-8.291
X605.525 Y564.5 Z-8.317
X605.517 Y564.518 Z-8.343
X605.5 Y564.525 Z-8.369
X605.482 Y564.518 Z-8.395
X605.475 Y564.501 Z-8.422
X605.481 Y564.483 Z-8.448
X605.498 Y564.475 Z-8.474
X605.516 Y564.481 Z-8.5
G3 X605.518 Y564.517 I-0.017 J0.019
X605.483 Y564.519 I-0.019 J-0.017
X605.481 Y564.483 I0.017 J-0.019
X605.516 Y564.481 I0.019 J0.017
G1 X605.52 Y564.49
X605.517 Y564.499
X605.5 Y564.5
Z5.
X695.499 Y503.475
Z0.9
Z-0.5
X695.511 Y503.462
X695.52 Y503.466
X695.524 Y503.475
X695.517 Y503.492 Z-0.526
X695.499 Y503.5 Z-0.552
X695.482 Y503.493 Z-0.578
X695.474 Y503.476 Z-0.605
X695.481 Y503.458 Z-0.631
X695.498 Y503.45 Z-0.657
X695.516 Y503.456 Z-0.683
X695.524 Y503.473 Z-0.709
X695.518 Y503.491 Z-0.735
X695.501 Y503.5 Z-0.761
X695.483 Y503.494 Z-0.788
X695.474 Y503.477 Z-0.814
X695.48 Y503.459 Z-0.84
X695.496 Y503.45 Z-0.866
X695.514 Y503.455 Z-0.892
X695.524 Y503.472 Z-0.918
X695.519 Y503.49 Z-0.944
X695.503 Y503.5 Z-0.971
X695.484 Y503.495 Z-0.997
X695.474 Y503.479 Z-1.023
X695.479 Y503.46 Z-1.049
X695.495 Y503.45 Z-1.075
X695.513 Y503.454 Z-1.101
X695.524 Y503.47 Z-1.127
X695.52 Y503.489 Z-1.154
X695.504 Y503.499 Z-1.18
X695.485 Y503.496 Z-1.206
X695.475 Y503.48 Z-1.232
X695.478 Y503.462 Z-1.258
X695.493 Y503.451 Z-1.284
X695.512 Y503.454 Z-1.31
X695.523 Y503.469 Z-1.337
X695.521 Y503.488 Z-1.363
X695.506 Y503.499 Z-1.389
X695.487 Y503.497 Z-1.415
X695.475 Y503.482 Z-1.441
X695.477 Y503.463 Z-1.467
X695.492 Y503.451 Z-1.493
X695.511 Y503.453 Z-1.52
X695.523 Y503.467 Z-1.546
X695.521 Y503.486 Z-1.572
X695.507 Y503.499 Z-1.598
X695.488 Y503.498 Z-1.624
X695.476 Y503.483 Z-1.65
Y503.465 Z-1.676
X695.49 Y503.452 Z-1.703
X695.509 Z-1.729
X695.522 Y503.466 Z-1.755
Y503.485 Z-1.781
X695.509 Y503.498 Z-1.807
X695.49 Z-1.833
X695.476 Y503.485 Z-1.859
Y503.466 Z-1.886
X695.489 Y503.452 Z-1.912
X695.508 Y503.451 Z-1.938
X695.522 Y503.464 Z-1.964
X695.523 Y503.483 Z-1.99
X695.51 Y503.497 Z-2.016
X695.491 Y503.499 Z-2.042
X695.477 Y503.486 Z-2.069
X695.475 Y503.467 Z-2.095
X695.487 Y503.453 Z-2.121
X695.506 Y503.451 Z-2.147
X695.521 Y503.463 Z-2.173
X695.523 Y503.482 Z-2.199
X695.511 Y503.497 Z-2.225
X695.493 Y503.499 Z-2.252
X695.478 Y503.488 Z-2.278
X695.475 Y503.469 Z-2.304
X695.486 Y503.454 Z-2.33
X695.505 Y503.451 Z-2.356
X695.52 Y503.462 Z-2.382
X695.523 Y503.48 Z-2.408
X695.513 Y503.496 Z-2.435
X695.494 Y503.5 Z-2.461
X695.478 Y503.489 Z-2.487
X695.474 Y503.471 Z-2.513
X695.485 Y503.455 Z-2.539
X695.503 Y503.45 Z-2.565
X695.519 Y503.46 Z-2.592
X695.524 Y503.479 Z-2.618
X695.514 Y503.495 Z-2.644
X695.496 Y503.5 Z-2.67
X695.479 Y503.49 Z-2.696
X695.474 Y503.472 Z-2.722
X695.483 Y503.456 Z-2.748
X695.502 Y503.45 Z-2.775
X695.518 Y503.459 Z-2.801
X695.524 Y503.477 Z-2.827
X695.515 Y503.494 Z-2.853
X695.497 Y503.5 Z-2.879
X695.48 Y503.492 Z-2.905
X695.474 Y503.474 Z-2.931
X695.482 Y503.457 Z-2.958
X695.5 Y503.45 Z-2.984
X695.517 Y503.458 Z-3.01
X695.524 Y503.475 Z-3.036
X695.516 Y503.493 Z-3.062
X695.499 Y503.5 Z-3.088
X695.481 Y503.493 Z-3.114
X695.474 Y503.475 Z-3.141
X695.481 Y503.458 Z-3.167
X695.498 Y503.45 Z-3.193
X695.516 Y503.457 Z-3.219
X695.524 Y503.474 Z-3.245
X695.518 Y503.492 Z-3.271
X695.5 Y503.5 Z-3.297
X695.483 Y503.494 Z-3.324
X695.474 Y503.477 Z-3.35
X695.48 Y503.459 Z-3.376
X695.497 Y503.45 Z-3.402
X695.515 Y503.456 Z-3.428
X695.524 Y503.472 Z-3.454
X695.519 Y503.491 Z-3.48
X695.502 Y503.5 Z-3.507
X695.484 Y503.495 Z-3.533
X695.474 Y503.478 Z-3.559
X695.479 Y503.46 Z-3.585
X695.495 Y503.45 Z-3.611
X695.514 Y503.455 Z-3.637
X695.524 Y503.471 Z-3.663
X695.52 Y503.489 Z-3.69
X695.504 Y503.5 Z-3.716
X695.485 Y503.496 Z-3.742
X695.475 Y503.48 Z-3.768
X695.478 Y503.461 Z-3.794
X695.494 Y503.451 Z-3.82
X695.512 Y503.454 Z-3.846
X695.523 Y503.469 Z-3.873
X695.52 Y503.488 Z-3.899
X695.505 Y503.499 Z-3.925
X695.486 Y503.497 Z-3.951
X695.475 Y503.481 Z-3.977
X695.477 Y503.463 Z-4.003
X695.492 Y503.451 Z-4.029
X695.511 Y503.453 Z-4.056
X695.523 Y503.468 Z-4.082
X695.521 Y503.487 Z-4.108
X695.507 Y503.499 Z-4.134
X695.488 Y503.497 Z-4.16
X695.475 Y503.483 Z-4.186
X695.477 Y503.464 Z-4.212
X695.491 Y503.451 Z-4.239
X695.51 Y503.452 Z-4.265
X695.522 Y503.466 Z-4.291
Y503.485 Z-4.317
X695.508 Y503.498 Z-4.343
X695.489 Z-4.369
X695.476 Y503.484 Z-4.395
Y503.466 Z-4.422
X695.489 Y503.452 Z-4.448
X695.508 Z-4.474
X695.522 Y503.465 Z-4.5
Y503.484 Z-4.526
X695.51 Y503.498 Z-4.552
X695.491 Y503.499 Z-4.578
X695.477 Y503.486 Z-4.605
X695.475 Y503.467 Z-4.631
X695.488 Y503.453 Z-4.657
X695.507 Y503.451 Z-4.683
X695.521 Y503.463 Z-4.709
X695.523 Y503.482 Z-4.735
X695.511 Y503.497 Z-4.761
X695.492 Y503.499 Z-4.788
X695.477 Y503.487 Z-4.814
X695.475 Y503.468 Z-4.84
X695.486 Y503.453 Z-4.866
X695.505 Y503.451 Z-4.892
X695.52 Y503.462 Z-4.918
X695.523 Y503.481 Z-4.944
X695.512 Y503.496 Z-4.971
X695.494 Y503.499 Z-4.997
X695.478 Y503.489 Z-5.023
X695.474 Y503.47 Z-5.049
X695.485 Y503.454 Z-5.075
X695.504 Y503.45 Z-5.101
X695.52 Y503.461 Z-5.127
X695.524 Y503.479 Z-5.154
X695.514 Y503.495 Z-5.18
X695.495 Y503.5 Z-5.206
X695.479 Y503.49 Z-5.232
X695.474 Y503.472 Z-5.258
X695.484 Y503.455 Z-5.284
X695.502 Y503.45 Z-5.31
X695.519 Y503.459 Z-5.337
X695.524 Y503.478 Z-5.363
X695.515 Y503.494 Z-5.389
X695.497 Y503.5 Z-5.415
X695.48 Y503.491 Z-5.441
X695.474 Y503.473 Z-5.467
X695.483 Y503.456 Z-5.493
X695.5 Y503.45 Z-5.52
X695.518 Y503.458 Z-5.546
X695.524 Y503.476 Z-5.572
X695.516 Y503.493 Z-5.598
X695.498 Y503.5 Z-5.624
X695.481 Y503.492 Z-5.65
X695.474 Y503.475 Z-5.676
X695.481 Y503.457 Z-5.703
X695.499 Y503.45 Z-5.729
X695.516 Y503.457 Z-5.755
X695.524 Y503.474 Z-5.781
X695.517 Y503.492 Z-5.807
X695.5 Y503.5 Z-5.833
X695.482 Y503.493 Z-5.859
X695.474 Y503.476 Z-5.886
X695.48 Y503.458 Z-5.912
X695.497 Y503.45 Z-5.938
X695.515 Y503.456 Z-5.964
X695.524 Y503.473 Z-5.99
X695.518 Y503.491 Z-6.016
X695.502 Y503.5 Z-6.042
X695.483 Y503.494 Z-6.069
X695.474 Y503.478 Z-6.095
X695.479 Y503.46 Z-6.121
X695.496 Y503.45 Z-6.147
X695.514 Y503.455 Z-6.173
X695.524 Y503.471 Z-6.199
X695.519 Y503.49 Z-6.225
X695.503 Y503.5 Z-6.252
X695.485 Y503.495 Z-6.278
X695.474 Y503.479 Z-6.304
X695.478 Y503.461 Z-6.33
X695.494 Y503.45 Z-6.356
X695.513 Y503.454 Z-6.382
X695.523 Y503.47 Z-6.408
X695.52 Y503.488 Z-6.435
X695.505 Y503.499 Z-6.461
X695.486 Y503.496 Z-6.487
X695.475 Y503.481 Z-6.513
X695.478 Y503.462 Z-6.539
X695.493 Y503.451 Z-6.565
X695.511 Y503.453 Z-6.592
X695.523 Y503.468 Z-6.618
X695.521 Y503.487 Z-6.644
X695.506 Y503.499 Z-6.67
X695.487 Y503.497 Z-6.696
X695.475 Y503.483 Z-6.722
X695.477 Y503.464 Z-6.748
X695.491 Y503.451 Z-6.775
X695.51 Y503.453 Z-6.801
X695.523 Y503.467 Z-6.827
X695.522 Y503.486 Z-6.853
X695.508 Y503.498 Z-6.879
X695.489 Z-6.905
X695.476 Y503.484 Z-6.931
Y503.465 Z-6.958
X695.49 Y503.452 Z-6.984
X695.509 Z-7.01
X695.522 Y503.465 Z-7.036
Y503.484 Z-7.062
X695.509 Y503.498 Z-7.088
X695.49 Z-7.114
X695.476 Y503.485 Z-7.141
Y503.466 Z-7.167
X695.488 Y503.452 Z-7.193
X695.507 Y503.451 Z-7.219
X695.521 Y503.464 Z-7.245
X695.523 Y503.483 Z-7.271
X695.511 Y503.497 Z-7.297
X695.492 Y503.499 Z-7.324
X695.477 Y503.487 Z-7.35
X695.475 Y503.468 Z-7.376
X695.487 Y503.453 Z-7.402
X695.506 Y503.451 Z-7.428
X695.521 Y503.462 Z-7.454
X695.523 Y503.481 Z-7.48
X695.512 Y503.496 Z-7.507
X695.493 Y503.499 Z-7.533
X695.478 Y503.488 Z-7.559
X695.475 Y503.47 Z-7.585
X695.485 Y503.454 Z-7.611
X695.504 Y503.45 Z-7.637
X695.52 Y503.461 Z-7.663
X695.524 Y503.48 Z-7.69
X695.513 Y503.496 Z-7.716
X695.495 Y503.5 Z-7.742
X695.479 Y503.489 Z-7.768
X695.474 Y503.471 Z-7.794
X695.484 Y503.455 Z-7.82
X695.503 Y503.45 Z-7.846
X695.519 Y503.46 Z-7.873
X695.524 Y503.478 Z-7.899
X695.515 Y503.495 Z-7.925
X695.496 Y503.5 Z-7.951
X695.48 Y503.491 Z-7.977
X695.474 Y503.473 Z-8.003
X695.483 Y503.456 Z-8.029
X695.501 Y503.45 Z-8.056
X695.518 Y503.459 Z-8.082
X695.524 Y503.477 Z-8.108
X695.516 Y503.494 Z-8.134
X695.498 Y503.5 Z-8.16
X695.481 Y503.492 Z-8.186
X695.474 Y503.474 Z-8.212
X695.482 Y503.457 Z-8.239
X695.499 Y503.45 Z-8.265
X695.517 Y503.457 Z-8.291
X695.524 Y503.475 Z-8.317
X695.517 Y503.493 Z-8.343
X695.499 Y503.5 Z-8.369
X695.482 Y503.493 Z-8.395
X695.474 Y503.476 Z-8.422
X695.481 Y503.458 Z-8.448
X695.498 Y503.45 Z-8.474
X695.516 Y503.456 Z-8.5
G3 X695.518 Y503.492 I-0.017 J0.019
X695.482 Y503.494 I-0.019 J-0.017
X695.48 Y503.458 I0.017 J-0.019
X695.516 Y503.456 I0.019 J0.017
G1 X695.52 Y503.465
X695.517 Y503.474
X695.499 Y503.475
Z5.
Y510.525
Z0.9
Z-0.5
X695.511 Y510.512
X695.52 Y510.516
X695.524 Y510.525
X695.517 Y510.543 Z-0.526
X695.499 Y510.55 Z-0.552
X695.482 Y510.543 Z-0.578
X695.474 Y510.526 Z-0.605
X695.481 Y510.508 Z-0.631
X695.498 Y510.5 Z-0.657
X695.516 Y510.506 Z-0.683
X695.524 Y510.523 Z-0.709
X695.518 Y510.541 Z-0.735
X695.501 Y510.55 Z-0.761
X695.483 Y510.544 Z-0.788
X695.474 Y510.527 Z-0.814
X695.48 Y510.509 Z-0.84
X695.496 Y510.5 Z-0.866
X695.515 Y510.505 Z-0.892
X695.524 Y510.522 Z-0.918
X695.519 Y510.54 Z-0.944
X695.503 Y510.55 Z-0.971
X695.484 Y510.545 Z-0.997
X695.474 Y510.529 Z-1.023
X695.479 Y510.51 Z-1.049
X695.495 Y510.5 Z-1.075
X695.513 Y510.504 Z-1.101
X695.524 Y510.52 Z-1.127
X695.52 Y510.539 Z-1.154
X695.504 Y510.549 Z-1.18
X695.485 Y510.546 Z-1.206
X695.475 Y510.53 Z-1.232
X695.478 Y510.512 Z-1.258
X695.493 Y510.501 Z-1.284
X695.512 Y510.504 Z-1.31
X695.523 Y510.519 Z-1.337
X695.521 Y510.538 Z-1.363
X695.506 Y510.549 Z-1.389
X695.487 Y510.547 Z-1.415
X695.475 Y510.532 Z-1.441
X695.477 Y510.513 Z-1.467
X695.492 Y510.501 Z-1.493
X695.511 Y510.503 Z-1.52
X695.523 Y510.517 Z-1.546
X695.521 Y510.536 Z-1.572
X695.507 Y510.549 Z-1.598
X695.488 Y510.548 Z-1.624
X695.475 Y510.534 Z-1.65
X695.476 Y510.515 Z-1.676
X695.49 Y510.502 Z-1.703
X695.509 Z-1.729
X695.522 Y510.516 Z-1.755
Y510.535 Z-1.781
X695.509 Y510.548 Z-1.807
X695.49 Z-1.833
X695.476 Y510.535 Z-1.859
Y510.516 Z-1.886
X695.489 Y510.502 Z-1.912
X695.508 Y510.501 Z-1.938
X695.522 Y510.514 Z-1.964
X695.523 Y510.533 Z-1.99
X695.51 Y510.547 Z-2.016
X695.491 Y510.549 Z-2.042
X695.477 Y510.536 Z-2.069
X695.475 Y510.517 Z-2.095
X695.487 Y510.503 Z-2.121
X695.506 Y510.501 Z-2.147
X695.521 Y510.513 Z-2.173
X695.523 Y510.532 Z-2.199
X695.511 Y510.547 Z-2.225
X695.493 Y510.549 Z-2.252
X695.478 Y510.538 Z-2.278
X695.475 Y510.519 Z-2.304
X695.486 Y510.504 Z-2.33
X695.505 Y510.501 Z-2.356
X695.52 Y510.512 Z-2.382
X695.523 Y510.53 Z-2.408
X695.513 Y510.546 Z-2.435
X695.494 Y510.55 Z-2.461
X695.478 Y510.539 Z-2.487
X695.474 Y510.521 Z-2.513
X695.485 Y510.505 Z-2.539
X695.503 Y510.5 Z-2.565
X695.519 Y510.51 Z-2.592
X695.524 Y510.529 Z-2.618
X695.514 Y510.545 Z-2.644
X695.496 Y510.55 Z-2.67
X695.479 Y510.54 Z-2.696
X695.474 Y510.522 Z-2.722
X695.483 Y510.506 Z-2.748
X695.502 Y510.5 Z-2.775
X695.518 Y510.509 Z-2.801
X695.524 Y510.527 Z-2.827
X695.515 Y510.544 Z-2.853
X695.497 Y510.55 Z-2.879
X695.48 Y510.542 Z-2.905
X695.474 Y510.524 Z-2.931
X695.482 Y510.507 Z-2.958
X695.5 Y510.5 Z-2.984
X695.517 Y510.508 Z-3.01
X695.524 Y510.525 Z-3.036
X695.516 Y510.543 Z-3.062
X695.499 Y510.55 Z-3.088
X695.481 Y510.543 Z-3.114
X695.474 Y510.525 Z-3.141
X695.481 Y510.508 Z-3.167
X695.498 Y510.5 Z-3.193
X695.516 Y510.507 Z-3.219
X695.524 Y510.524 Z-3.245
X695.518 Y510.542 Z-3.271
X695.5 Y510.55 Z-3.297
X695.483 Y510.544 Z-3.324
X695.474 Y510.527 Z-3.35
X695.48 Y510.509 Z-3.376
X695.497 Y510.5 Z-3.402
X695.515 Y510.506 Z-3.428
X695.524 Y510.522 Z-3.454
X695.519 Y510.541 Z-3.48
X695.502 Y510.55 Z-3.507
X695.484 Y510.545 Z-3.533
X695.474 Y510.528 Z-3.559
X695.479 Y510.51 Z-3.585
X695.495 Y510.5 Z-3.611
X695.514 Y510.505 Z-3.637
X695.524 Y510.521 Z-3.663
X695.52 Y510.539 Z-3.69
X695.504 Y510.55 Z-3.716
X695.485 Y510.546 Z-3.742
X695.474 Y510.53 Z-3.768
X695.478 Y510.511 Z-3.794
X695.494 Y510.501 Z-3.82
X695.512 Y510.504 Z-3.846
X695.523 Y510.519 Z-3.873
X695.52 Y510.538 Z-3.899
X695.505 Y510.549 Z-3.925
X695.486 Y510.547 Z-3.951
X695.475 Y510.531 Z-3.977
X695.477 Y510.513 Z-4.003
X695.492 Y510.501 Z-4.029
X695.511 Y510.503 Z-4.056
X695.523 Y510.518 Z-4.082
X695.521 Y510.537 Z-4.108
X695.507 Y510.549 Z-4.134
X695.488 Y510.547 Z-4.16
X695.475 Y510.533 Z-4.186
X695.477 Y510.514 Z-4.212
X695.491 Y510.501 Z-4.239
X695.51 Y510.502 Z-4.265
X695.522 Y510.516 Z-4.291
Y510.535 Z-4.317
X695.508 Y510.548 Z-4.343
X695.489 Z-4.369
X695.476 Y510.534 Z-4.395
Y510.516 Z-4.422
X695.489 Y510.502 Z-4.448
X695.508 Z-4.474
X695.522 Y510.515 Z-4.5
Y510.534 Z-4.526
X695.51 Y510.548 Z-4.552
X695.491 Y510.549 Z-4.578
X695.477 Y510.536 Z-4.605
X695.475 Y510.517 Z-4.631
X695.488 Y510.503 Z-4.657
X695.507 Y510.501 Z-4.683
X695.521 Y510.513 Z-4.709
X695.523 Y510.532 Z-4.735
X695.511 Y510.547 Z-4.761
X695.492 Y510.549 Z-4.788
X695.477 Y510.537 Z-4.814
X695.475 Y510.519 Z-4.84
X695.486 Y510.503 Z-4.866
X695.505 Y510.501 Z-4.892
X695.52 Y510.512 Z-4.918
X695.523 Y510.531 Z-4.944
X695.512 Y510.546 Z-4.971
X695.494 Y510.549 Z-4.997
X695.478 Y510.539 Z-5.023
X695.474 Y510.52 Z-5.049
X695.485 Y510.504 Z-5.075
X695.504 Y510.5 Z-5.101
X695.52 Y510.511 Z-5.127
X695.524 Y510.529 Z-5.154
X695.514 Y510.545 Z-5.18
X695.495 Y510.55 Z-5.206
X695.479 Y510.54 Z-5.232
X695.474 Y510.522 Z-5.258
X695.484 Y510.505 Z-5.284
X695.502 Y510.5 Z-5.31
X695.519 Y510.509 Z-5.337
X695.524 Y510.528 Z-5.363
X695.515 Y510.544 Z-5.389
X695.497 Y510.55 Z-5.415
X695.48 Y510.541 Z-5.441
X695.474 Y510.523 Z-5.467
X695.483 Y510.506 Z-5.493
X695.5 Y510.5 Z-5.52
X695.518 Y510.508 Z-5.546
X695.524 Y510.526 Z-5.572
X695.516 Y510.543 Z-5.598
X695.498 Y510.55 Z-5.624
X695.481 Y510.542 Z-5.65
X695.474 Y510.525 Z-5.676
X695.481 Y510.507 Z-5.703
X695.499 Y510.5 Z-5.729
X695.516 Y510.507 Z-5.755
X695.524 Y510.524 Z-5.781
X695.517 Y510.542 Z-5.807
X695.5 Y510.55 Z-5.833
X695.482 Y510.543 Z-5.859
X695.474 Y510.526 Z-5.886
X695.48 Y510.508 Z-5.912
X695.497 Y510.5 Z-5.938
X695.515 Y510.506 Z-5.964
X695.524 Y510.523 Z-5.99
X695.518 Y510.541 Z-6.016
X695.502 Y510.55 Z-6.042
X695.483 Y510.544 Z-6.069
X695.474 Y510.528 Z-6.095
X695.479 Y510.51 Z-6.121
X695.496 Y510.5 Z-6.147
X695.514 Y510.505 Z-6.173
X695.524 Y510.521 Z-6.199
X695.519 Y510.54 Z-6.225
X695.503 Y510.55 Z-6.252
X695.485 Y510.545 Z-6.278
X695.474 Y510.529 Z-6.304
X695.478 Y510.511 Z-6.33
X695.494 Y510.5 Z-6.356
X695.513 Y510.504 Z-6.382
X695.523 Y510.52 Z-6.408
X695.52 Y510.538 Z-6.435
X695.505 Y510.549 Z-6.461
X695.486 Y510.546 Z-6.487
X695.475 Y510.531 Z-6.513
X695.478 Y510.512 Z-6.539
X695.493 Y510.501 Z-6.565
X695.511 Y510.503 Z-6.592
X695.523 Y510.518 Z-6.618
X695.521 Y510.537 Z-6.644
X695.506 Y510.549 Z-6.67
X695.487 Y510.547 Z-6.696
X695.475 Y510.533 Z-6.722
X695.477 Y510.514 Z-6.748
X695.491 Y510.501 Z-6.775
X695.51 Y510.503 Z-6.801
X695.523 Y510.517 Z-6.827
X695.522 Y510.536 Z-6.853
X695.508 Y510.548 Z-6.879
X695.489 Z-6.905
X695.476 Y510.534 Z-6.931
Y510.515 Z-6.958
X695.49 Y510.502 Z-6.984
X695.509 Z-7.01
X695.522 Y510.515 Z-7.036
Y510.534 Z-7.062
X695.509 Y510.548 Z-7.088
X695.49 Z-7.114
X695.476 Y510.535 Z-7.141
Y510.517 Z-7.167
X695.488 Y510.502 Z-7.193
X695.507 Y510.501 Z-7.219
X695.521 Y510.514 Z-7.245
X695.523 Y510.533 Z-7.271
X695.511 Y510.547 Z-7.297
X695.492 Y510.549 Z-7.324
X695.477 Y510.537 Z-7.35
X695.475 Y510.518 Z-7.376
X695.487 Y510.503 Z-7.402
X695.506 Y510.501 Z-7.428
X695.521 Y510.512 Z-7.454
X695.523 Y510.531 Z-7.48
X695.512 Y510.546 Z-7.507
X695.493 Y510.549 Z-7.533
X695.478 Y510.538 Z-7.559
X695.475 Y510.52 Z-7.585
X695.486 Y510.504 Z-7.611
X695.504 Y510.501 Z-7.637
X695.52 Y510.511 Z-7.663
X695.524 Y510.53 Z-7.69
X695.513 Y510.546 Z-7.716
X695.495 Y510.55 Z-7.742
X695.479 Y510.539 Z-7.768
X695.474 Y510.521 Z-7.794
X695.484 Y510.505 Z-7.82
X695.503 Y510.5 Z-7.846
X695.519 Y510.51 Z-7.873
X695.524 Y510.528 Z-7.899
X695.515 Y510.545 Z-7.925
X695.496 Y510.55 Z-7.951
X695.48 Y510.541 Z-7.977
X695.474 Y510.523 Z-8.003
X695.483 Y510.506 Z-8.029
X695.501 Y510.5 Z-8.056
X695.518 Y510.509 Z-8.082
X695.524 Y510.527 Z-8.108
X695.516 Y510.544 Z-8.134
X695.498 Y510.55 Z-8.16
X695.481 Y510.542 Z-8.186
X695.474 Y510.524 Z-8.212
X695.482 Y510.507 Z-8.239
X695.499 Y510.5 Z-8.265
X695.517 Y510.507 Z-8.291
X695.524 Y510.525 Z-8.317
X695.517 Y510.543 Z-8.343
X695.499 Y510.55 Z-8.369
X695.482 Y510.543 Z-8.395
X695.474 Y510.526 Z-8.422
X695.481 Y510.508 Z-8.448
X695.498 Y510.5 Z-8.474
X695.516 Y510.506 Z-8.5
G3 X695.518 Y510.542 I-0.017 J0.019
X695.482 Y510.544 I-0.019 J-0.017
X695.48 Y510.508 I0.017 J-0.019
X695.516 Y510.506 I0.019 J0.017
G1 X695.52 Y510.515
X695.517 Y510.524
X695.499 Y510.525
Z5.
Y564.5
Z0.9
Z-0.5
X695.511 Y564.487
X695.52 Y564.491
X695.524 Y564.5
X695.517 Y564.518 Z-0.526
X695.499 Y564.525 Z-0.552
X695.482 Y564.518 Z-0.578
X695.474 Y564.501 Z-0.605
X695.481 Y564.483 Z-0.631
X695.498 Y564.475 Z-0.657
X695.516 Y564.481 Z-0.683
X695.524 Y564.498 Z-0.709
X695.518 Y564.516 Z-0.735
X695.501 Y564.525 Z-0.761
X695.483 Y564.519 Z-0.788
X695.474 Y564.502 Z-0.814
X695.48 Y564.484 Z-0.84
X695.496 Y564.475 Z-0.866
X695.515 Y564.48 Z-0.892
X695.524 Y564.497 Z-0.918
X695.519 Y564.515 Z-0.944
X695.503 Y564.525 Z-0.971
X695.484 Y564.52 Z-0.997
X695.474 Y564.504 Z-1.023
X695.479 Y564.485 Z-1.049
X695.495 Y564.475 Z-1.075
X695.513 Y564.479 Z-1.101
X695.524 Y564.495 Z-1.127
X695.52 Y564.514 Z-1.154
X695.504 Y564.524 Z-1.18
X695.485 Y564.521 Z-1.206
X695.475 Y564.505 Z-1.232
X695.478 Y564.487 Z-1.258
X695.493 Y564.476 Z-1.284
X695.512 Y564.479 Z-1.31
X695.523 Y564.494 Z-1.337
X695.521 Y564.513 Z-1.363
X695.506 Y564.524 Z-1.389
X695.487 Y564.522 Z-1.415
X695.475 Y564.507 Z-1.441
X695.477 Y564.488 Z-1.467
X695.492 Y564.476 Z-1.493
X695.511 Y564.478 Z-1.52
X695.523 Y564.492 Z-1.546
X695.521 Y564.511 Z-1.572
X695.507 Y564.524 Z-1.598
X695.488 Y564.523 Z-1.624
X695.476 Y564.509 Z-1.65
Y564.49 Z-1.676
X695.49 Y564.477 Z-1.703
X695.509 Z-1.729
X695.522 Y564.491 Z-1.755
Y564.51 Z-1.781
X695.509 Y564.523 Z-1.807
X695.49 Z-1.833
X695.476 Y564.51 Z-1.859
Y564.491 Z-1.886
X695.489 Y564.477 Z-1.912
X695.508 Z-1.938
X695.522 Y564.489 Z-1.964
X695.523 Y564.508 Z-1.99
X695.51 Y564.522 Z-2.016
X695.491 Y564.524 Z-2.042
X695.477 Y564.511 Z-2.069
X695.475 Y564.492 Z-2.095
X695.487 Y564.478 Z-2.121
X695.506 Y564.476 Z-2.147
X695.521 Y564.488 Z-2.173
X695.523 Y564.507 Z-2.199
X695.511 Y564.522 Z-2.225
X695.493 Y564.524 Z-2.252
X695.478 Y564.513 Z-2.278
X695.475 Y564.494 Z-2.304
X695.486 Y564.479 Z-2.33
X695.505 Y564.476 Z-2.356
X695.52 Y564.487 Z-2.382
X695.524 Y564.505 Z-2.408
X695.513 Y564.521 Z-2.435
X695.494 Y564.525 Z-2.461
X695.478 Y564.514 Z-2.487
X695.474 Y564.496 Z-2.513
X695.485 Y564.48 Z-2.539
X695.503 Y564.475 Z-2.565
X695.519 Y564.485 Z-2.592
X695.524 Y564.504 Z-2.618
X695.514 Y564.52 Z-2.644
X695.496 Y564.525 Z-2.67
X695.479 Y564.515 Z-2.696
X695.474 Y564.497 Z-2.722
X695.483 Y564.481 Z-2.748
X695.502 Y564.475 Z-2.775
X695.518 Y564.484 Z-2.801
X695.524 Y564.502 Z-2.827
X695.515 Y564.519 Z-2.853
X695.497 Y564.525 Z-2.879
X695.48 Y564.517 Z-2.905
X695.474 Y564.499 Z-2.931
X695.482 Y564.482 Z-2.958
X695.5 Y564.475 Z-2.984
X695.517 Y564.483 Z-3.01
X695.524 Y564.5 Z-3.036
X695.516 Y564.518 Z-3.062
X695.499 Y564.525 Z-3.088
X695.481 Y564.518 Z-3.114
X695.474 Y564.5 Z-3.141
X695.481 Y564.483 Z-3.167
X695.498 Y564.475 Z-3.193
X695.516 Y564.482 Z-3.219
X695.524 Y564.499 Z-3.245
X695.518 Y564.517 Z-3.271
X695.5 Y564.525 Z-3.297
X695.483 Y564.519 Z-3.324
X695.474 Y564.502 Z-3.35
X695.48 Y564.484 Z-3.376
X695.497 Y564.475 Z-3.402
X695.515 Y564.481 Z-3.428
X695.524 Y564.497 Z-3.454
X695.519 Y564.516 Z-3.48
X695.502 Y564.525 Z-3.507
X695.484 Y564.52 Z-3.533
X695.474 Y564.503 Z-3.559
X695.479 Y564.485 Z-3.585
X695.495 Y564.475 Z-3.611
X695.514 Y564.48 Z-3.637
X695.524 Y564.496 Z-3.663
X695.52 Y564.514 Z-3.69
X695.504 Y564.525 Z-3.716
X695.485 Y564.521 Z-3.742
X695.474 Y564.505 Z-3.768
X695.478 Y564.486 Z-3.794
X695.494 Y564.476 Z-3.82
X695.512 Y564.479 Z-3.846
X695.523 Y564.494 Z-3.873
X695.52 Y564.513 Z-3.899
X695.505 Y564.524 Z-3.925
X695.486 Y564.522 Z-3.951
X695.475 Y564.506 Z-3.977
X695.477 Y564.488 Z-4.003
X695.492 Y564.476 Z-4.029
X695.511 Y564.478 Z-4.056
X695.523 Y564.493 Z-4.082
X695.521 Y564.512 Z-4.108
X695.507 Y564.524 Z-4.134
X695.488 Y564.522 Z-4.16
X695.475 Y564.508 Z-4.186
X695.477 Y564.489 Z-4.212
X695.491 Y564.476 Z-4.239
X695.51 Y564.477 Z-4.265
X695.522 Y564.491 Z-4.291
Y564.51 Z-4.317
X695.508 Y564.523 Z-4.343
X695.489 Z-4.369
X695.476 Y564.509 Z-4.395
Y564.491 Z-4.422
X695.489 Y564.477 Z-4.448
X695.508 Z-4.474
X695.522 Y564.49 Z-4.5
Y564.509 Z-4.526
X695.51 Y564.523 Z-4.552
X695.491 Y564.524 Z-4.578
X695.477 Y564.511 Z-4.605
X695.475 Y564.492 Z-4.631
X695.488 Y564.478 Z-4.657
X695.507 Y564.476 Z-4.683
X695.521 Y564.488 Z-4.709
X695.523 Y564.507 Z-4.735
X695.511 Y564.522 Z-4.761
X695.492 Y564.524 Z-4.788
X695.477 Y564.512 Z-4.814
X695.475 Y564.494 Z-4.84
X695.486 Y564.478 Z-4.866
X695.505 Y564.476 Z-4.892
X695.52 Y564.487 Z-4.918
X695.523 Y564.506 Z-4.944
X695.512 Y564.521 Z-4.971
X695.494 Y564.524 Z-4.997
X695.478 Y564.514 Z-5.023
X695.474 Y564.495 Z-5.049
X695.485 Y564.479 Z-5.075
X695.504 Y564.475 Z-5.101
X695.52 Y564.486 Z-5.127
X695.524 Y564.504 Z-5.154
X695.514 Y564.52 Z-5.18
X695.495 Y564.525 Z-5.206
X695.479 Y564.515 Z-5.232
X695.474 Y564.497 Z-5.258
X695.484 Y564.48 Z-5.284
X695.502 Y564.475 Z-5.31
X695.519 Y564.484 Z-5.337
X695.524 Y564.503 Z-5.363
X695.515 Y564.519 Z-5.389
X695.497 Y564.525 Z-5.415
X695.48 Y564.516 Z-5.441
X695.474 Y564.498 Z-5.467
X695.483 Y564.481 Z-5.493
X695.5 Y564.475 Z-5.52
X695.518 Y564.483 Z-5.546
X695.524 Y564.501 Z-5.572
X695.516 Y564.518 Z-5.598
X695.498 Y564.525 Z-5.624
X695.481 Y564.517 Z-5.65
X695.474 Y564.5 Z-5.676
X695.481 Y564.482 Z-5.703
X695.499 Y564.475 Z-5.729
X695.516 Y564.482 Z-5.755
X695.524 Y564.499 Z-5.781
X695.517 Y564.517 Z-5.807
X695.5 Y564.525 Z-5.833
X695.482 Y564.518 Z-5.859
X695.474 Y564.501 Z-5.886
X695.48 Y564.483 Z-5.912
X695.497 Y564.475 Z-5.938
X695.515 Y564.481 Z-5.964
X695.524 Y564.498 Z-5.99
X695.518 Y564.516 Z-6.016
X695.502 Y564.525 Z-6.042
X695.483 Y564.519 Z-6.069
X695.474 Y564.503 Z-6.095
X695.479 Y564.485 Z-6.121
X695.496 Y564.475 Z-6.147
X695.514 Y564.48 Z-6.173
X695.524 Y564.496 Z-6.199
X695.519 Y564.515 Z-6.225
X695.503 Y564.525 Z-6.252
X695.485 Y564.52 Z-6.278
X695.474 Y564.504 Z-6.304
X695.478 Y564.486 Z-6.33
X695.494 Y564.475 Z-6.356
X695.513 Y564.479 Z-6.382
X695.523 Y564.495 Z-6.408
X695.52 Y564.513 Z-6.435
X695.505 Y564.524 Z-6.461
X695.486 Y564.521 Z-6.487
X695.475 Y564.506 Z-6.513
X695.478 Y564.487 Z-6.539
X695.493 Y564.476 Z-6.565
X695.511 Y564.478 Z-6.592
X695.523 Y564.493 Z-6.618
X695.521 Y564.512 Z-6.644
X695.506 Y564.524 Z-6.67
X695.487 Y564.522 Z-6.696
X695.475 Y564.508 Z-6.722
X695.477 Y564.489 Z-6.748
X695.491 Y564.476 Z-6.775
X695.51 Y564.478 Z-6.801
X695.523 Y564.492 Z-6.827
X695.522 Y564.511 Z-6.853
X695.508 Y564.524 Z-6.879
X695.489 Y564.523 Z-6.905
X695.476 Y564.509 Z-6.931
Y564.49 Z-6.958
X695.49 Y564.477 Z-6.984
X695.509 Z-7.01
X695.522 Y564.49 Z-7.036
Y564.509 Z-7.062
X695.509 Y564.523 Z-7.088
X695.49 Z-7.114
X695.476 Y564.51 Z-7.141
Y564.492 Z-7.167
X695.488 Y564.477 Z-7.193
X695.507 Y564.476 Z-7.219
X695.521 Y564.489 Z-7.245
X695.523 Y564.508 Z-7.271
X695.511 Y564.522 Z-7.297
X695.492 Y564.524 Z-7.324
X695.477 Y564.512 Z-7.35
X695.475 Y564.493 Z-7.376
X695.487 Y564.478 Z-7.402
X695.506 Y564.476 Z-7.428
X695.521 Y564.487 Z-7.454
X695.523 Y564.506 Z-7.48
X695.512 Y564.521 Z-7.507
X695.493 Y564.524 Z-7.533
X695.478 Y564.513 Z-7.559
X695.475 Y564.494 Z-7.585
X695.486 Y564.479 Z-7.611
X695.504 Y564.476 Z-7.637
X695.52 Y564.486 Z-7.663
X695.524 Y564.505 Z-7.69
X695.513 Y564.521 Z-7.716
X695.495 Y564.525 Z-7.742
X695.479 Y564.515 Z-7.768
X695.474 Y564.496 Z-7.794
X695.484 Y564.48 Z-7.82
X695.503 Y564.475 Z-7.846
X695.519 Y564.485 Z-7.873
X695.524 Y564.503 Z-7.899
X695.515 Y564.52 Z-7.925
X695.496 Y564.525 Z-7.951
X695.48 Y564.516 Z-7.977
X695.474 Y564.498 Z-8.003
X695.483 Y564.481 Z-8.029
X695.501 Y564.475 Z-8.056
X695.518 Y564.484 Z-8.082
X695.524 Y564.502 Z-8.108
X695.516 Y564.519 Z-8.134
X695.498 Y564.525 Z-8.16
X695.481 Y564.517 Z-8.186
X695.474 Y564.499 Z-8.212
X695.482 Y564.482 Z-8.239
X695.499 Y564.475 Z-8.265
X695.517 Y564.482 Z-8.291
X695.524 Y564.5 Z-8.317
X695.517 Y564.518 Z-8.343
X695.499 Y564.525 Z-8.369
X695.482 Y564.518 Z-8.395
X695.474 Y564.501 Z-8.422
X695.481 Y564.483 Z-8.448
X695.498 Y564.475 Z-8.474
X695.516 Y564.481 Z-8.5
G3 X695.518 Y564.517 I-0.017 J0.019
X695.482 Y564.519 I-0.019 J-0.017
X695.48 Y564.483 I0.017 J-0.019
X695.516 Y564.481 I0.019 J0.017
G1 X695.52 Y564.49
X695.517 Y564.499
X695.499 Y564.5
Z5.
Y632.
Z0.9
Z-0.5
X695.511 Y631.987
X695.52 Y631.991
X695.524 Y632.
X695.517 Y632.018 Z-0.526
X695.499 Y632.025 Z-0.552
X695.482 Y632.018 Z-0.578
X695.474 Y632.001 Z-0.605
X695.481 Y631.983 Z-0.631
X695.498 Y631.975 Z-0.657
X695.516 Y631.981 Z-0.683
X695.524 Y631.998 Z-0.709
X695.518 Y632.016 Z-0.735
X695.501 Y632.025 Z-0.761
X695.483 Y632.019 Z-0.788
X695.474 Y632.002 Z-0.814
X695.48 Y631.984 Z-0.84
X695.496 Y631.975 Z-0.866
X695.515 Y631.98 Z-0.892
X695.524 Y631.997 Z-0.918
X695.519 Y632.015 Z-0.944
X695.503 Y632.025 Z-0.971
X695.484 Y632.02 Z-0.997
X695.474 Y632.004 Z-1.023
X695.479 Y631.985 Z-1.049
X695.495 Y631.975 Z-1.075
X695.513 Y631.979 Z-1.101
X695.524 Y631.995 Z-1.127
X695.52 Y632.014 Z-1.154
X695.504 Y632.024 Z-1.18
X695.485 Y632.021 Z-1.206
X695.475 Y632.005 Z-1.232
X695.478 Y631.987 Z-1.258
X695.493 Y631.976 Z-1.284
X695.512 Y631.979 Z-1.31
X695.523 Y631.994 Z-1.337
X695.521 Y632.013 Z-1.363
X695.506 Y632.024 Z-1.389
X695.487 Y632.022 Z-1.415
X695.475 Y632.007 Z-1.441
X695.477 Y631.988 Z-1.467
X695.492 Y631.976 Z-1.493
X695.511 Y631.978 Z-1.52
X695.523 Y631.992 Z-1.546
X695.521 Y632.011 Z-1.572
X695.507 Y632.024 Z-1.598
X695.488 Y632.023 Z-1.624
X695.476 Y632.009 Z-1.65
Y631.99 Z-1.676
X695.49 Y631.977 Z-1.703
X695.509 Z-1.729
X695.522 Y631.991 Z-1.755
Y632.01 Z-1.781
X695.509 Y632.023 Z-1.807
X695.49 Z-1.833
X695.476 Y632.01 Z-1.859
Y631.991 Z-1.886
X695.489 Y631.977 Z-1.912
X695.508 Z-1.938
X695.522 Y631.989 Z-1.964
X695.523 Y632.008 Z-1.99
X695.51 Y632.022 Z-2.016
X695.491 Y632.024 Z-2.042
X695.477 Y632.011 Z-2.069
X695.475 Y631.992 Z-2.095
X695.487 Y631.978 Z-2.121
X695.506 Y631.976 Z-2.147
X695.521 Y631.988 Z-2.173
X695.523 Y632.007 Z-2.199
X695.511 Y632.022 Z-2.225
X695.493 Y632.024 Z-2.252
X695.478 Y632.013 Z-2.278
X695.475 Y631.994 Z-2.304
X695.486 Y631.979 Z-2.33
X695.505 Y631.976 Z-2.356
X695.52 Y631.987 Z-2.382
X695.524 Y632.005 Z-2.408
X695.513 Y632.021 Z-2.435
X695.494 Y632.025 Z-2.461
X695.478 Y632.014 Z-2.487
X695.474 Y631.996 Z-2.513
X695.485 Y631.98 Z-2.539
X695.503 Y631.975 Z-2.565
X695.519 Y631.985 Z-2.592
X695.524 Y632.004 Z-2.618
X695.514 Y632.02 Z-2.644
X695.496 Y632.025 Z-2.67
X695.479 Y632.015 Z-2.696
X695.474 Y631.997 Z-2.722
X695.483 Y631.981 Z-2.748
X695.502 Y631.975 Z-2.775
X695.518 Y631.984 Z-2.801
X695.524 Y632.002 Z-2.827
X695.515 Y632.019 Z-2.853
X695.497 Y632.025 Z-2.879
X695.48 Y632.017 Z-2.905
X695.474 Y631.999 Z-2.931
X695.482 Y631.982 Z-2.958
X695.5 Y631.975 Z-2.984
X695.517 Y631.983 Z-3.01
X695.524 Y632. Z-3.036
X695.516 Y632.018 Z-3.062
X695.499 Y632.025 Z-3.088
X695.481 Y632.018 Z-3.114
X695.474 Y632. Z-3.141
X695.481 Y631.983 Z-3.167
X695.498 Y631.975 Z-3.193
X695.516 Y631.982 Z-3.219
X695.524 Y631.999 Z-3.245
X695.518 Y632.017 Z-3.271
X695.5 Y632.025 Z-3.297
X695.483 Y632.019 Z-3.324
X695.474 Y632.002 Z-3.35
X695.48 Y631.984 Z-3.376
X695.497 Y631.975 Z-3.402
X695.515 Y631.981 Z-3.428
X695.524 Y631.997 Z-3.454
X695.519 Y632.016 Z-3.48
X695.502 Y632.025 Z-3.507
X695.484 Y632.02 Z-3.533
X695.474 Y632.003 Z-3.559
X695.479 Y631.985 Z-3.585
X695.495 Y631.975 Z-3.611
X695.514 Y631.98 Z-3.637
X695.524 Y631.996 Z-3.663
X695.52 Y632.014 Z-3.69
X695.504 Y632.025 Z-3.716
X695.485 Y632.021 Z-3.742
X695.474 Y632.005 Z-3.768
X695.478 Y631.986 Z-3.794
X695.494 Y631.976 Z-3.82
X695.512 Y631.979 Z-3.846
X695.523 Y631.994 Z-3.873
X695.52 Y632.013 Z-3.899
X695.505 Y632.024 Z-3.925
X695.486 Y632.022 Z-3.951
X695.475 Y632.006 Z-3.977
X695.477 Y631.988 Z-4.003
X695.492 Y631.976 Z-4.029
X695.511 Y631.978 Z-4.056
X695.523 Y631.993 Z-4.082
X695.521 Y632.012 Z-4.108
X695.507 Y632.024 Z-4.134
X695.488 Y632.022 Z-4.16
X695.475 Y632.008 Z-4.186
X695.477 Y631.989 Z-4.212
X695.491 Y631.976 Z-4.239
X695.51 Y631.977 Z-4.265
X695.522 Y631.991 Z-4.291
Y632.01 Z-4.317
X695.508 Y632.023 Z-4.343
X695.489 Z-4.369
X695.476 Y632.009 Z-4.395
Y631.991 Z-4.422
X695.489 Y631.977 Z-4.448
X695.508 Z-4.474
X695.522 Y631.99 Z-4.5
Y632.009 Z-4.526
X695.51 Y632.023 Z-4.552
X695.491 Y632.024 Z-4.578
X695.477 Y632.011 Z-4.605
X695.475 Y631.992 Z-4.631
X695.488 Y631.978 Z-4.657
X695.507 Y631.976 Z-4.683
X695.521 Y631.988 Z-4.709
X695.523 Y632.007 Z-4.735
X695.511 Y632.022 Z-4.761
X695.492 Y632.024 Z-4.788
X695.477 Y632.012 Z-4.814
X695.475 Y631.994 Z-4.84
X695.486 Y631.978 Z-4.866
X695.505 Y631.976 Z-4.892
X695.52 Y631.987 Z-4.918
X695.523 Y632.006 Z-4.944
X695.512 Y632.021 Z-4.971
X695.494 Y632.024 Z-4.997
X695.478 Y632.014 Z-5.023
X695.474 Y631.995 Z-5.049
X695.485 Y631.979 Z-5.075
X695.504 Y631.975 Z-5.101
X695.52 Y631.986 Z-5.127
X695.524 Y632.004 Z-5.154
X695.514 Y632.02 Z-5.18
X695.495 Y632.025 Z-5.206
X695.479 Y632.015 Z-5.232
X695.474 Y631.997 Z-5.258
X695.484 Y631.98 Z-5.284
X695.502 Y631.975 Z-5.31
X695.519 Y631.984 Z-5.337
X695.524 Y632.003 Z-5.363
X695.515 Y632.019 Z-5.389
X695.497 Y632.025 Z-5.415
X695.48 Y632.016 Z-5.441
X695.474 Y631.998 Z-5.467
X695.483 Y631.981 Z-5.493
X695.5 Y631.975 Z-5.52
X695.518 Y631.983 Z-5.546
X695.524 Y632.001 Z-5.572
X695.516 Y632.018 Z-5.598
X695.498 Y632.025 Z-5.624
X695.481 Y632.017 Z-5.65
X695.474 Y632. Z-5.676
X695.481 Y631.982 Z-5.703
X695.499 Y631.975 Z-5.729
X695.516 Y631.982 Z-5.755
X695.524 Y631.999 Z-5.781
X695.517 Y632.017 Z-5.807
X695.5 Y632.025 Z-5.833
X695.482 Y632.018 Z-5.859
X695.474 Y632.001 Z-5.886
X695.48 Y631.983 Z-5.912
X695.497 Y631.975 Z-5.938
X695.515 Y631.981 Z-5.964
X695.524 Y631.998 Z-5.99
X695.518 Y632.016 Z-6.016
X695.502 Y632.025 Z-6.042
X695.483 Y632.019 Z-6.069
X695.474 Y632.003 Z-6.095
X695.479 Y631.985 Z-6.121
X695.496 Y631.975 Z-6.147
X695.514 Y631.98 Z-6.173
X695.524 Y631.996 Z-6.199
X695.519 Y632.015 Z-6.225
X695.503 Y632.025 Z-6.252
X695.485 Y632.02 Z-6.278
X695.474 Y632.004 Z-6.304
X695.478 Y631.986 Z-6.33
X695.494 Y631.975 Z-6.356
X695.513 Y631.979 Z-6.382
X695.523 Y631.995 Z-6.408
X695.52 Y632.013 Z-6.435
X695.505 Y632.024 Z-6.461
X695.486 Y632.021 Z-6.487
X695.475 Y632.006 Z-6.513
X695.478 Y631.987 Z-6.539
X695.493 Y631.976 Z-6.565
X695.511 Y631.978 Z-6.592
X695.523 Y631.993 Z-6.618
X695.521 Y632.012 Z-6.644
X695.506 Y632.024 Z-6.67
X695.487 Y632.022 Z-6.696
X695.475 Y632.008 Z-6.722
X695.477 Y631.989 Z-6.748
X695.491 Y631.976 Z-6.775
X695.51 Y631.978 Z-6.801
X695.523 Y631.992 Z-6.827
X695.522 Y632.011 Z-6.853
X695.508 Y632.024 Z-6.879
X695.489 Y632.023 Z-6.905
X695.476 Y632.009 Z-6.931
Y631.99 Z-6.958
X695.49 Y631.977 Z-6.984
X695.509 Z-7.01
X695.522 Y631.99 Z-7.036
Y632.009 Z-7.062
X695.509 Y632.023 Z-7.088
X695.49 Z-7.114
X695.476 Y632.01 Z-7.141
Y631.992 Z-7.167
X695.488 Y631.977 Z-7.193
X695.507 Y631.976 Z-7.219
X695.521 Y631.989 Z-7.245
X695.523 Y632.008 Z-7.271
X695.511 Y632.022 Z-7.297
X695.492 Y632.024 Z-7.324
X695.477 Y632.012 Z-7.35
X695.475 Y631.993 Z-7.376
X695.487 Y631.978 Z-7.402
X695.506 Y631.976 Z-7.428
X695.521 Y631.987 Z-7.454
X695.523 Y632.006 Z-7.48
X695.512 Y632.021 Z-7.507
X695.493 Y632.024 Z-7.533
X695.478 Y632.013 Z-7.559
X695.475 Y631.994 Z-7.585
X695.486 Y631.979 Z-7.611
X695.504 Y631.976 Z-7.637
X695.52 Y631.986 Z-7.663
X695.524 Y632.005 Z-7.69
X695.513 Y632.021 Z-7.716
X695.495 Y632.025 Z-7.742
X695.479 Y632.015 Z-7.768
X695.474 Y631.996 Z-7.794
X695.484 Y631.98 Z-7.82
X695.503 Y631.975 Z-7.846
X695.519 Y631.985 Z-7.873
X695.524 Y632.003 Z-7.899
X695.515 Y632.02 Z-7.925
X695.496 Y632.025 Z-7.951
X695.48 Y632.016 Z-7.977
X695.474 Y631.998 Z-8.003
X695.483 Y631.981 Z-8.029
X695.501 Y631.975 Z-8.056
X695.518 Y631.984 Z-8.082
X695.524 Y632.002 Z-8.108
X695.516 Y632.019 Z-8.134
X695.498 Y632.025 Z-8.16
X695.481 Y632.017 Z-8.186
X695.474 Y631.999 Z-8.212
X695.482 Y631.982 Z-8.239
X695.499 Y631.975 Z-8.265
X695.517 Y631.982 Z-8.291
X695.524 Y632. Z-8.317
X695.517 Y632.018 Z-8.343
X695.499 Y632.025 Z-8.369
X695.482 Y632.018 Z-8.395
X695.474 Y632.001 Z-8.422
X695.481 Y631.983 Z-8.448
X695.498 Y631.975 Z-8.474
X695.516 Y631.981 Z-8.5
G3 X695.518 Y632.017 I-0.017 J0.019
X695.482 Y632.019 I-0.019 J-0.017
X695.48 Y631.983 I0.017 J-0.019
X695.516 Y631.981 I0.019 J0.017
G1 X695.52 Y631.99
