(Huller 1_4 Downcut)
(T4 D=6.35 CR=0. - ZMIN=-13.5 - flat end mill)
G90
(When using Fusion for Personal Use, the feedrate of rapid)
(moves is reduced to match the feedrate of cutting moves,)
(which can increase machining time. Unrestricted rapid moves)
(are available with a Fusion Subscription.)
G53 G0 Z0.

(2D Contour1)
T4 M6 (flat end mill D=6.35 Flat Endmill Solid Carbide router, 2 flute, downcut)
S5000 M3
G64
G90 G94
G54
G43 H4
G0 X554.532 Y792.03
Z15.
G1 Z5. F1000
Z1. F333.3
Z-3.365
Y792.022 Z-3.464 F1000
Y791.999 Z-3.561
Y791.961 Z-3.653
Y791.909 Z-3.738
Y791.844 Z-3.814
Y791.768 Z-3.879
Y791.683 Z-3.931
Y791.591 Z-3.969
Y791.494 Z-3.992
Y791.395 Z-4.
Y790.76
G3 X555.167 Y790.125 I0.635 J0.
G1 X681.641
G2 X683.027 Y789.807 I0. J-3.175
X682.708 Y791.193 I2.856 J1.386
G1 Y794.807
G2 X683.027 Y796.193 I3.175 J0.
X681.641 Y795.875 I-1.386 J2.857
G1 X553.359
G2 X551.973 Y796.193 I0. J3.175
X552.292 Y794.807 I-2.856 J-1.386
G1 Y791.193
G2 X551.973 Y789.807 I-3.175 J0.
X553.359 Y790.125 I1.386 J-2.857
G1 X555.167
G3 X555.802 Y790.76 I0. J0.635
G1 Y791.395
Y791.494 Z-3.992
Y791.591 Z-3.969
Y791.683 Z-3.931
Y791.768 Z-3.879
Y791.844 Z-3.814
Y791.909 Z-3.738
Y791.961 Z-3.653
Y791.999 Z-3.561
Y792.022 Z-3.464
Y792.03 Z-3.365
Z5.
X554.532
Z-3. F333.3
Z-7.365
Y792.022 Z-7.464 F1000
Y791.999 Z-7.561
Y791.961 Z-7.653
Y791.909 Z-7.738
Y791.844 Z-7.814
Y791.768 Z-7.879
Y791.683 Z-7.931
Y791.591 Z-7.969
Y791.494 Z-7.992
Y791.395 Z-8.
Y790.76
G3 X555.167 Y790.125 I0.635 J0.
G1 X681.641
G2 X683.027 Y789.807 I0. J-3.175
X682.708 Y791.193 I2.856 J1.386
G1 Y794.807
G2 X683.027 Y796.193 I3.175 J0.
X681.641 Y795.875 I-1.386 J2.857
G1 X553.359
G2 X551.973 Y796.193 I0. J3.175
X552.292 Y794.807 I-2.856 J-1.386
G1 Y791.193
G2 X551.973 Y789.807 I-3.175 J0.
X553.359 Y790.125 I1.386 J-2.857
G1 X555.167
G3 X555.802 Y790.76 I0. J0.635
G1 Y791.395
Y791.494 Z-7.992
Y791.591 Z-7.969
Y791.683 Z-7.931
Y791.768 Z-7.879
Y791.844 Z-7.814
Y791.909 Z-7.738
Y791.961 Z-7.653
Y791.999 Z-7.561
Y792.022 Z-7.464
Y792.03 Z-7.365
Z5.
X554.532
Z-7. F333.3
Z-11.365
Y792.022 Z-11.464 F1000
Y791.999 Z-11.561
Y791.961 Z-11.653
Y791.909 Z-11.738
Y791.844 Z-11.814
Y791.768 Z-11.879
Y791.683 Z-11.931
Y791.591 Z-11.969
Y791.494 Z-11.992
Y791.395 Z-12.
Y790.76
G3 X555.167 Y790.125 I0.635 J0.
G1 X681.641
G2 X683.027 Y789.807 I0. J-3.175
X682.708 Y791.193 I2.856 J1.386
G1 Y794.807
G2 X683.027 Y796.193 I3.175 J0.
X681.641 Y795.875 I-1.386 J2.857
G1 X553.359
G2 X551.973 Y796.193 I0. J3.175
X552.292 Y794.807 I-2.856 J-1.386
G1 Y791.193
G2 X551.973 Y789.807 I-3.175 J0.
X553.359 Y790.125 I1.386 J-2.857
G1 X555.167
G3 X555.802 Y790.76 I0. J0.635
G1 Y791.395
Y791.494 Z-11.992
Y791.591 Z-11.969
Y791.683 Z-11.931
Y791.768 Z-11.879
Y791.844 Z-11.814
Y791.909 Z-11.738
Y791.961 Z-11.653
Y791.999 Z-11.561
Y792.022 Z-11.464
Y792.03 Z-11.365
Z5.
X554.532
Z-11. F333.3
Z-12.865
Y792.022 Z-12.964 F1000
Y791.999 Z-13.061
Y791.961 Z-13.153
Y791.909 Z-13.238
Y791.844 Z-13.314
Y791.768 Z-13.379
Y791.683 Z-13.431
Y791.591 Z-13.469
Y791.494 Z-13.492
Y791.395 Z-13.5
Y790.76
G3 X555.167 Y790.125 I0.635 J0.
G1 X681.641
G2 X683.027 Y789.807 I0. J-3.175
X682.708 Y791.193 I2.856 J1.386
G1 Y794.807
G2 X683.027 Y796.193 I3.175 J0.
X681.641 Y795.875 I-1.386 J2.857
G1 X553.359
G2 X551.973 Y796.193 I0. J3.175
X552.292 Y794.807 I-2.856 J-1.386
G1 Y791.193
G2 X551.973 Y789.807 I-3.175 J0.
X553.359 Y790.125 I1.386 J-2.857
G1 X555.167
G3 X555.802 Y790.76 I0. J0.635
G1 Y791.395
Y791.494 Z-13.492
Y791.591 Z-13.469
Y791.683 Z-13.431
Y791.768 Z-13.379
Y791.844 Z-13.314
Y791.909 Z-13.238
Y791.961 Z-13.153
Y791.999 Z-13.061
Y792.022 Z-12.964
Y792.03 Z-12.865
Z5.
X554.532 Y816.08
Z1. F333.3
Z-3.365
Y816.072 Z-3.464 F1000
Y816.049 Z-3.561
Y816.011 Z-3.653
Y815.959 Z-3.738
Y815.894 Z-3.814
Y815.818 Z-3.879
Y815.733 Z-3.931
Y815.641 Z-3.969
Y815.544 Z-3.992
Y815.445 Z-4.
Y814.81
G3 X555.167 Y814.175 I0.635 J0.
G1 X682.658
Y819.825
X552.342
Y814.175
X555.167
G3 X555.802 Y814.81 I0. J0.635
G1 Y815.445
Y815.544 Z-3.992
Y815.641 Z-3.969
Y815.733 Z-3.931
Y815.818 Z-3.879
Y815.894 Z-3.814
Y815.959 Z-3.738
Y816.011 Z-3.653
Y816.049 Z-3.561
Y816.072 Z-3.464
Y816.08 Z-3.365
Z5.
X554.532
Z-3. F333.3
Z-7.365
Y816.072 Z-7.464 F1000
Y816.049 Z-7.561
Y816.011 Z-7.653
Y815.959 Z-7.738
Y815.894 Z-7.814
Y815.818 Z-7.879
Y815.733 Z-7.931
Y815.641 Z-7.969
Y815.544 Z-7.992
Y815.445 Z-8.
Y814.81
G3 X555.167 Y814.175 I0.635 J0.
G1 X682.658
Y819.825
X552.342
Y814.175
X555.167
G3 X555.802 Y814.81 I0. J0.635
G1 Y815.445
Y815.544 Z-7.992
Y815.641 Z-7.969
Y815.733 Z-7.931
Y815.818 Z-7.879
Y815.894 Z-7.814
Y815.959 Z-7.738
Y816.011 Z-7.653
Y816.049 Z-7.561
Y816.072 Z-7.464
Y816.08 Z-7.365
Z5.
X554.532
Z-7. F333.3
Z-11.365
Y816.072 Z-11.464 F1000
Y816.049 Z-11.561
Y816.011 Z-11.653
Y815.959 Z-11.738
Y815.894 Z-11.814
Y815.818 Z-11.879
Y815.733 Z-11.931
Y815.641 Z-11.969
Y815.544 Z-11.992
Y815.445 Z-12.
Y814.81
G3 X555.167 Y814.175 I0.635 J0.
G1 X682.658
Y819.825
X552.342
Y814.175
X555.167
G3 X555.802 Y814.81 I0. J0.635
G1 Y815.445
Y815.544 Z-11.992
Y815.641 Z-11.969
Y815.733 Z-11.931
Y815.818 Z-11.879
Y815.894 Z-11.814
Y815.959 Z-11.738
Y816.011 Z-11.653
Y816.049 Z-11.561
Y816.072 Z-11.464
Y816.08 Z-11.365
Z5.
X554.532
Z-11. F333.3
Z-12.865
Y816.072 Z-12.964 F1000
Y816.049 Z-13.061
Y816.011 Z-13.153
Y815.959 Z-13.238
Y815.894 Z-13.314
Y815.818 Z-13.379
Y815.733 Z-13.431
Y815.641 Z-13.469
Y815.544 Z-13.492
Y815.445 Z-13.5
Y814.81
G3 X555.167 Y814.175 I0.635 J0.
G1 X682.658
Y819.825
X552.342
Y814.175
X555.167
G3 X555.802 Y814.81 I0. J0.635
G1 Y815.445
Y815.544 Z-13.492
Y815.641 Z-13.469
Y815.733 Z-13.431
Y815.818 Z-13.379
Y815.894 Z-13.314
Y815.959 Z-13.238
Y816.011 Z-13.153
Y816.049 Z-13.061
Y816.072 Z-12.964
Y816.08 Z-12.865
Z5.
X534.47 Y877.365
Z1. F333.3
Z-3.365
X534.478 Z-3.464 F1000
X534.501 Z-3.561
X534.539 Z-3.653
X534.591 Z-3.738
X534.656 Z-3.814
X534.732 Z-3.879
X534.817 Z-3.931
X534.909 Z-3.969
X535.006 Z-3.992
X535.105 Z-4.
X535.74
G3 X536.375 Y878. I0. J0.635
G1 Y879.807
G2 X536.694 Y881.194 I3.175 J0.
X535.307 Y880.875 I-1.387 J2.856
G1 X447.693
G2 X446.306 Y881.194 I0. J3.175
X446.625 Y879.807 I-2.856 J-1.387
G1 Y876.193
G2 X446.306 Y874.806 I-3.175 J0.
X447.693 Y875.125 I1.387 J-2.856
G1 X535.307
G2 X536.694 Y874.806 I0. J-3.175
X536.375 Y876.193 I2.856 J1.387
G1 Y878.
G3 X535.74 Y878.635 I-0.635 J0.
G1 X535.105
X535.006 Z-3.992
X534.909 Z-3.969
X534.817 Z-3.931
X534.732 Z-3.879
X534.656 Z-3.814
X534.591 Z-3.738
X534.539 Z-3.653
X534.501 Z-3.561
X534.478 Z-3.464
X534.47 Z-3.365
Z5.
Y877.365
Z-3. F333.3
Z-7.365
X534.478 Z-7.464 F1000
X534.501 Z-7.561
X534.539 Z-7.653
X534.591 Z-7.738
X534.656 Z-7.814
X534.732 Z-7.879
X534.817 Z-7.931
X534.909 Z-7.969
X535.006 Z-7.992
X535.105 Z-8.
X535.74
G3 X536.375 Y878. I0. J0.635
G1 Y879.807
G2 X536.694 Y881.194 I3.175 J0.
X535.307 Y880.875 I-1.387 J2.856
G1 X447.693
G2 X446.306 Y881.194 I0. J3.175
X446.625 Y879.807 I-2.856 J-1.387
G1 Y876.193
G2 X446.306 Y874.806 I-3.175 J0.
X447.693 Y875.125 I1.387 J-2.856
G1 X535.307
G2 X536.694 Y874.806 I0. J-3.175
X536.375 Y876.193 I2.856 J1.387
G1 Y878.
G3 X535.74 Y878.635 I-0.635 J0.
G1 X535.105
X535.006 Z-7.992
X534.909 Z-7.969
X534.817 Z-7.931
X534.732 Z-7.879
X534.656 Z-7.814
X534.591 Z-7.738
X534.539 Z-7.653
X534.501 Z-7.561
X534.478 Z-7.464
X534.47 Z-7.365
Z5.
Y877.365
Z-7. F333.3
Z-11.365
X534.478 Z-11.464 F1000
X534.501 Z-11.561
X534.539 Z-11.653
X534.591 Z-11.738
X534.656 Z-11.814
X534.732 Z-11.879
X534.817 Z-11.931
X534.909 Z-11.969
X535.006 Z-11.992
X535.105 Z-12.
X535.74
G3 X536.375 Y878. I0. J0.635
G1 Y879.807
G2 X536.694 Y881.194 I3.175 J0.
X535.307 Y880.875 I-1.387 J2.856
G1 X447.693
G2 X446.306 Y881.194 I0. J3.175
X446.625 Y879.807 I-2.856 J-1.387
G1 Y876.193
G2 X446.306 Y874.806 I-3.175 J0.
X447.693 Y875.125 I1.387 J-2.856
G1 X535.307
G2 X536.694 Y874.806 I0. J-3.175
X536.375 Y876.193 I2.856 J1.387
G1 Y878.
G3 X535.74 Y878.635 I-0.635 J0.
G1 X535.105
X535.006 Z-11.992
X534.909 Z-11.969
X534.817 Z-11.931
X534.732 Z-11.879
X534.656 Z-11.814
X534.591 Z-11.738
X534.539 Z-11.653
X534.501 Z-11.561
X534.478 Z-11.464
X534.47 Z-11.365
Z5.
Y877.365
Z-11. F333.3
Z-12.865
X534.478 Z-12.964 F1000
X534.501 Z-13.061
X534.539 Z-13.153
X534.591 Z-13.238
X534.656 Z-13.314
X534.732 Z-13.379
X534.817 Z-13.431
X534.909 Z-13.469
X535.006 Z-13.492
X535.105 Z-13.5
X535.74
G3 X536.375 Y878. I0. J0.635
G1 Y879.807
G2 X536.694 Y881.194 I3.175 J0.
X535.307 Y880.875 I-1.387 J2.856
G1 X447.693
G2 X446.306 Y881.194 I0. J3.175
X446.625 Y879.807 I-2.856 J-1.387
G1 Y876.193
G2 X446.306 Y874.806 I-3.175 J0.
X447.693 Y875.125 I1.387 J-2.856
G1 X535.307
G2 X536.694 Y874.806 I0. J-3.175
X536.375 Y876.193 I2.856 J1.387
G1 Y878.
G3 X535.74 Y878.635 I-0.635 J0.
G1 X535.105
X535.006 Z-13.492
X534.909 Z-13.469
X534.817 Z-13.431
X534.732 Z-13.379
X534.656 Z-13.314
X534.591 Z-13.238
X534.539 Z-13.153
X534.501 Z-13.061
X534.478 Z-12.964
X534.47 Z-12.865
Z5.
X652.865 Y877.03
Z1. F333.3
Z-3.365
Y877.022 Z-3.464 F1000
Y876.999 Z-3.561
Y876.961 Z-3.653
Y876.909 Z-3.738
Y876.844 Z-3.814
Y876.768 Z-3.879
Y876.683 Z-3.931
Y876.591 Z-3.969
Y876.494 Z-3.992
Y876.395 Z-4.
Y875.76
G3 X653.5 Y875.125 I0.635 J0.
G1 X739.307
G2 X740.694 Y874.806 I0. J-3.175
X740.375 Y876.193 I2.856 J1.387
G1 Y879.807
G2 X740.694 Y881.194 I3.175 J0.
X739.307 Y880.875 I-1.387 J2.856
G1 X651.693
G2 X650.306 Y881.194 I0. J3.175
X650.625 Y879.807 I-2.856 J-1.387
G1 Y876.193
G2 X650.306 Y874.806 I-3.175 J0.
X651.693 Y875.125 I1.387 J-2.856
G1 X653.5
G3 X654.135 Y875.76 I0. J0.635
G1 Y876.395
Y876.494 Z-3.992
Y876.591 Z-3.969
Y876.683 Z-3.931
Y876.768 Z-3.879
Y876.844 Z-3.814
Y876.909 Z-3.738
Y876.961 Z-3.653
Y876.999 Z-3.561
Y877.022 Z-3.464
Y877.03 Z-3.365
Z5.
X652.865
Z-3. F333.3
Z-7.365
Y877.022 Z-7.464 F1000
Y876.999 Z-7.561
Y876.961 Z-7.653
Y876.909 Z-7.738
Y876.844 Z-7.814
Y876.768 Z-7.879
Y876.683 Z-7.931
Y876.591 Z-7.969
Y876.494 Z-7.992
Y876.395 Z-8.
Y875.76
G3 X653.5 Y875.125 I0.635 J0.
G1 X739.307
G2 X740.694 Y874.806 I0. J-3.175
X740.375 Y876.193 I2.856 J1.387
G1 Y879.807
G2 X740.694 Y881.194 I3.175 J0.
X739.307 Y880.875 I-1.387 J2.856
G1 X651.693
G2 X650.306 Y881.194 I0. J3.175
X650.625 Y879.807 I-2.856 J-1.387
G1 Y876.193
G2 X650.306 Y874.806 I-3.175 J0.
X651.693 Y875.125 I1.387 J-2.856
G1 X653.5
G3 X654.135 Y875.76 I0. J0.635
G1 Y876.395
Y876.494 Z-7.992
Y876.591 Z-7.969
Y876.683 Z-7.931
Y876.768 Z-7.879
Y876.844 Z-7.814
Y876.909 Z-7.738
Y876.961 Z-7.653
Y876.999 Z-7.561
Y877.022 Z-7.464
Y877.03 Z-7.365
Z5.
X652.865
Z-7. F333.3
Z-11.365
Y877.022 Z-11.464 F1000
Y876.999 Z-11.561
Y876.961 Z-11.653
Y876.909 Z-11.738
Y876.844 Z-11.814
Y876.768 Z-11.879
Y876.683 Z-11.931
Y876.591 Z-11.969
Y876.494 Z-11.992
Y876.395 Z-12.
Y875.76
G3 X653.5 Y875.125 I0.635 J0.
G1 X739.307
G2 X740.694 Y874.806 I0. J-3.175
X740.375 Y876.193 I2.856 J1.387
G1 Y879.807
G2 X740.694 Y881.194 I3.175 J0.
X739.307 Y880.875 I-1.387 J2.856
G1 X651.693
G2 X650.306 Y881.194 I0. J3.175
X650.625 Y879.807 I-2.856 J-1.387
G1 Y876.193
G2 X650.306 Y874.806 I-3.175 J0.
X651.693 Y875.125 I1.387 J-2.856
G1 X653.5
G3 X654.135 Y875.76 I0. J0.635
G1 Y876.395
Y876.494 Z-11.992
Y876.591 Z-11.969
Y876.683 Z-11.931
Y876.768 Z-11.879
Y876.844 Z-11.814
Y876.909 Z-11.738
Y876.961 Z-11.653
Y876.999 Z-11.561
Y877.022 Z-11.464
Y877.03 Z-11.365
Z5.
X652.865
Z-11. F333.3
Z-12.865
Y877.022 Z-12.964 F1000
Y876.999 Z-13.061
Y876.961 Z-13.153
Y876.909 Z-13.238
Y876.844 Z-13.314
Y876.768 Z-13.379
Y876.683 Z-13.431
Y876.591 Z-13.469
Y876.494 Z-13.492
Y876.395 Z-13.5
Y875.76
G3 X653.5 Y875.125 I0.635 J0.
G1 X739.307
G2 X740.694 Y874.806 I0. J-3.175
X740.375 Y876.193 I2.856 J1.387
G1 Y879.807
G2 X740.694 Y881.194 I3.175 J0.
X739.307 Y880.875 I-1.387 J2.856
G1 X651.693
G2 X650.306 Y881.194 I0. J3.175
X650.625 Y879.807 I-2.856 J-1.387
G1 Y876.193
G2 X650.306 Y874.806 I-3.175 J0.
X651.693 Y875.125 I1.387 J-2.856
G1 X653.5
G3 X654.135 Y875.76 I0. J0.635
G1 Y876.395
Y876.494 Z-13.492
Y876.591 Z-13.469
Y876.683 Z-13.431
Y876.768 Z-13.379
Y876.844 Z-13.314
Y876.909 Z-13.238
Y876.961 Z-13.153
Y876.999 Z-13.061
Y877.022 Z-12.964
Y877.03 Z-12.865
Z5.
X750.47 Y959.032
Z1. F333.3
Z-3.365
X750.478 Z-3.464 F1000
X750.501 Z-3.561
X750.539 Z-3.653
X750.591 Z-3.738
X750.656 Z-3.814
X750.732 Z-3.879
X750.817 Z-3.931
X750.909 Z-3.969
X751.006 Z-3.992
X751.105 Z-4.
X751.74
G3 X752.375 Y959.667 I0. J0.635
G1 Y1086.14
G2 X752.692 Y1087.523 I3.175 J0.
X751.307 Y1087.205 I-1.385 J2.857
G1 X747.693
G2 X746.308 Y1087.523 I0. J3.175
X746.625 Y1086.14 I-2.858 J-1.383
G1 Y957.859
G2 X746.307 Y956.473 I-3.175 J0.
X747.693 Y956.792 I1.386 J-2.856
G1 X751.307
G2 X752.693 Y956.473 I0. J-3.175
X752.375 Y957.859 I2.857 J1.386
G1 Y959.667
G3 X751.74 Y960.302 I-0.635 J0.
G1 X751.105
X751.006 Z-3.992
X750.909 Z-3.969
X750.817 Z-3.931
X750.732 Z-3.879
X750.656 Z-3.814
X750.591 Z-3.738
X750.539 Z-3.653
X750.501 Z-3.561
X750.478 Z-3.464
X750.47 Z-3.365
Z5.
Y959.032
Z-3. F333.3
Z-7.365
X750.478 Z-7.464 F1000
X750.501 Z-7.561
X750.539 Z-7.653
X750.591 Z-7.738
X750.656 Z-7.814
X750.732 Z-7.879
X750.817 Z-7.931
X750.909 Z-7.969
X751.006 Z-7.992
X751.105 Z-8.
X751.74
G3 X752.375 Y959.667 I0. J0.635
G1 Y1086.14
G2 X752.692 Y1087.523 I3.175 J0.
X751.307 Y1087.205 I-1.385 J2.857
G1 X747.693
G2 X746.308 Y1087.523 I0. J3.175
X746.625 Y1086.14 I-2.858 J-1.383
G1 Y957.859
G2 X746.307 Y956.473 I-3.175 J0.
X747.693 Y956.792 I1.386 J-2.856
G1 X751.307
G2 X752.693 Y956.473 I0. J-3.175
X752.375 Y957.859 I2.857 J1.386
G1 Y959.667
G3 X751.74 Y960.302 I-0.635 J0.
G1 X751.105
X751.006 Z-7.992
X750.909 Z-7.969
X750.817 Z-7.931
X750.732 Z-7.879
X750.656 Z-7.814
X750.591 Z-7.738
X750.539 Z-7.653
X750.501 Z-7.561
X750.478 Z-7.464
X750.47 Z-7.365
Z5.
Y959.032
Z-7. F333.3
Z-11.365
X750.478 Z-11.464 F1000
X750.501 Z-11.561
X750.539 Z-11.653
X750.591 Z-11.738
X750.656 Z-11.814
X750.732 Z-11.879
X750.817 Z-11.931
X750.909 Z-11.969
X751.006 Z-11.992
X751.105 Z-12.
X751.74
G3 X752.375 Y959.667 I0. J0.635
G1 Y1086.14
G2 X752.692 Y1087.523 I3.175 J0.
X751.307 Y1087.205 I-1.385 J2.857
G1 X747.693
G2 X746.308 Y1087.523 I0. J3.175
X746.625 Y1086.14 I-2.858 J-1.383
G1 Y957.859
G2 X746.307 Y956.473 I-3.175 J0.
X747.693 Y956.792 I1.386 J-2.856
G1 X751.307
G2 X752.693 Y956.473 I0. J-3.175
X752.375 Y957.859 I2.857 J1.386
G1 Y959.667
G3 X751.74 Y960.302 I-0.635 J0.
G1 X751.105
X751.006 Z-11.992
X750.909 Z-11.969
X750.817 Z-11.931
X750.732 Z-11.879
X750.656 Z-11.814
X750.591 Z-11.738
X750.539 Z-11.653
X750.501 Z-11.561
X750.478 Z-11.464
X750.47 Z-11.365
Z5.
Y959.032
Z-11. F333.3
Z-12.865
X750.478 Z-12.964 F1000
X750.501 Z-13.061
X750.539 Z-13.153
X750.591 Z-13.238
X750.656 Z-13.314
X750.732 Z-13.379
X750.817 Z-13.431
X750.909 Z-13.469
X751.006 Z-13.492
X751.105 Z-13.5
X751.74
G3 X752.375 Y959.667 I0. J0.635
G1 Y1086.14
G2 X752.692 Y1087.523 I3.175 J0.
X751.307 Y1087.205 I-1.385 J2.857
G1 X747.693
G2 X746.308 Y1087.523 I0. J3.175
X746.625 Y1086.14 I-2.858 J-1.383
G1 Y957.859
G2 X746.307 Y956.473 I-3.175 J0.
X747.693 Y956.792 I1.386 J-2.856
G1 X751.307
G2 X752.693 Y956.473 I0. J-3.175
X752.375 Y957.859 I2.857 J1.386
G1 Y959.667
G3 X751.74 Y960.302 I-0.635 J0.
G1 X751.105
X751.006 Z-13.492
X750.909 Z-13.469
X750.817 Z-13.431
X750.732 Z-13.379
X750.656 Z-13.314
X750.591 Z-13.238
X750.539 Z-13.153
X750.501 Z-13.061
X750.478 Z-12.964
X750.47 Z-12.865
Z5.
X762.47 Y696.365
Z1. F333.3
Z-3.365
X762.478 Z-3.464 F1000
X762.501 Z-3.561
X762.539 Z-3.653
X762.591 Z-3.738
X762.656 Z-3.814
X762.732 Z-3.879
X762.817 Z-3.931
X762.909 Z-3.969
X763.006 Z-3.992
X763.105 Z-4.
X763.74
G3 X764.375 Y697. I0. J0.635
G1 Y782.807
G2 X764.694 Y784.194 I3.175 J0.
X763.307 Y783.875 I-1.387 J2.856
G1 X759.693
G2 X758.306 Y784.194 I0. J3.175
X758.625 Y782.807 I-2.856 J-1.387
G1 Y695.193
G2 X758.306 Y693.806 I-3.175 J0.
X759.693 Y694.125 I1.387 J-2.856
G1 X763.307
G2 X764.694 Y693.806 I0. J-3.175
X764.375 Y695.193 I2.856 J1.387
G1 Y697.
G3 X763.74 Y697.635 I-0.635 J0.
G1 X763.105
X763.006 Z-3.992
X762.909 Z-3.969
X762.817 Z-3.931
X762.732 Z-3.879
X762.656 Z-3.814
X762.591 Z-3.738
X762.539 Z-3.653
X762.501 Z-3.561
X762.478 Z-3.464
X762.47 Z-3.365
Z5.
Y696.365
Z-3. F333.3
Z-7.365
X762.478 Z-7.464 F1000
X762.501 Z-7.561
X762.539 Z-7.653
X762.591 Z-7.738
X762.656 Z-7.814
X762.732 Z-7.879
X762.817 Z-7.931
X762.909 Z-7.969
X763.006 Z-7.992
X763.105 Z-8.
X763.74
G3 X764.375 Y697. I0. J0.635
G1 Y782.807
G2 X764.694 Y784.194 I3.175 J0.
X763.307 Y783.875 I-1.387 J2.856
G1 X759.693
G2 X758.306 Y784.194 I0. J3.175
X758.625 Y782.807 I-2.856 J-1.387
G1 Y695.193
G2 X758.306 Y693.806 I-3.175 J0.
X759.693 Y694.125 I1.387 J-2.856
G1 X763.307
G2 X764.694 Y693.806 I0. J-3.175
X764.375 Y695.193 I2.856 J1.387
G1 Y697.
G3 X763.74 Y697.635 I-0.635 J0.
G1 X763.105
X763.006 Z-7.992
X762.909 Z-7.969
X762.817 Z-7.931
X762.732 Z-7.879
X762.656 Z-7.814
X762.591 Z-7.738
X762.539 Z-7.653
X762.501 Z-7.561
X762.478 Z-7.464
X762.47 Z-7.365
Z5.
Y696.365
Z-7. F333.3
Z-11.365
X762.478 Z-11.464 F1000
X762.501 Z-11.561
X762.539 Z-11.653
X762.591 Z-11.738
X762.656 Z-11.814
X762.732 Z-11.879
X762.817 Z-11.931
X762.909 Z-11.969
X763.006 Z-11.992
X763.105 Z-12.
X763.74
G3 X764.375 Y697. I0. J0.635
G1 Y782.807
G2 X764.694 Y784.194 I3.175 J0.
X763.307 Y783.875 I-1.387 J2.856
G1 X759.693
G2 X758.306 Y784.194 I0. J3.175
X758.625 Y782.807 I-2.856 J-1.387
G1 Y695.193
G2 X758.306 Y693.806 I-3.175 J0.
X759.693 Y694.125 I1.387 J-2.856
G1 X763.307
G2 X764.694 Y693.806 I0. J-3.175
X764.375 Y695.193 I2.856 J1.387
G1 Y697.
G3 X763.74 Y697.635 I-0.635 J0.
G1 X763.105
X763.006 Z-11.992
X762.909 Z-11.969
X762.817 Z-11.931
X762.732 Z-11.879
X762.656 Z-11.814
X762.591 Z-11.738
X762.539 Z-11.653
X762.501 Z-11.561
X762.478 Z-11.464
X762.47 Z-11.365
Z5.
Y696.365
Z-11. F333.3
Z-12.865
X762.478 Z-12.964 F1000
X762.501 Z-13.061
X762.539 Z-13.153
X762.591 Z-13.238
X762.656 Z-13.314
X762.732 Z-13.379
X762.817 Z-13.431
X762.909 Z-13.469
X763.006 Z-13.492
X763.105 Z-13.5
X763.74
G3 X764.375 Y697. I0. J0.635
G1 Y782.807
G2 X764.694 Y784.194 I3.175 J0.
X763.307 Y783.875 I-1.387 J2.856
G1 X759.693
G2 X758.306 Y784.194 I0. J3.175
X758.625 Y782.807 I-2.856 J-1.387
G1 Y695.193
G2 X758.306 Y693.806 I-3.175 J0.
X759.693 Y694.125 I1.387 J-2.856
G1 X763.307
G2 X764.694 Y693.806 I0. J-3.175
X764.375 Y695.193 I2.856 J1.387
G1 Y697.
G3 X763.74 Y697.635 I-0.635 J0.
G1 X763.105
X763.006 Z-13.492
X762.909 Z-13.469
X762.817 Z-13.431
X762.732 Z-13.379
X762.656 Z-13.314
X762.591 Z-13.238
X762.539 Z-13.153
X762.501 Z-13.061
X762.478 Z-12.964
X762.47 Z-12.865
Z5.
Y492.365
Z1. F333.3
Z-3.365
X762.478 Z-3.464 F1000
X762.501 Z-3.561
X762.539 Z-3.653
X762.591 Z-3.738
X762.656 Z-3.814
X762.732 Z-3.879
X762.817 Z-3.931
X762.909 Z-3.969
X763.006 Z-3.992
X763.105 Z-4.
X763.74
G3 X764.375 Y493. I0. J0.635
G1 Y578.807
G2 X764.694 Y580.194 I3.175 J0.
X763.307 Y579.875 I-1.387 J2.856
G1 X759.693
G2 X758.306 Y580.194 I0. J3.175
X758.625 Y578.807 I-2.856 J-1.387
G1 Y491.193
G2 X758.306 Y489.806 I-3.175 J0.
X759.693 Y490.125 I1.387 J-2.856
G1 X763.307
G2 X764.694 Y489.806 I0. J-3.175
X764.375 Y491.193 I2.856 J1.387
G1 Y493.
G3 X763.74 Y493.635 I-0.635 J0.
G1 X763.105
X763.006 Z-3.992
X762.909 Z-3.969
X762.817 Z-3.931
X762.732 Z-3.879
X762.656 Z-3.814
X762.591 Z-3.738
X762.539 Z-3.653
X762.501 Z-3.561
X762.478 Z-3.464
X762.47 Z-3.365
Z5.
Y492.365
Z-3. F333.3
Z-7.365
X762.478 Z-7.464 F1000
X762.501 Z-7.561
X762.539 Z-7.653
X762.591 Z-7.738
X762.656 Z-7.814
X762.732 Z-7.879
X762.817 Z-7.931
X762.909 Z-7.969
X763.006 Z-7.992
X763.105 Z-8.
X763.74
G3 X764.375 Y493. I0. J0.635
G1 Y578.807
G2 X764.694 Y580.194 I3.175 J0.
X763.307 Y579.875 I-1.387 J2.856
G1 X759.693
G2 X758.306 Y580.194 I0. J3.175
X758.625 Y578.807 I-2.856 J-1.387
G1 Y491.193
G2 X758.306 Y489.806 I-3.175 J0.
X759.693 Y490.125 I1.387 J-2.856
G1 X763.307
G2 X764.694 Y489.806 I0. J-3.175
X764.375 Y491.193 I2.856 J1.387
G1 Y493.
G3 X763.74 Y493.635 I-0.635 J0.
G1 X763.105
X763.006 Z-7.992
X762.909 Z-7.969
X762.817 Z-7.931
X762.732 Z-7.879
X762.656 Z-7.814
X762.591 Z-7.738
X762.539 Z-7.653
X762.501 Z-7.561
X762.478 Z-7.464
X762.47 Z-7.365
Z5.
Y492.365
Z-7. F333.3
Z-11.365
X762.478 Z-11.464 F1000
X762.501 Z-11.561
X762.539 Z-11.653
X762.591 Z-11.738
X762.656 Z-11.814
X762.732 Z-11.879
X762.817 Z-11.931
X762.909 Z-11.969
X763.006 Z-11.992
X763.105 Z-12.
X763.74
G3 X764.375 Y493. I0. J0.635
G1 Y578.807
G2 X764.694 Y580.194 I3.175 J0.
X763.307 Y579.875 I-1.387 J2.856
G1 X759.693
G2 X758.306 Y580.194 I0. J3.175
X758.625 Y578.807 I-2.856 J-1.387
G1 Y491.193
G2 X758.306 Y489.806 I-3.175 J0.
X759.693 Y490.125 I1.387 J-2.856
G1 X763.307
G2 X764.694 Y489.806 I0. J-3.175
X764.375 Y491.193 I2.856 J1.387
G1 Y493.
G3 X763.74 Y493.635 I-0.635 J0.
G1 X763.105
X763.006 Z-11.992
X762.909 Z-11.969
X762.817 Z-11.931
X762.732 Z-11.879
X762.656 Z-11.814
X762.591 Z-11.738
X762.539 Z-11.653
X762.501 Z-11.561
X762.478 Z-11.464
X762.47 Z-11.365
Z5.
Y492.365
Z-11. F333.3
Z-12.865
X762.478 Z-12.964 F1000
X762.501 Z-13.061
X762.539 Z-13.153
X762.591 Z-13.238
X762.656 Z-13.314
X762.732 Z-13.379
X762.817 Z-13.431
X762.909 Z-13.469
X763.006 Z-13.492
X763.105 Z-13.5
X763.74
G3 X764.375 Y493. I0. J0.635
G1 Y578.807
G2 X764.694 Y580.194 I3.175 J0.
X763.307 Y579.875 I-1.387 J2.856
G1 X759.693
G2 X758.306 Y580.194 I0. J3.175
X758.625 Y578.807 I-2.856 J-1.387
G1 Y491.193
G2 X758.306 Y489.806 I-3.175 J0.
X759.693 Y490.125 I1.387 J-2.856
G1 X763.307
G2 X764.694 Y489.806 I0. J-3.175
X764.375 Y491.193 I2.856 J1.387
G1 Y493.
G3 X763.74 Y493.635 I-0.635 J0.
G1 X763.105
X763.006 Z-13.492
X762.909 Z-13.469
X762.817 Z-13.431
X762.732 Z-13.379
X762.656 Z-13.314
X762.591 Z-13.238
X762.539 Z-13.153
X762.501 Z-13.061
X762.478 Z-12.964
X762.47 Z-12.865
Z5.
X680.803 Y480.365
Z1. F333.3
Z-3.365
X680.811 Z-3.464 F1000
X680.834 Z-3.561
X680.872 Z-3.653
X680.924 Z-3.738
X680.989 Z-3.814
X681.065 Z-3.879
X681.15 Z-3.931
X681.242 Z-3.969
X681.339 Z-3.992
X681.438 Z-4.
X682.073
G3 X682.708 Y481. I0. J0.635
G1 Y482.807
G2 X683.027 Y484.193 I3.175 J0.
X681.641 Y483.875 I-1.386 J2.857
G1 X553.359
G2 X551.973 Y484.193 I0. J3.175
X552.292 Y482.807 I-2.856 J-1.386
G1 Y479.193
G2 X551.973 Y477.807 I-3.175 J0.
X553.359 Y478.125 I1.386 J-2.857
G1 X681.641
G2 X683.027 Y477.807 I0. J-3.175
X682.708 Y479.193 I2.856 J1.386
G1 Y481.
G3 X682.073 Y481.635 I-0.635 J0.
G1 X681.438
X681.339 Z-3.992
X681.242 Z-3.969
X681.15 Z-3.931
X681.065 Z-3.879
X680.989 Z-3.814
X680.924 Z-3.738
X680.872 Z-3.653
X680.834 Z-3.561
X680.811 Z-3.464
X680.803 Z-3.365
Z5.
Y480.365
Z-3. F333.3
Z-7.365
X680.811 Z-7.464 F1000
X680.834 Z-7.561
X680.872 Z-7.653
X680.924 Z-7.738
X680.989 Z-7.814
X681.065 Z-7.879
X681.15 Z-7.931
X681.242 Z-7.969
X681.339 Z-7.992
X681.438 Z-8.
X682.073
G3 X682.708 Y481. I0. J0.635
G1 Y482.807
G2 X683.027 Y484.193 I3.175 J0.
X681.641 Y483.875 I-1.386 J2.857
G1 X553.359
G2 X551.973 Y484.193 I0. J3.175
X552.292 Y482.807 I-2.856 J-1.386
G1 Y479.193
G2 X551.973 Y477.807 I-3.175 J0.
X553.359 Y478.125 I1.386 J-2.857
G1 X681.641
G2 X683.027 Y477.807 I0. J-3.175
X682.708 Y479.193 I2.856 J1.386
G1 Y481.
G3 X682.073 Y481.635 I-0.635 J0.
G1 X681.438
X681.339 Z-7.992
X681.242 Z-7.969
X681.15 Z-7.931
X681.065 Z-7.879
X680.989 Z-7.814
X680.924 Z-7.738
X680.872 Z-7.653
X680.834 Z-7.561
X680.811 Z-7.464
X680.803 Z-7.365
Z5.
Y480.365
Z-7. F333.3
Z-11.365
X680.811 Z-11.464 F1000
X680.834 Z-11.561
X680.872 Z-11.653
X680.924 Z-11.738
X680.989 Z-11.814
X681.065 Z-11.879
X681.15 Z-11.931
X681.242 Z-11.969
X681.339 Z-11.992
X681.438 Z-12.
X682.073
G3 X682.708 Y481. I0. J0.635
G1 Y482.807
G2 X683.027 Y484.193 I3.175 J0.
X681.641 Y483.875 I-1.386 J2.857
G1 X553.359
G2 X551.973 Y484.193 I0. J3.175
X552.292 Y482.807 I-2.856 J-1.386
G1 Y479.193
G2 X551.973 Y477.807 I-3.175 J0.
X553.359 Y478.125 I1.386 J-2.857
G1 X681.641
G2 X683.027 Y477.807 I0. J-3.175
X682.708 Y479.193 I2.856 J1.386
G1 Y481.
G3 X682.073 Y481.635 I-0.635 J0.
G1 X681.438
X681.339 Z-11.992
X681.242 Z-11.969
X681.15 Z-11.931
X681.065 Z-11.879
X680.989 Z-11.814
X680.924 Z-11.738
X680.872 Z-11.653
X680.834 Z-11.561
X680.811 Z-11.464
X680.803 Z-11.365
Z5.
Y480.365
Z-11. F333.3
Z-12.865
X680.811 Z-12.964 F1000
X680.834 Z-13.061
X680.872 Z-13.153
X680.924 Z-13.238
X680.989 Z-13.314
X681.065 Z-13.379
X681.15 Z-13.431
X681.242 Z-13.469
X681.339 Z-13.492
X681.438 Z-13.5
X682.073
G3 X682.708 Y481. I0. J0.635
G1 Y482.807
G2 X683.027 Y484.193 I3.175 J0.
X681.641 Y483.875 I-1.386 J2.857
G1 X553.359
G2 X551.973 Y484.193 I0. J3.175
X552.292 Y482.807 I-2.856 J-1.386
G1 Y479.193
G2 X551.973 Y477.807 I-3.175 J0.
X553.359 Y478.125 I1.386 J-2.857
G1 X681.641
G2 X683.027 Y477.807 I0. J-3.175
X682.708 Y479.193 I2.856 J1.386
G1 Y481.
G3 X682.073 Y481.635 I-0.635 J0.
G1 X681.438
X681.339 Z-13.492
X681.242 Z-13.469
X681.15 Z-13.431
X681.065 Z-13.379
X680.989 Z-13.314
X680.924 Z-13.238
X680.872 Z-13.153
X680.834 Z-13.061
X680.811 Z-12.964
X680.803 Z-12.865
Z5.
X491.284 Y354.019
Z1. F333.3
Z-3.365
X491.292 Z-3.464 F1000
X491.315 Z-3.561
X491.353 Z-3.653
X491.405 Z-3.738
X491.47 Z-3.814
X491.546 Z-3.879
X491.631 Z-3.931
X491.723 Z-3.969
X491.82 Z-3.992
X491.919 Z-4.
X492.554
G3 X493.189 Y354.654 I0. J0.635
X488.864 Y358.979 I-4.325 J0.
X484.539 Y354.654 I0. J-4.325
X488.864 Y350.329 I4.325 J0.
X493.189 Y354.654 I0. J4.325
X492.554 Y355.289 I-0.635 J0.
G1 X491.919
X491.82 Z-3.992
X491.723 Z-3.969
X491.631 Z-3.931
X491.546 Z-3.879
X491.47 Z-3.814
X491.405 Z-3.738
X491.353 Z-3.653
X491.315 Z-3.561
X491.292 Z-3.464
X491.284 Z-3.365
Z5.
Y354.019
Z-3. F333.3
Z-7.365
X491.292 Z-7.464 F1000
X491.315 Z-7.561
X491.353 Z-7.653
X491.405 Z-7.738
X491.47 Z-7.814
X491.546 Z-7.879
X491.631 Z-7.931
X491.723 Z-7.969
X491.82 Z-7.992
X491.919 Z-8.
X492.554
G3 X493.189 Y354.654 I0. J0.635
X488.864 Y358.979 I-4.325 J0.
X484.539 Y354.654 I0. J-4.325
X488.864 Y350.329 I4.325 J0.
X493.189 Y354.654 I0. J4.325
X492.554 Y355.289 I-0.635 J0.
G1 X491.919
X491.82 Z-7.992
X491.723 Z-7.969
X491.631 Z-7.931
X491.546 Z-7.879
X491.47 Z-7.814
X491.405 Z-7.738
X491.353 Z-7.653
X491.315 Z-7.561
X491.292 Z-7.464
X491.284 Z-7.365
Z5.
Y354.019
Z-7. F333.3
Z-11.365
X491.292 Z-11.464 F1000
X491.315 Z-11.561
X491.353 Z-11.653
X491.405 Z-11.738
X491.47 Z-11.814
X491.546 Z-11.879
X491.631 Z-11.931
X491.723 Z-11.969
X491.82 Z-11.992
X491.919 Z-12.
X492.554
G3 X493.189 Y354.654 I0. J0.635
X488.864 Y358.979 I-4.325 J0.
X484.539 Y354.654 I0. J-4.325
X488.864 Y350.329 I4.325 J0.
X493.189 Y354.654 I0. J4.325
X492.554 Y355.289 I-0.635 J0.
G1 X491.919
X491.82 Z-11.992
X491.723 Z-11.969
X491.631 Z-11.931
X491.546 Z-11.879
X491.47 Z-11.814
X491.405 Z-11.738
X491.353 Z-11.653
X491.315 Z-11.561
X491.292 Z-11.464
X491.284 Z-11.365
Z5.
Y354.019
Z-11. F333.3
Z-12.865
X491.292 Z-12.964 F1000
X491.315 Z-13.061
X491.353 Z-13.153
X491.405 Z-13.238
X491.47 Z-13.314
X491.546 Z-13.379
X491.631 Z-13.431
X491.723 Z-13.469
X491.82 Z-13.492
X491.919 Z-13.5
X492.554
G3 X493.189 Y354.654 I0. J0.635
X488.864 Y358.979 I-4.325 J0.
X484.539 Y354.654 I0. J-4.325
X488.864 Y350.329 I4.325 J0.
X493.189 Y354.654 I0. J4.325
X492.554 Y355.289 I-0.635 J0.
G1 X491.919
X491.82 Z-13.492
X491.723 Z-13.469
X491.631 Z-13.431
X491.546 Z-13.379
X491.47 Z-13.314
X491.405 Z-13.238
X491.353 Z-13.153
X491.315 Z-13.061
X491.292 Z-12.964
X491.284 Z-12.865
Z5.
X493.52 Y327.565
Z1. F333.3
Z-3.365
X493.528 Z-3.464 F1000
X493.551 Z-3.561
X493.589 Z-3.653
X493.641 Z-3.738
X493.706 Z-3.814
X493.782 Z-3.879
X493.867 Z-3.931
X493.959 Z-3.969
X494.056 Z-3.992
X494.155 Z-4.
X494.79
G3 X495.425 Y328.2 I0. J0.635
G1 Y334.325
X483.175
Y307.675
X495.425
Y328.2
G3 X494.79 Y328.835 I-0.635 J0.
G1 X494.155
X494.056 Z-3.992
X493.959 Z-3.969
X493.867 Z-3.931
X493.782 Z-3.879
X493.706 Z-3.814
X493.641 Z-3.738
X493.589 Z-3.653
X493.551 Z-3.561
X493.528 Z-3.464
X493.52 Z-3.365
Z5.
Y327.565
Z-3. F333.3
Z-7.365
X493.528 Z-7.464 F1000
X493.551 Z-7.561
X493.589 Z-7.653
X493.641 Z-7.738
X493.706 Z-7.814
X493.782 Z-7.879
X493.867 Z-7.931
X493.959 Z-7.969
X494.056 Z-7.992
X494.155 Z-8.
X494.79
G3 X495.425 Y328.2 I0. J0.635
G1 Y334.325
X483.175
Y307.675
X495.425
Y328.2
G3 X494.79 Y328.835 I-0.635 J0.
G1 X494.155
X494.056 Z-7.992
X493.959 Z-7.969
X493.867 Z-7.931
X493.782 Z-7.879
X493.706 Z-7.814
X493.641 Z-7.738
X493.589 Z-7.653
X493.551 Z-7.561
X493.528 Z-7.464
X493.52 Z-7.365
Z5.
Y327.565
Z-7. F333.3
Z-11.365
X493.528 Z-11.464 F1000
X493.551 Z-11.561
X493.589 Z-11.653
X493.641 Z-11.738
X493.706 Z-11.814
X493.782 Z-11.879
X493.867 Z-11.931
X493.959 Z-11.969
X494.056 Z-11.992
X494.155 Z-12.
X494.79
G3 X495.425 Y328.2 I0. J0.635
G1 Y334.325
X483.175
Y307.675
X495.425
Y328.2
G3 X494.79 Y328.835 I-0.635 J0.
G1 X494.155
X494.056 Z-11.992
X493.959 Z-11.969
X493.867 Z-11.931
X493.782 Z-11.879
X493.706 Z-11.814
X493.641 Z-11.738
X493.589 Z-11.653
X493.551 Z-11.561
X493.528 Z-11.464
X493.52 Z-11.365
Z5.
Y327.565
Z-11. F333.3
Z-12.865
X493.528 Z-12.964 F1000
X493.551 Z-13.061
X493.589 Z-13.153
X493.641 Z-13.238
X493.706 Z-13.314
X493.782 Z-13.379
X493.867 Z-13.431
X493.959 Z-13.469
X494.056 Z-13.492
X494.155 Z-13.5
X494.79
G3 X495.425 Y328.2 I0. J0.635
G1 Y334.325
X483.175
Y307.675
X495.425
Y328.2
G3 X494.79 Y328.835 I-0.635 J0.
G1 X494.155
X494.056 Z-13.492
X493.959 Z-13.469
X493.867 Z-13.431
X493.782 Z-13.379
X493.706 Z-13.314
X493.641 Z-13.238
X493.589 Z-13.153
X493.551 Z-13.061
X493.528 Z-12.964
X493.52 Z-12.865
Z5.
X247.92 Y397.365
Z1. F333.3
Z-3.365
X247.928 Z-3.464 F1000
X247.951 Z-3.561
X247.989 Z-3.653
X248.041 Z-3.738
X248.106 Z-3.814
X248.182 Z-3.879
X248.267 Z-3.931
X248.359 Z-3.969
X248.456 Z-3.992
X248.555 Z-4.
X249.19
G3 X249.825 Y398. I0. J0.635
X225.5 Y422.325 I-24.325 J0.
X201.175 Y398. I0. J-24.325
X225.5 Y373.675 I24.325 J0.
X249.825 Y398. I0. J24.325
X249.19 Y398.635 I-0.635 J0.
G1 X248.555
X248.456 Z-3.992
X248.359 Z-3.969
X248.267 Z-3.931
X248.182 Z-3.879
X248.106 Z-3.814
X248.041 Z-3.738
X247.989 Z-3.653
X247.951 Z-3.561
X247.928 Z-3.464
X247.92 Z-3.365
Z5.
Y397.365
Z-3. F333.3
Z-7.365
X247.928 Z-7.464 F1000
X247.951 Z-7.561
X247.989 Z-7.653
X248.041 Z-7.738
X248.106 Z-7.814
X248.182 Z-7.879
X248.267 Z-7.931
X248.359 Z-7.969
X248.456 Z-7.992
X248.555 Z-8.
X249.19
G3 X249.825 Y398. I0. J0.635
X225.5 Y422.325 I-24.325 J0.
X201.175 Y398. I0. J-24.325
X225.5 Y373.675 I24.325 J0.
X249.825 Y398. I0. J24.325
X249.19 Y398.635 I-0.635 J0.
G1 X248.555
X248.456 Z-7.992
X248.359 Z-7.969
X248.267 Z-7.931
X248.182 Z-7.879
X248.106 Z-7.814
X248.041 Z-7.738
X247.989 Z-7.653
X247.951 Z-7.561
X247.928 Z-7.464
X247.92 Z-7.365
Z5.
Y397.365
Z-7. F333.3
Z-11.365
X247.928 Z-11.464 F1000
X247.951 Z-11.561
X247.989 Z-11.653
X248.041 Z-11.738
X248.106 Z-11.814
X248.182 Z-11.879
X248.267 Z-11.931
X248.359 Z-11.969
X248.456 Z-11.992
X248.555 Z-12.
X249.19
G3 X249.825 Y398. I0. J0.635
X225.5 Y422.325 I-24.325 J0.
X201.175 Y398. I0. J-24.325
X225.5 Y373.675 I24.325 J0.
X249.825 Y398. I0. J24.325
X249.19 Y398.635 I-0.635 J0.
G1 X248.555
X248.456 Z-11.992
X248.359 Z-11.969
X248.267 Z-11.931
X248.182 Z-11.879
X248.106 Z-11.814
X248.041 Z-11.738
X247.989 Z-11.653
X247.951 Z-11.561
X247.928 Z-11.464
X247.92 Z-11.365
Z5.
Y397.365
Z-11. F333.3
Z-12.865
X247.928 Z-12.964 F1000
X247.951 Z-13.061
X247.989 Z-13.153
X248.041 Z-13.238
X248.106 Z-13.314
X248.182 Z-13.379
X248.267 Z-13.431
X248.359 Z-13.469
X248.456 Z-13.492
X248.555 Z-13.5
X249.19
G3 X249.825 Y398. I0. J0.635
X225.5 Y422.325 I-24.325 J0.
X201.175 Y398. I0. J-24.325
X225.5 Y373.675 I24.325 J0.
X249.825 Y398. I0. J24.325
X249.19 Y398.635 I-0.635 J0.
G1 X248.555
X248.456 Z-13.492
X248.359 Z-13.469
X248.267 Z-13.431
X248.182 Z-13.379
X248.106 Z-13.314
X248.041 Z-13.238
X247.989 Z-13.153
X247.951 Z-13.061
X247.928 Z-12.964
X247.92 Z-12.865
Z5.
Y631.365
Z1. F333.3
Z-3.365
X247.928 Z-3.464 F1000
X247.951 Z-3.561
X247.989 Z-3.653
X248.041 Z-3.738
X248.106 Z-3.814
X248.182 Z-3.879
X248.267 Z-3.931
X248.359 Z-3.969
X248.456 Z-3.992
X248.555 Z-4.
X249.19
G3 X249.825 Y632. I0. J0.635
X225.5 Y656.325 I-24.325 J0.
X201.175 Y632. I0. J-24.325
X225.5 Y607.675 I24.325 J0.
X249.825 Y632. I0. J24.325
X249.19 Y632.635 I-0.635 J0.
G1 X248.555
X248.456 Z-3.992
X248.359 Z-3.969
X248.267 Z-3.931
X248.182 Z-3.879
X248.106 Z-3.814
X248.041 Z-3.738
X247.989 Z-3.653
X247.951 Z-3.561
X247.928 Z-3.464
X247.92 Z-3.365
Z5.
Y631.365
Z-3. F333.3
Z-7.365
X247.928 Z-7.464 F1000
X247.951 Z-7.561
X247.989 Z-7.653
X248.041 Z-7.738
X248.106 Z-7.814
X248.182 Z-7.879
X248.267 Z-7.931
X248.359 Z-7.969
X248.456 Z-7.992
X248.555 Z-8.
X249.19
G3 X249.825 Y632. I0. J0.635
X225.5 Y656.325 I-24.325 J0.
X201.175 Y632. I0. J-24.325
X225.5 Y607.675 I24.325 J0.
X249.825 Y632. I0. J24.325
X249.19 Y632.635 I-0.635 J0.
G1 X248.555
X248.456 Z-7.992
X248.359 Z-7.969
X248.267 Z-7.931
X248.182 Z-7.879
X248.106 Z-7.814
X248.041 Z-7.738
X247.989 Z-7.653
X247.951 Z-7.561
X247.928 Z-7.464
X247.92 Z-7.365
Z5.
Y631.365
Z-7. F333.3
Z-11.365
X247.928 Z-11.464 F1000
X247.951 Z-11.561
X247.989 Z-11.653
X248.041 Z-11.738
X248.106 Z-11.814
X248.182 Z-11.879
X248.267 Z-11.931
X248.359 Z-11.969
X248.456 Z-11.992
X248.555 Z-12.
X249.19
G3 X249.825 Y632. I0. J0.635
X225.5 Y656.325 I-24.325 J0.
X201.175 Y632. I0. J-24.325
X225.5 Y607.675 I24.325 J0.
X249.825 Y632. I0. J24.325
X249.19 Y632.635 I-0.635 J0.
G1 X248.555
X248.456 Z-11.992
X248.359 Z-11.969
X248.267 Z-11.931
X248.182 Z-11.879
X248.106 Z-11.814
X248.041 Z-11.738
X247.989 Z-11.653
X247.951 Z-11.561
X247.928 Z-11.464
X247.92 Z-11.365
Z5.
Y631.365
Z-11. F333.3
Z-12.865
X247.928 Z-12.964 F1000
X247.951 Z-13.061
X247.989 Z-13.153
X248.041 Z-13.238
X248.106 Z-13.314
X248.182 Z-13.379
X248.267 Z-13.431
X248.359 Z-13.469
X248.456 Z-13.492
X248.555 Z-13.5
X249.19
G3 X249.825 Y632. I0. J0.635
X225.5 Y656.325 I-24.325 J0.
X201.175 Y632. I0. J-24.325
X225.5 Y607.675 I24.325 J0.
X249.825 Y632. I0. J24.325
X249.19 Y632.635 I-0.635 J0.
G1 X248.555
X248.456 Z-13.492
X248.359 Z-13.469
X248.267 Z-13.431
X248.182 Z-13.379
X248.106 Z-13.314
X248.041 Z-13.238
X247.989 Z-13.153
X247.951 Z-13.061
X247.928 Z-12.964
X247.92 Z-12.865
Z5.
X414.42 Y959.032
Z1. F333.3
Z-3.365
X414.428 Z-3.464 F1000
X414.451 Z-3.561
X414.489 Z-3.653
X414.541 Z-3.738
X414.606 Z-3.814
X414.682 Z-3.879
X414.767 Z-3.931
X414.859 Z-3.969
X414.956 Z-3.992
X415.055 Z-4.
X415.69
G3 X416.325 Y959.667 I0. J0.635
G1 Y1087.155
X410.675
Y956.842
X416.325
Y959.667
G3 X415.69 Y960.302 I-0.635 J0.
G1 X415.055
X414.956 Z-3.992
X414.859 Z-3.969
X414.767 Z-3.931
X414.682 Z-3.879
X414.606 Z-3.814
X414.541 Z-3.738
X414.489 Z-3.653
X414.451 Z-3.561
X414.428 Z-3.464
X414.42 Z-3.365
Z5.
Y959.032
Z-3. F333.3
Z-7.365
X414.428 Z-7.464 F1000
X414.451 Z-7.561
X414.489 Z-7.653
X414.541 Z-7.738
X414.606 Z-7.814
X414.682 Z-7.879
X414.767 Z-7.931
X414.859 Z-7.969
X414.956 Z-7.992
X415.055 Z-8.
X415.69
G3 X416.325 Y959.667 I0. J0.635
G1 Y1087.155
X410.675
Y956.842
X416.325
Y959.667
G3 X415.69 Y960.302 I-0.635 J0.
G1 X415.055
X414.956 Z-7.992
X414.859 Z-7.969
X414.767 Z-7.931
X414.682 Z-7.879
X414.606 Z-7.814
X414.541 Z-7.738
X414.489 Z-7.653
X414.451 Z-7.561
X414.428 Z-7.464
X414.42 Z-7.365
Z5.
Y959.032
Z-7. F333.3
Z-11.365
X414.428 Z-11.464 F1000
X414.451 Z-11.561
X414.489 Z-11.653
X414.541 Z-11.738
X414.606 Z-11.814
X414.682 Z-11.879
X414.767 Z-11.931
X414.859 Z-11.969
X414.956 Z-11.992
X415.055 Z-12.
X415.69
G3 X416.325 Y959.667 I0. J0.635
G1 Y1087.155
X410.675
Y956.842
X416.325
Y959.667
G3 X415.69 Y960.302 I-0.635 J0.
G1 X415.055
X414.956 Z-11.992
X414.859 Z-11.969
X414.767 Z-11.931
X414.682 Z-11.879
X414.606 Z-11.814
X414.541 Z-11.738
X414.489 Z-11.653
X414.451 Z-11.561
X414.428 Z-11.464
X414.42 Z-11.365
Z5.
Y959.032
Z-11. F333.3
Z-12.865
X414.428 Z-12.964 F1000
X414.451 Z-13.061
X414.489 Z-13.153
X414.541 Z-13.238
X414.606 Z-13.314
X414.682 Z-13.379
X414.767 Z-13.431
X414.859 Z-13.469
X414.956 Z-13.492
X415.055 Z-13.5
X415.69
G3 X416.325 Y959.667 I0. J0.635
G1 Y1087.155
X410.675
Y956.842
X416.325
Y959.667
G3 X415.69 Y960.302 I-0.635 J0.
G1 X415.055
X414.956 Z-13.492
X414.859 Z-13.469
X414.767 Z-13.431
X414.682 Z-13.379
X414.606 Z-13.314
X414.541 Z-13.238
X414.489 Z-13.153
X414.451 Z-13.061
X414.428 Z-12.964
X414.42 Z-12.865
Z5.
X438.47 Y959.032
Z1. F333.3
Z-3.365
X438.478 Z-3.464 F1000
X438.501 Z-3.561
X438.539 Z-3.653
X438.591 Z-3.738
X438.656 Z-3.814
X438.732 Z-3.879
X438.817 Z-3.931
X438.909 Z-3.969
X439.006 Z-3.992
X439.105 Z-4.
X439.74
G3 X440.375 Y959.667 I0. J0.635
G1 Y1086.14
G2 X440.692 Y1087.523 I3.175 J0.
X439.307 Y1087.205 I-1.385 J2.857
G1 X435.693
G2 X434.308 Y1087.523 I0. J3.175
X434.625 Y1086.14 I-2.858 J-1.383
G1 Y957.859
G2 X434.307 Y956.473 I-3.175 J0.
X435.693 Y956.792 I1.386 J-2.856
G1 X439.307
G2 X440.693 Y956.473 I0. J-3.175
X440.375 Y957.859 I2.857 J1.386
G1 Y959.667
G3 X439.74 Y960.302 I-0.635 J0.
G1 X439.105
X439.006 Z-3.992
X438.909 Z-3.969
X438.817 Z-3.931
X438.732 Z-3.879
X438.656 Z-3.814
X438.591 Z-3.738
X438.539 Z-3.653
X438.501 Z-3.561
X438.478 Z-3.464
X438.47 Z-3.365
Z5.
Y959.032
Z-3. F333.3
Z-7.365
X438.478 Z-7.464 F1000
X438.501 Z-7.561
X438.539 Z-7.653
X438.591 Z-7.738
X438.656 Z-7.814
X438.732 Z-7.879
X438.817 Z-7.931
X438.909 Z-7.969
X439.006 Z-7.992
X439.105 Z-8.
X439.74
G3 X440.375 Y959.667 I0. J0.635
G1 Y1086.14
G2 X440.692 Y1087.523 I3.175 J0.
X439.307 Y1087.205 I-1.385 J2.857
G1 X435.693
G2 X434.308 Y1087.523 I0. J3.175
X434.625 Y1086.14 I-2.858 J-1.383
G1 Y957.859
G2 X434.307 Y956.473 I-3.175 J0.
X435.693 Y956.792 I1.386 J-2.856
G1 X439.307
G2 X440.693 Y956.473 I0. J-3.175
X440.375 Y957.859 I2.857 J1.386
G1 Y959.667
G3 X439.74 Y960.302 I-0.635 J0.
G1 X439.105
X439.006 Z-7.992
X438.909 Z-7.969
X438.817 Z-7.931
X438.732 Z-7.879
X438.656 Z-7.814
X438.591 Z-7.738
X438.539 Z-7.653
X438.501 Z-7.561
X438.478 Z-7.464
X438.47 Z-7.365
Z5.
Y959.032
Z-7. F333.3
Z-11.365
X438.478 Z-11.464 F1000
X438.501 Z-11.561
X438.539 Z-11.653
X438.591 Z-11.738
X438.656 Z-11.814
X438.732 Z-11.879
X438.817 Z-11.931
X438.909 Z-11.969
X439.006 Z-11.992
X439.105 Z-12.
X439.74
G3 X440.375 Y959.667 I0. J0.635
G1 Y1086.14
G2 X440.692 Y1087.523 I3.175 J0.
X439.307 Y1087.205 I-1.385 J2.857
G1 X435.693
G2 X434.308 Y1087.523 I0. J3.175
X434.625 Y1086.14 I-2.858 J-1.383
G1 Y957.859
G2 X434.307 Y956.473 I-3.175 J0.
X435.693 Y956.792 I1.386 J-2.856
G1 X439.307
G2 X440.693 Y956.473 I0. J-3.175
X440.375 Y957.859 I2.857 J1.386
G1 Y959.667
G3 X439.74 Y960.302 I-0.635 J0.
G1 X439.105
X439.006 Z-11.992
X438.909 Z-11.969
X438.817 Z-11.931
X438.732 Z-11.879
X438.656 Z-11.814
X438.591 Z-11.738
X438.539 Z-11.653
X438.501 Z-11.561
X438.478 Z-11.464
X438.47 Z-11.365
Z5.
Y959.032
Z-11. F333.3
Z-12.865
X438.478 Z-12.964 F1000
X438.501 Z-13.061
X438.539 Z-13.153
X438.591 Z-13.238
X438.656 Z-13.314
X438.732 Z-13.379
X438.817 Z-13.431
X438.909 Z-13.469
X439.006 Z-13.492
X439.105 Z-13.5
X439.74
G3 X440.375 Y959.667 I0. J0.635
G1 Y1086.14
G2 X440.692 Y1087.523 I3.175 J0.
X439.307 Y1087.205 I-1.385 J2.857
G1 X435.693
G2 X434.308 Y1087.523 I0. J3.175
X434.625 Y1086.14 I-2.858 J-1.383
G1 Y957.859
G2 X434.307 Y956.473 I-3.175 J0.
X435.693 Y956.792 I1.386 J-2.856
G1 X439.307
G2 X440.693 Y956.473 I0. J-3.175
X440.375 Y957.859 I2.857 J1.386
G1 Y959.667
G3 X439.74 Y960.302 I-0.635 J0.
G1 X439.105
X439.006 Z-13.492
X438.909 Z-13.469
X438.817 Z-13.431
X438.732 Z-13.379
X438.656 Z-13.314
X438.591 Z-13.238
X438.539 Z-13.153
X438.501 Z-13.061
X438.478 Z-12.964
X438.47 Z-12.865
Z15.
M5
G53 G0 Z0.
M30
