(Bore 4mm)
(T5 D=4. CR=0. - ZMIN=-12.5 - flat end mill)
G90
(When using Fusion for Personal Use, the feedrate of rapid)
(moves is reduced to match the feedrate of cutting moves,)
(which can increase machining time. Unrestricted rapid moves)
(are available with a Fusion Subscription.)
G53 G0 Z0.

(Bore2)
T5 M6 (flat end mill D=4. Flat Endmill (4 flutes))
S5000 M3
G64
G90 G94
G54
G43 H5
G0 X488.5 Y221.
Z15.
G1 Z1.1 F1000
Z-0.5
X488.513 Y220.988
X488.521 Y220.991
X488.525 Y221.
X488.518 Y221.018 Z-0.518
X488.5 Y221.025 Z-0.535
X488.483 Y221.018 Z-0.553
X488.475 Y221.001 Z-0.57
X488.482 Y220.983 Z-0.588
X488.499 Y220.975 Z-0.605
X488.517 Y220.982 Z-0.623
X488.525 Y220.999 Z-0.64
X488.519 Y221.017 Z-0.658
X488.501 Y221.025 Z-0.675
X488.484 Y221.019 Z-0.693
X488.475 Y221.002 Z-0.711
X488.481 Y220.984 Z-0.728
X488.498 Y220.975 Z-0.746
X488.516 Y220.981 Z-0.763
X488.525 Y220.998 Z-0.781
X488.519 Y221.016 Z-0.798
X488.503 Y221.025 Z-0.816
X488.484 Y221.02 Z-0.833
X488.475 Y221.003 Z-0.851
X488.48 Y220.985 Z-0.868
X488.497 Y220.975 Z-0.886
X488.515 Y220.98 Z-0.904
X488.525 Y220.996 Z-0.921
X488.52 Y221.015 Z-0.939
X488.504 Y221.025 Z-0.956
X488.485 Y221.02 Z-0.974
X488.475 Y221.004 Z-0.991
X488.48 Y220.986 Z-1.009
X488.496 Y220.975 Z-1.026
X488.514 Y220.979 Z-1.044
X488.525 Y220.995 Z-1.061
X488.521 Y221.014 Z-1.079
X488.505 Y221.024 Z-1.096
X488.486 Y221.021 Z-1.114
X488.476 Y221.005 Z-1.132
X488.479 Y220.987 Z-1.149
X488.494 Y220.976 Z-1.167
X488.513 Y220.979 Z-1.184
X488.524 Y220.994 Z-1.202
X488.521 Y221.013 Z-1.219
X488.506 Y221.024 Z-1.237
X488.487 Y221.022 Z-1.254
X488.476 Y221.007 Z-1.272
X488.478 Y220.988 Z-1.289
X488.493 Y220.976 Z-1.307
X488.512 Y220.978 Z-1.325
X488.524 Y220.993 Z-1.342
X488.522 Y221.012 Z-1.36
X488.507 Y221.024 Z-1.377
X488.488 Y221.022 Z-1.395
X488.476 Y221.008 Z-1.412
X488.478 Y220.989 Z-1.43
X488.492 Y220.976 Z-1.447
X488.511 Y220.978 Z-1.465
X488.524 Y220.992 Z-1.482
X488.523 Y221.011 Z-1.5
X488.509 Y221.024 Z-1.518
X488.49 Y221.023 Z-1.535
X488.477 Y221.009 Z-1.553
Y220.99 Z-1.57
X488.491 Y220.977 Z-1.588
X488.51 Z-1.605
X488.523 Y220.991 Z-1.623
Y221.01 Z-1.64
X488.51 Y221.023 Z-1.658
X488.491 Z-1.675
X488.477 Y221.01 Z-1.693
Y220.991 Z-1.711
X488.49 Y220.977 Z-1.728
X488.509 Z-1.746
X488.523 Y220.99 Z-1.763
Y221.009 Z-1.781
X488.511 Y221.023 Z-1.798
X488.492 Y221.024 Z-1.816
X488.478 Y221.011 Z-1.833
X488.476 Y220.992 Z-1.851
X488.489 Y220.978 Z-1.868
X488.508 Y220.976 Z-1.886
X488.522 Y220.988 Z-1.904
X488.524 Y221.007 Z-1.921
X488.512 Y221.022 Z-1.939
X488.493 Y221.024 Z-1.956
X488.478 Y221.012 Z-1.974
X488.476 Y220.993 Z-1.991
X488.488 Y220.978 Z-2.009
X488.507 Y220.976 Z-2.026
X488.522 Y220.987 Z-2.044
X488.524 Y221.006 Z-2.061
X488.513 Y221.021 Z-2.079
X488.494 Y221.024 Z-2.096
X488.479 Y221.013 Z-2.114
X488.476 Y220.994 Z-2.132
X488.487 Y220.979 Z-2.149
X488.505 Y220.976 Z-2.167
X488.521 Y220.986 Z-2.184
X488.524 Y221.005 Z-2.202
X488.514 Y221.021 Z-2.219
X488.495 Y221.025 Z-2.237
X488.479 Y221.014 Z-2.254
X488.475 Y220.996 Z-2.272
X488.486 Y220.98 Z-2.289
X488.504 Y220.975 Z-2.307
X488.52 Y220.985 Z-2.325
X488.525 Y221.004 Z-2.342
X488.515 Y221.02 Z-2.36
X488.496 Y221.025 Z-2.377
X488.48 Y221.015 Z-2.395
X488.475 Y220.997 Z-2.412
X488.485 Y220.98 Z-2.43
X488.503 Y220.975 Z-2.447
X488.52 Y220.984 Z-2.465
X488.525 Y221.003 Z-2.482
X488.516 Y221.019 Z-2.5
X488.498 Y221.025 Z-2.518
X488.481 Y221.016 Z-2.535
X488.475 Y220.998 Z-2.553
X488.484 Y220.981 Z-2.57
X488.502 Y220.975 Z-2.588
X488.519 Y220.984 Z-2.605
X488.525 Y221.002 Z-2.623
X488.517 Y221.019 Z-2.64
X488.499 Y221.025 Z-2.658
X488.482 Y221.017 Z-2.675
X488.475 Y220.999 Z-2.693
X488.483 Y220.982 Z-2.711
X488.501 Y220.975 Z-2.728
X488.518 Y220.983 Z-2.746
X488.525 Y221. Z-2.763
X488.518 Y221.018 Z-2.781
X488.5 Y221.025 Z-2.798
X488.482 Y221.018 Z-2.816
X488.475 Y221. Z-2.833
X488.482 Y220.983 Z-2.851
X488.499 Y220.975 Z-2.868
X488.517 Y220.982 Z-2.886
X488.525 Y220.999 Z-2.904
X488.518 Y221.017 Z-2.921
X488.501 Y221.025 Z-2.939
X488.483 Y221.019 Z-2.956
X488.475 Y221.001 Z-2.974
X488.481 Y220.984 Z-2.991
X488.498 Y220.975 Z-3.009
X488.516 Y220.981 Z-3.026
X488.525 Y220.998 Z-3.044
X488.519 Y221.016 Z-3.061
X488.502 Y221.025 Z-3.079
X488.484 Y221.019 Z-3.096
X488.475 Y221.003 Z-3.114
X488.48 Y220.984 Z-3.132
X488.497 Y220.975 Z-3.149
X488.515 Y220.98 Z-3.167
X488.525 Y220.997 Z-3.184
X488.52 Y221.015 Z-3.202
X488.504 Y221.025 Z-3.219
X488.485 Y221.02 Z-3.237
X488.475 Y221.004 Z-3.254
X488.48 Y220.985 Z-3.272
X488.496 Y220.975 Z-3.289
X488.514 Y220.98 Z-3.307
X488.525 Y220.996 Z-3.325
X488.521 Y221.014 Z-3.342
X488.505 Y221.025 Z-3.36
X488.486 Y221.021 Z-3.377
X488.476 Y221.005 Z-3.395
X488.479 Y220.986 Z-3.412
X488.495 Y220.976 Z-3.43
X488.513 Y220.979 Z-3.447
X488.524 Y220.994 Z-3.465
X488.521 Y221.013 Z-3.482
X488.506 Y221.024 Z-3.5
X488.487 Y221.021 Z-3.518
X488.476 Y221.006 Z-3.535
X488.478 Y220.987 Z-3.553
X488.494 Y220.976 Z-3.57
X488.512 Y220.978 Z-3.588
X488.524 Y220.993 Z-3.605
X488.522 Y221.012 Z-3.623
X488.507 Y221.024 Z-3.64
X488.488 Y221.022 Z-3.658
X488.476 Y221.007 Z-3.675
X488.478 Y220.988 Z-3.693
X488.492 Y220.976 Z-3.711
X488.511 Y220.978 Z-3.728
X488.524 Y220.992 Z-3.746
X488.522 Y221.011 Z-3.763
X488.508 Y221.024 Z-3.781
X488.489 Y221.023 Z-3.798
X488.476 Y221.008 Z-3.816
X488.477 Y220.99 Z-3.833
X488.491 Y220.977 Z-3.851
X488.51 Z-3.868
X488.523 Y220.991 Z-3.886
Y221.01 Z-3.904
X488.509 Y221.023 Z-3.921
X488.49 Z-3.939
X488.477 Y221.01 Z-3.956
Y220.991 Z-3.974
X488.49 Y220.977 Z-3.991
X488.509 Z-4.009
X488.523 Y220.99 Z-4.026
Y221.009 Z-4.044
X488.51 Y221.023 Z-4.061
X488.491 Z-4.079
X488.477 Y221.011 Z-4.096
X488.476 Y220.992 Z-4.114
X488.489 Y220.978 Z-4.132
X488.508 Y220.976 Z-4.149
X488.522 Y220.989 Z-4.167
X488.524 Y221.008 Z-4.184
X488.511 Y221.022 Z-4.202
X488.493 Y221.024 Z-4.219
X488.478 Y221.012 Z-4.237
X488.476 Y220.993 Z-4.254
X488.488 Y220.978 Z-4.272
X488.507 Y220.976 Z-4.289
X488.522 Y220.988 Z-4.307
X488.524 Y221.007 Z-4.325
X488.513 Y221.022 Z-4.342
X488.494 Y221.024 Z-4.36
X488.479 Y221.013 Z-4.377
X488.476 Y220.994 Z-4.395
X488.487 Y220.979 Z-4.412
X488.506 Y220.976 Z-4.43
X488.521 Y220.987 Z-4.447
X488.524 Y221.005 Z-4.465
X488.514 Y221.021 Z-4.482
X488.495 Y221.024 Z-4.5
X488.479 Y221.014 Z-4.518
X488.475 Y220.995 Z-4.535
X488.486 Y220.979 Z-4.553
X488.505 Y220.975 Z-4.57
X488.52 Y220.986 Z-4.588
X488.525 Y221.004 Z-4.605
X488.515 Y221.02 Z-4.623
X488.496 Y221.025 Z-4.64
X488.48 Y221.015 Z-4.658
X488.475 Y220.996 Z-4.675
X488.485 Y220.98 Z-4.693
X488.503 Y220.975 Z-4.711
X488.52 Y220.985 Z-4.728
X488.525 Y221.003 Z-4.746
X488.516 Y221.02 Z-4.763
X488.497 Y221.025 Z-4.781
X488.481 Y221.016 Z-4.798
X488.475 Y220.998 Z-4.816
X488.484 Y220.981 Z-4.833
X488.502 Y220.975 Z-4.851
X488.519 Y220.984 Z-4.868
X488.525 Y221.002 Z-4.886
X488.516 Y221.019 Z-4.904
X488.498 Y221.025 Z-4.921
X488.481 Y221.017 Z-4.939
X488.475 Y220.999 Z-4.956
X488.483 Y220.982 Z-4.974
X488.501 Y220.975 Z-4.991
X488.518 Y220.983 Z-5.009
X488.525 Y221.001 Z-5.026
X488.517 Y221.018 Z-5.044
X488.5 Y221.025 Z-5.061
X488.482 Y221.018 Z-5.079
X488.475 Y221. Z-5.096
X488.482 Y220.982 Z-5.114
X488.5 Y220.975 Z-5.132
X488.517 Y220.982 Z-5.149
X488.525 Y220.999 Z-5.167
X488.518 Y221.017 Z-5.184
X488.501 Y221.025 Z-5.202
X488.483 Y221.018 Z-5.219
X488.475 Y221.001 Z-5.237
X488.481 Y220.983 Z-5.254
X488.499 Y220.975 Z-5.272
X488.517 Y220.981 Z-5.289
X488.525 Y220.998 Z-5.307
X488.519 Y221.016 Z-5.325
X488.502 Y221.025 Z-5.342
X488.484 Y221.019 Z-5.36
X488.475 Y221.002 Z-5.377
X488.481 Y220.984 Z-5.395
X488.497 Y220.975 Z-5.412
X488.516 Y220.98 Z-5.43
X488.525 Y220.997 Z-5.447
X488.52 Y221.015 Z-5.465
X488.503 Y221.025 Z-5.482
X488.485 Y221.02 Z-5.5
X488.475 Y221.004 Z-5.518
X488.48 Y220.985 Z-5.535
X488.496 Y220.975 Z-5.553
X488.515 Y220.98 Z-5.57
X488.525 Y220.996 Z-5.588
X488.52 Y221.014 Z-5.605
X488.504 Y221.025 Z-5.623
X488.486 Y221.021 Z-5.64
X488.475 Y221.005 Z-5.658
X488.479 Y220.986 Z-5.675
X488.495 Y220.976 Z-5.693
X488.514 Y220.979 Z-5.711
X488.524 Y220.995 Z-5.728
X488.521 Y221.013 Z-5.746
X488.506 Y221.024 Z-5.763
X488.487 Y221.021 Z-5.781
X488.476 Y221.006 Z-5.798
X488.479 Y220.987 Z-5.816
X488.494 Y220.976 Z-5.833
X488.513 Y220.978 Z-5.851
X488.524 Y220.994 Z-5.868
X488.522 Y221.012 Z-5.886
X488.507 Y221.024 Z-5.904
X488.488 Y221.022 Z-5.921
X488.476 Y221.007 Z-5.939
X488.478 Y220.988 Z-5.956
X488.493 Y220.976 Z-5.974
X488.512 Y220.978 Z-5.991
X488.524 Y220.992 Z-6.009
X488.522 Y221.011 Z-6.026
X488.508 Y221.024 Z-6.044
X488.489 Y221.022 Z-6.061
X488.476 Y221.008 Z-6.079
X488.477 Y220.989 Z-6.096
X488.492 Y220.976 Z-6.114
X488.511 Y220.977 Z-6.132
X488.523 Y220.991 Z-6.149
Y221.01 Z-6.167
X488.509 Y221.023 Z-6.184
X488.49 Z-6.202
X488.477 Y221.009 Z-6.219
Y220.99 Z-6.237
X488.49 Y220.977 Z-6.254
X488.509 Z-6.272
X488.523 Y220.99 Z-6.289
Y221.009 Z-6.307
X488.51 Y221.023 Z-6.325
X488.491 Z-6.342
X488.477 Y221.01 Z-6.36
Y220.991 Z-6.377
X488.489 Y220.977 Z-6.395
X488.508 Y220.976 Z-6.412
X488.522 Y220.989 Z-6.43
X488.524 Y221.008 Z-6.447
X488.511 Y221.022 Z-6.465
X488.492 Y221.024 Z-6.482
X488.478 Y221.011 Z-6.5
X488.476 Y220.993 Z-6.518
X488.488 Y220.978 Z-6.535
X488.507 Y220.976 Z-6.553
X488.522 Y220.988 Z-6.57
X488.524 Y221.007 Z-6.588
X488.512 Y221.022 Z-6.605
X488.493 Y221.024 Z-6.623
X488.478 Y221.013 Z-6.64
X488.476 Y220.994 Z-6.658
X488.487 Y220.979 Z-6.675
X488.506 Y220.976 Z-6.693
X488.521 Y220.987 Z-6.711
X488.524 Y221.006 Z-6.728
X488.513 Y221.021 Z-6.746
X488.495 Y221.024 Z-6.763
X488.479 Y221.014 Z-6.781
X488.476 Y220.995 Z-6.798
X488.486 Y220.979 Z-6.816
X488.505 Y220.975 Z-6.833
X488.521 Y220.986 Z-6.851
X488.525 Y221.005 Z-6.868
X488.514 Y221.021 Z-6.886
X488.496 Y221.025 Z-6.904
X488.48 Y221.015 Z-6.921
X488.475 Y220.996 Z-6.939
X488.485 Y220.98 Z-6.956
X488.504 Y220.975 Z-6.974
X488.52 Y220.985 Z-6.991
X488.525 Y221.003 Z-7.009
X488.515 Y221.02 Z-7.026
X488.497 Y221.025 Z-7.044
X488.48 Y221.016 Z-7.061
X488.475 Y220.997 Z-7.079
X488.484 Y220.981 Z-7.096
X488.502 Y220.975 Z-7.114
X488.519 Y220.984 Z-7.132
X488.525 Y221.002 Z-7.149
X488.516 Y221.019 Z-7.167
X488.498 Y221.025 Z-7.184
X488.481 Y221.016 Z-7.202
X488.475 Y220.998 Z-7.219
X488.483 Y220.981 Z-7.237
X488.501 Y220.975 Z-7.254
X488.518 Y220.983 Z-7.272
X488.525 Y221.001 Z-7.289
X488.517 Y221.018 Z-7.307
X488.499 Y221.025 Z-7.325
X488.482 Y221.017 Z-7.342
X488.475 Y221. Z-7.36
X488.482 Y220.982 Z-7.377
X488.5 Y220.975 Z-7.395
X488.518 Y220.982 Z-7.412
X488.525 Y221. Z-7.43
X488.518 Y221.017 Z-7.447
X488.501 Y221.025 Z-7.465
X488.483 Y221.018 Z-7.482
X488.475 Y221.001 Z-7.5
X488.482 Y220.983 Z-7.518
X488.499 Y220.975 Z-7.535
X488.517 Y220.981 Z-7.553
X488.525 Y220.999 Z-7.57
X488.519 Y221.017 Z-7.588
X488.502 Y221.025 Z-7.605
X488.484 Y221.019 Z-7.623
X488.475 Y221.002 Z-7.64
X488.481 Y220.984 Z-7.658
X488.498 Y220.975 Z-7.675
X488.516 Y220.981 Z-7.693
X488.525 Y220.997 Z-7.711
X488.52 Y221.016 Z-7.728
X488.503 Y221.025 Z-7.746
X488.485 Y221.02 Z-7.763
X488.475 Y221.003 Z-7.781
X488.48 Y220.985 Z-7.798
X488.496 Y220.975 Z-7.816
X488.515 Y220.98 Z-7.833
X488.525 Y220.996 Z-7.851
X488.52 Y221.015 Z-7.868
X488.504 Y221.025 Z-7.886
X488.486 Y221.02 Z-7.904
X488.475 Y221.004 Z-7.921
X488.479 Y220.986 Z-7.939
X488.495 Y220.975 Z-7.956
X488.514 Y220.979 Z-7.974
X488.524 Y220.995 Z-7.991
X488.521 Y221.014 Z-8.009
X488.505 Y221.024 Z-8.026
X488.487 Y221.021 Z-8.044
X488.476 Y221.006 Z-8.061
X488.479 Y220.987 Z-8.079
X488.494 Y220.976 Z-8.096
X488.513 Y220.979 Z-8.114
X488.524 Y220.994 Z-8.132
X488.522 Y221.013 Z-8.149
X488.506 Y221.024 Z-8.167
X488.488 Y221.022 Z-8.184
X488.476 Y221.007 Z-8.202
X488.478 Y220.988 Z-8.219
X488.493 Y220.976 Z-8.237
X488.512 Y220.978 Z-8.254
X488.524 Y220.993 Z-8.272
X488.522 Y221.012 Z-8.289
X488.508 Y221.024 Z-8.307
X488.489 Y221.022 Z-8.325
X488.476 Y221.008 Z-8.342
X488.478 Y220.989 Z-8.36
X488.492 Y220.976 Z-8.377
X488.511 Y220.977 Z-8.395
X488.524 Y220.992 Z-8.413
X488.522 Y221.012 Z-8.431
X488.507 Y221.024 Z-8.449
X488.488 Y221.022 Z-8.467
X488.476 Y221.006 Z-8.485
X488.479 Y220.987 Z-8.503
X488.495 Y220.976 Z-8.522
X488.514 Y220.979 Z-8.54
X488.525 Y220.996 Z-8.558
X488.52 Y221.015 Z-8.576
X488.503 Y221.025 Z-8.594
X488.484 Y221.019 Z-8.612
X488.475 Y221.002 Z-8.63
X488.481 Y220.984 Z-8.648
X488.499 Y220.975 Z-8.666
X488.517 Y220.982 Z-8.684
X488.525 Y221. Z-8.703
X488.518 Y221.018 Z-8.721
X488.499 Y221.025 Z-8.739
X488.482 Y221.017 Z-8.757
X488.475 Y220.998 Z-8.775
X488.484 Y220.981 Z-8.793
X488.503 Y220.975 Z-8.811
X488.52 Y220.985 Z-8.829
X488.525 Y221.004 Z-8.847
X488.515 Y221.02 Z-8.866
X488.496 Y221.025 Z-8.884
X488.479 Y221.014 Z-8.902
X488.476 Y220.995 Z-8.92
X488.487 Y220.979 Z-8.938
X488.506 Y220.976 Z-8.956
X488.522 Y220.988 Z-8.974
X488.524 Y221.007 Z-8.992
X488.511 Y221.022 Z-9.01
X488.492 Y221.024 Z-9.029
X488.477 Y221.011 Z-9.047
Y220.991 Z-9.065
X488.49 Y220.977 Z-9.083
X488.51 Z-9.101
X488.523 Y220.991 Z-9.119
Y221.011 Z-9.137
X488.508 Y221.024 Z-9.155
X488.488 Y221.022 Z-9.173
X488.476 Y221.007 Z-9.192
X488.478 Y220.988 Z-9.21
X488.494 Y220.976 Z-9.228
X488.513 Y220.979 Z-9.246
X488.524 Y220.995 Z-9.264
X488.521 Y221.014 Z-9.282
X488.504 Y221.025 Z-9.3
X488.485 Y221.02 Z-9.318
X488.475 Y221.003 Z-9.336
X488.481 Y220.984 Z-9.355
X488.498 Y220.975 Z-9.373
X488.516 Y220.981 Z-9.391
X488.525 Y220.999 Z-9.409
X488.518 Y221.017 Z-9.427
X488.5 Y221.025 Z-9.445
X488.482 Y221.018 Z-9.463
X488.475 Y220.999 Z-9.481
X488.483 Y220.982 Z-9.499
X488.502 Y220.975 Z-9.518
X488.519 Y220.984 Z-9.536
X488.525 Y221.003 Z-9.554
X488.515 Y221.02 Z-9.572
X488.496 Y221.025 Z-9.59
X488.48 Y221.015 Z-9.608
X488.475 Y220.996 Z-9.626
X488.486 Y220.979 Z-9.644
X488.505 Y220.976 Z-9.662
X488.521 Y220.987 Z-9.681
X488.524 Y221.006 Z-9.699
X488.512 Y221.022 Z-9.717
X488.493 Y221.024 Z-9.735
X488.478 Y221.011 Z-9.753
X488.476 Y220.992 Z-9.771
X488.489 Y220.977 Z-9.789
X488.509 Z-9.807
X488.523 Y220.99 Z-9.825
Y221.01 Z-9.844
X488.509 Y221.023 Z-9.862
X488.489 Z-9.88
X488.476 Y221.008 Z-9.898
X488.478 Y220.988 Z-9.916
X488.493 Y220.976 Z-9.934
X488.513 Y220.978 Z-9.952
X488.524 Y220.994 Z-9.97
X488.521 Y221.013 Z-9.988
X488.505 Y221.024 Z-10.007
X488.486 Y221.021 Z-10.025
X488.475 Y221.004 Z-10.043
X488.48 Y220.985 Z-10.061
X488.497 Y220.975 Z-10.079
X488.515 Y220.98 Z-10.096
X488.525 Y220.997 Z-10.114
X488.52 Y221.015 Z-10.132
X488.504 Y221.025 Z-10.149
X488.485 Y221.02 Z-10.167
X488.475 Y221.004 Z-10.184
X488.48 Y220.986 Z-10.202
X488.496 Y220.975 Z-10.219
X488.514 Y220.979 Z-10.237
X488.525 Y220.995 Z-10.254
X488.521 Y221.014 Z-10.272
X488.505 Y221.025 Z-10.289
X488.486 Y221.021 Z-10.307
X488.476 Y221.005 Z-10.325
X488.479 Y220.987 Z-10.342
X488.494 Y220.976 Z-10.36
X488.513 Y220.979 Z-10.377
X488.524 Y220.994 Z-10.395
X488.521 Y221.013 Z-10.412
X488.506 Y221.024 Z-10.43
X488.487 Y221.022 Z-10.447
X488.476 Y221.006 Z-10.465
X488.478 Y220.988 Z-10.482
X488.493 Y220.976 Z-10.5
X488.512 Y220.978 Z-10.518
X488.524 Y220.993 Z-10.535
X488.522 Y221.012 Z-10.553
X488.507 Y221.024 Z-10.57
X488.488 Y221.022 Z-10.588
X488.476 Y221.008 Z-10.605
X488.478 Y220.989 Z-10.623
X488.492 Y220.976 Z-10.64
X488.511 Y220.978 Z-10.658
X488.524 Y220.992 Z-10.675
X488.523 Y221.011 Z-10.693
X488.508 Y221.024 Z-10.711
X488.489 Y221.023 Z-10.728
X488.477 Y221.009 Z-10.746
Y220.99 Z-10.763
X488.491 Y220.977 Z-10.781
X488.51 Z-10.798
X488.523 Y220.991 Z-10.816
Y221.01 Z-10.833
X488.51 Y221.023 Z-10.851
X488.491 Z-10.868
X488.477 Y221.01 Z-10.886
Y220.991 Z-10.904
X488.49 Y220.977 Z-10.921
X488.509 Z-10.939
X488.523 Y220.99 Z-10.956
Y221.009 Z-10.974
X488.511 Y221.023 Z-10.991
X488.492 Y221.024 Z-11.009
X488.478 Y221.011 Z-11.026
X488.476 Y220.992 Z-11.044
X488.489 Y220.978 Z-11.061
X488.508 Y220.976 Z-11.079
X488.522 Y220.989 Z-11.096
X488.524 Y221.008 Z-11.114
X488.512 Y221.022 Z-11.132
X488.492 Y221.024 Z-11.149
X488.478 Y221.011 Z-11.167
X488.476 Y220.992 Z-11.185
X488.489 Y220.977 Z-11.203
X488.509 Z-11.221
X488.523 Y220.99 Z-11.239
Y221.009 Z-11.257
X488.51 Y221.023 Z-11.275
X488.49 Z-11.293
X488.477 Y221.009 Z-11.311
Y220.99 Z-11.329
X488.491 Y220.977 Z-11.347
X488.511 Z-11.365
X488.524 Y220.992 Z-11.382
X488.522 Y221.011 Z-11.4
X488.508 Y221.024 Z-11.418
X488.488 Y221.022 Z-11.436
X488.476 Y221.007 Z-11.454
X488.478 Y220.988 Z-11.472
X488.493 Y220.976 Z-11.49
X488.512 Y220.978 Z-11.508
X488.524 Y220.994 Z-11.526
X488.521 Y221.013 Z-11.544
X488.506 Y221.024 Z-11.562
X488.487 Y221.021 Z-11.58
X488.476 Y221.005 Z-11.597
X488.479 Y220.986 Z-11.615
X488.495 Y220.975 Z-11.633
X488.514 Y220.979 Z-11.651
X488.525 Y220.996 Z-11.669
X488.52 Y221.015 Z-11.687
X488.504 Y221.025 Z-11.705
X488.485 Y221.02 Z-11.723
X488.475 Y221.003 Z-11.741
X488.48 Y220.985 Z-11.759
X488.497 Y220.975 Z-11.777
X488.516 Y220.981 Z-11.795
X488.525 Y220.998 Z-11.812
X488.519 Y221.016 Z-11.83
X488.502 Y221.025 Z-11.848
X488.483 Y221.019 Z-11.866
X488.475 Y221.001 Z-11.884
X488.482 Y220.983 Z-11.902
X488.499 Y220.975 Z-11.92
X488.517 Y220.982 Z-11.938
X488.525 Y221. Z-11.956
X488.517 Y221.018 Z-11.974
X488.5 Y221.025 Z-11.991
X488.482 Y221.018 Z-12.009
X488.475 Y221. Z-12.026
X488.482 Y220.983 Z-12.044
X488.5 Y220.975 Z-12.061
X488.517 Y220.982 Z-12.079
X488.525 Y220.999 Z-12.096
X488.518 Y221.017 Z-12.114
X488.501 Y221.025 Z-12.132
X488.483 Y221.019 Z-12.149
X488.475 Y221.001 Z-12.167
X488.481 Y220.983 Z-12.184
X488.498 Y220.975 Z-12.202
X488.516 Y220.981 Z-12.219
X488.525 Y220.998 Z-12.237
X488.519 Y221.016 Z-12.254
X488.502 Y221.025 Z-12.272
X488.484 Y221.019 Z-12.289
X488.475 Y221.003 Z-12.307
X488.481 Y220.984 Z-12.325
X488.497 Y220.975 Z-12.342
X488.515 Y220.98 Z-12.36
X488.525 Y220.997 Z-12.377
X488.52 Y221.015 Z-12.395
X488.503 Y221.025 Z-12.412
X488.485 Y221.02 Z-12.43
X488.475 Y221.004 Z-12.447
X488.48 Y220.985 Z-12.465
X488.496 Y220.975 Z-12.482
X488.514 Y220.98 Z-12.5
G3 X488.52 Y221.014 I-0.014 J0.02
X488.486 Y221.02 I-0.02 J-0.014
X488.48 Y220.986 I0.014 J-0.02
X488.514 Y220.98 I0.02 J0.014
G1 X488.52 Y220.988
X488.517 Y220.997
X488.5 Y221.
Z5.
X503.5
Z1.1
Z-0.5
X503.513 Y220.988
X503.521 Y220.991
X503.525 Y221.
X503.518 Y221.018 Z-0.518
X503.5 Y221.025 Z-0.535
X503.483 Y221.018 Z-0.553
X503.475 Y221.001 Z-0.57
X503.482 Y220.983 Z-0.588
X503.499 Y220.975 Z-0.605
X503.517 Y220.982 Z-0.623
X503.525 Y220.999 Z-0.64
X503.519 Y221.017 Z-0.658
X503.501 Y221.025 Z-0.675
X503.484 Y221.019 Z-0.693
X503.475 Y221.002 Z-0.711
X503.481 Y220.984 Z-0.728
X503.498 Y220.975 Z-0.746
X503.516 Y220.981 Z-0.763
X503.525 Y220.998 Z-0.781
X503.519 Y221.016 Z-0.798
X503.503 Y221.025 Z-0.816
X503.484 Y221.02 Z-0.833
X503.475 Y221.003 Z-0.851
X503.48 Y220.985 Z-0.868
X503.497 Y220.975 Z-0.886
X503.515 Y220.98 Z-0.904
X503.525 Y220.996 Z-0.921
X503.52 Y221.015 Z-0.939
X503.504 Y221.025 Z-0.956
X503.485 Y221.02 Z-0.974
X503.475 Y221.004 Z-0.991
X503.48 Y220.986 Z-1.009
X503.496 Y220.975 Z-1.026
X503.514 Y220.979 Z-1.044
X503.525 Y220.995 Z-1.061
X503.521 Y221.014 Z-1.079
X503.505 Y221.024 Z-1.096
X503.486 Y221.021 Z-1.114
X503.476 Y221.005 Z-1.132
X503.479 Y220.987 Z-1.149
X503.494 Y220.976 Z-1.167
X503.513 Y220.979 Z-1.184
X503.524 Y220.994 Z-1.202
X503.521 Y221.013 Z-1.219
X503.506 Y221.024 Z-1.237
X503.487 Y221.022 Z-1.254
X503.476 Y221.007 Z-1.272
X503.478 Y220.988 Z-1.289
X503.493 Y220.976 Z-1.307
X503.512 Y220.978 Z-1.325
X503.524 Y220.993 Z-1.342
X503.522 Y221.012 Z-1.36
X503.507 Y221.024 Z-1.377
X503.488 Y221.022 Z-1.395
X503.476 Y221.008 Z-1.412
X503.478 Y220.989 Z-1.43
X503.492 Y220.976 Z-1.447
X503.511 Y220.978 Z-1.465
X503.524 Y220.992 Z-1.482
X503.523 Y221.011 Z-1.5
X503.509 Y221.024 Z-1.518
X503.49 Y221.023 Z-1.535
X503.477 Y221.009 Z-1.553
Y220.99 Z-1.57
X503.491 Y220.977 Z-1.588
X503.51 Z-1.605
X503.523 Y220.991 Z-1.623
Y221.01 Z-1.64
X503.51 Y221.023 Z-1.658
X503.491 Z-1.675
X503.477 Y221.01 Z-1.693
Y220.991 Z-1.711
X503.49 Y220.977 Z-1.728
X503.509 Z-1.746
X503.523 Y220.99 Z-1.763
Y221.009 Z-1.781
X503.511 Y221.023 Z-1.798
X503.492 Y221.024 Z-1.816
X503.478 Y221.011 Z-1.833
X503.476 Y220.992 Z-1.851
X503.489 Y220.978 Z-1.868
X503.508 Y220.976 Z-1.886
X503.522 Y220.988 Z-1.904
X503.524 Y221.007 Z-1.921
X503.512 Y221.022 Z-1.939
X503.493 Y221.024 Z-1.956
X503.478 Y221.012 Z-1.974
X503.476 Y220.993 Z-1.991
X503.488 Y220.978 Z-2.009
X503.507 Y220.976 Z-2.026
X503.522 Y220.987 Z-2.044
X503.524 Y221.006 Z-2.061
X503.513 Y221.021 Z-2.079
X503.494 Y221.024 Z-2.096
X503.479 Y221.013 Z-2.114
X503.476 Y220.994 Z-2.132
X503.487 Y220.979 Z-2.149
X503.505 Y220.976 Z-2.167
X503.521 Y220.986 Z-2.184
X503.524 Y221.005 Z-2.202
X503.514 Y221.021 Z-2.219
X503.495 Y221.025 Z-2.237
X503.479 Y221.014 Z-2.254
X503.475 Y220.996 Z-2.272
X503.486 Y220.98 Z-2.289
X503.504 Y220.975 Z-2.307
X503.52 Y220.985 Z-2.325
X503.525 Y221.004 Z-2.342
X503.515 Y221.02 Z-2.36
X503.496 Y221.025 Z-2.377
X503.48 Y221.015 Z-2.395
X503.475 Y220.997 Z-2.412
X503.485 Y220.98 Z-2.43
X503.503 Y220.975 Z-2.447
X503.52 Y220.984 Z-2.465
X503.525 Y221.003 Z-2.482
X503.516 Y221.019 Z-2.5
X503.498 Y221.025 Z-2.518
X503.481 Y221.016 Z-2.535
X503.475 Y220.998 Z-2.553
X503.484 Y220.981 Z-2.57
X503.502 Y220.975 Z-2.588
X503.519 Y220.984 Z-2.605
X503.525 Y221.002 Z-2.623
X503.517 Y221.019 Z-2.64
X503.499 Y221.025 Z-2.658
X503.482 Y221.017 Z-2.675
X503.475 Y220.999 Z-2.693
X503.483 Y220.982 Z-2.711
X503.501 Y220.975 Z-2.728
X503.518 Y220.983 Z-2.746
X503.525 Y221. Z-2.763
X503.518 Y221.018 Z-2.781
X503.5 Y221.025 Z-2.798
X503.482 Y221.018 Z-2.816
X503.475 Y221. Z-2.833
X503.482 Y220.983 Z-2.851
X503.499 Y220.975 Z-2.868
X503.517 Y220.982 Z-2.886
X503.525 Y220.999 Z-2.904
X503.518 Y221.017 Z-2.921
X503.501 Y221.025 Z-2.939
X503.483 Y221.019 Z-2.956
X503.475 Y221.001 Z-2.974
X503.481 Y220.984 Z-2.991
X503.498 Y220.975 Z-3.009
X503.516 Y220.981 Z-3.026
X503.525 Y220.998 Z-3.044
X503.519 Y221.016 Z-3.061
X503.502 Y221.025 Z-3.079
X503.484 Y221.019 Z-3.096
X503.475 Y221.003 Z-3.114
X503.48 Y220.984 Z-3.132
X503.497 Y220.975 Z-3.149
X503.515 Y220.98 Z-3.167
X503.525 Y220.997 Z-3.184
X503.52 Y221.015 Z-3.202
X503.504 Y221.025 Z-3.219
X503.485 Y221.02 Z-3.237
X503.475 Y221.004 Z-3.254
X503.48 Y220.985 Z-3.272
X503.496 Y220.975 Z-3.289
X503.514 Y220.98 Z-3.307
X503.525 Y220.996 Z-3.325
X503.521 Y221.014 Z-3.342
X503.505 Y221.025 Z-3.36
X503.486 Y221.021 Z-3.377
X503.476 Y221.005 Z-3.395
X503.479 Y220.986 Z-3.412
X503.495 Y220.976 Z-3.43
X503.513 Y220.979 Z-3.447
X503.524 Y220.994 Z-3.465
X503.521 Y221.013 Z-3.482
X503.506 Y221.024 Z-3.5
X503.487 Y221.021 Z-3.518
X503.476 Y221.006 Z-3.535
X503.478 Y220.987 Z-3.553
X503.494 Y220.976 Z-3.57
X503.512 Y220.978 Z-3.588
X503.524 Y220.993 Z-3.605
X503.522 Y221.012 Z-3.623
X503.507 Y221.024 Z-3.64
X503.488 Y221.022 Z-3.658
X503.476 Y221.007 Z-3.675
X503.478 Y220.988 Z-3.693
X503.492 Y220.976 Z-3.711
X503.511 Y220.978 Z-3.728
X503.524 Y220.992 Z-3.746
X503.522 Y221.011 Z-3.763
X503.508 Y221.024 Z-3.781
X503.489 Y221.023 Z-3.798
X503.476 Y221.008 Z-3.816
X503.477 Y220.99 Z-3.833
X503.491 Y220.977 Z-3.851
X503.51 Z-3.868
X503.523 Y220.991 Z-3.886
Y221.01 Z-3.904
X503.509 Y221.023 Z-3.921
X503.49 Z-3.939
X503.477 Y221.01 Z-3.956
Y220.991 Z-3.974
X503.49 Y220.977 Z-3.991
X503.509 Z-4.009
X503.523 Y220.99 Z-4.026
Y221.009 Z-4.044
X503.51 Y221.023 Z-4.061
X503.491 Z-4.079
X503.477 Y221.011 Z-4.096
X503.476 Y220.992 Z-4.114
X503.489 Y220.978 Z-4.132
X503.508 Y220.976 Z-4.149
X503.522 Y220.989 Z-4.167
X503.524 Y221.008 Z-4.184
X503.511 Y221.022 Z-4.202
X503.493 Y221.024 Z-4.219
X503.478 Y221.012 Z-4.237
X503.476 Y220.993 Z-4.254
X503.488 Y220.978 Z-4.272
X503.507 Y220.976 Z-4.289
X503.522 Y220.988 Z-4.307
X503.524 Y221.007 Z-4.325
X503.513 Y221.022 Z-4.342
X503.494 Y221.024 Z-4.36
X503.479 Y221.013 Z-4.377
X503.476 Y220.994 Z-4.395
X503.487 Y220.979 Z-4.412
X503.506 Y220.976 Z-4.43
X503.521 Y220.987 Z-4.447
X503.524 Y221.005 Z-4.465
X503.514 Y221.021 Z-4.482
X503.495 Y221.024 Z-4.5
X503.479 Y221.014 Z-4.518
X503.475 Y220.995 Z-4.535
X503.486 Y220.979 Z-4.553
X503.505 Y220.975 Z-4.57
X503.52 Y220.986 Z-4.588
X503.525 Y221.004 Z-4.605
X503.515 Y221.02 Z-4.623
X503.496 Y221.025 Z-4.64
X503.48 Y221.015 Z-4.658
X503.475 Y220.996 Z-4.675
X503.485 Y220.98 Z-4.693
X503.503 Y220.975 Z-4.711
X503.52 Y220.985 Z-4.728
X503.525 Y221.003 Z-4.746
X503.516 Y221.02 Z-4.763
X503.497 Y221.025 Z-4.781
X503.481 Y221.016 Z-4.798
X503.475 Y220.998 Z-4.816
X503.484 Y220.981 Z-4.833
X503.502 Y220.975 Z-4.851
X503.519 Y220.984 Z-4.868
X503.525 Y221.002 Z-4.886
X503.516 Y221.019 Z-4.904
X503.498 Y221.025 Z-4.921
X503.481 Y221.017 Z-4.939
X503.475 Y220.999 Z-4.956
X503.483 Y220.982 Z-4.974
X503.501 Y220.975 Z-4.991
X503.518 Y220.983 Z-5.009
X503.525 Y221.001 Z-5.026
X503.517 Y221.018 Z-5.044
X503.5 Y221.025 Z-5.061
X503.482 Y221.018 Z-5.079
X503.475 Y221. Z-5.096
X503.482 Y220.982 Z-5.114
X503.5 Y220.975 Z-5.132
X503.517 Y220.982 Z-5.149
X503.525 Y220.999 Z-5.167
X503.518 Y221.017 Z-5.184
X503.501 Y221.025 Z-5.202
X503.483 Y221.018 Z-5.219
X503.475 Y221.001 Z-5.237
X503.481 Y220.983 Z-5.254
X503.499 Y220.975 Z-5.272
X503.517 Y220.981 Z-5.289
X503.525 Y220.998 Z-5.307
X503.519 Y221.016 Z-5.325
X503.502 Y221.025 Z-5.342
X503.484 Y221.019 Z-5.36
X503.475 Y221.002 Z-5.377
X503.481 Y220.984 Z-5.395
X503.497 Y220.975 Z-5.412
X503.516 Y220.98 Z-5.43
X503.525 Y220.997 Z-5.447
X503.52 Y221.015 Z-5.465
X503.503 Y221.025 Z-5.482
X503.485 Y221.02 Z-5.5
X503.475 Y221.004 Z-5.518
X503.48 Y220.985 Z-5.535
X503.496 Y220.975 Z-5.553
X503.515 Y220.98 Z-5.57
X503.525 Y220.996 Z-5.588
X503.52 Y221.014 Z-5.605
X503.504 Y221.025 Z-5.623
X503.486 Y221.021 Z-5.64
X503.475 Y221.005 Z-5.658
X503.479 Y220.986 Z-5.675
X503.495 Y220.976 Z-5.693
X503.514 Y220.979 Z-5.711
X503.524 Y220.995 Z-5.728
X503.521 Y221.013 Z-5.746
X503.506 Y221.024 Z-5.763
X503.487 Y221.021 Z-5.781
X503.476 Y221.006 Z-5.798
X503.479 Y220.987 Z-5.816
X503.494 Y220.976 Z-5.833
X503.513 Y220.978 Z-5.851
X503.524 Y220.994 Z-5.868
X503.522 Y221.012 Z-5.886
X503.507 Y221.024 Z-5.904
X503.488 Y221.022 Z-5.921
X503.476 Y221.007 Z-5.939
X503.478 Y220.988 Z-5.956
X503.493 Y220.976 Z-5.974
X503.512 Y220.978 Z-5.991
X503.524 Y220.992 Z-6.009
X503.522 Y221.011 Z-6.026
X503.508 Y221.024 Z-6.044
X503.489 Y221.022 Z-6.061
X503.476 Y221.008 Z-6.079
X503.477 Y220.989 Z-6.096
X503.492 Y220.976 Z-6.114
X503.511 Y220.977 Z-6.132
X503.523 Y220.991 Z-6.149
Y221.01 Z-6.167
X503.509 Y221.023 Z-6.184
X503.49 Z-6.202
X503.477 Y221.009 Z-6.219
Y220.99 Z-6.237
X503.49 Y220.977 Z-6.254
X503.509 Z-6.272
X503.523 Y220.99 Z-6.289
Y221.009 Z-6.307
X503.51 Y221.023 Z-6.325
X503.491 Z-6.342
X503.477 Y221.01 Z-6.36
Y220.991 Z-6.377
X503.489 Y220.977 Z-6.395
X503.508 Y220.976 Z-6.412
X503.522 Y220.989 Z-6.43
X503.524 Y221.008 Z-6.447
X503.511 Y221.022 Z-6.465
X503.492 Y221.024 Z-6.482
X503.478 Y221.011 Z-6.5
X503.476 Y220.993 Z-6.518
X503.488 Y220.978 Z-6.535
X503.507 Y220.976 Z-6.553
X503.522 Y220.988 Z-6.57
X503.524 Y221.007 Z-6.588
X503.512 Y221.022 Z-6.605
X503.493 Y221.024 Z-6.623
X503.478 Y221.013 Z-6.64
X503.476 Y220.994 Z-6.658
X503.487 Y220.979 Z-6.675
X503.506 Y220.976 Z-6.693
X503.521 Y220.987 Z-6.711
X503.524 Y221.006 Z-6.728
X503.513 Y221.021 Z-6.746
X503.495 Y221.024 Z-6.763
X503.479 Y221.014 Z-6.781
X503.476 Y220.995 Z-6.798
X503.486 Y220.979 Z-6.816
X503.505 Y220.975 Z-6.833
X503.521 Y220.986 Z-6.851
X503.525 Y221.005 Z-6.868
X503.514 Y221.021 Z-6.886
X503.496 Y221.025 Z-6.904
X503.48 Y221.015 Z-6.921
X503.475 Y220.996 Z-6.939
X503.485 Y220.98 Z-6.956
X503.504 Y220.975 Z-6.974
X503.52 Y220.985 Z-6.991
X503.525 Y221.003 Z-7.009
X503.515 Y221.02 Z-7.026
X503.497 Y221.025 Z-7.044
X503.48 Y221.016 Z-7.061
X503.475 Y220.997 Z-7.079
X503.484 Y220.981 Z-7.096
X503.502 Y220.975 Z-7.114
X503.519 Y220.984 Z-7.132
X503.525 Y221.002 Z-7.149
X503.516 Y221.019 Z-7.167
X503.498 Y221.025 Z-7.184
X503.481 Y221.016 Z-7.202
X503.475 Y220.998 Z-7.219
X503.483 Y220.981 Z-7.237
X503.501 Y220.975 Z-7.254
X503.518 Y220.983 Z-7.272
X503.525 Y221.001 Z-7.289
X503.517 Y221.018 Z-7.307
X503.499 Y221.025 Z-7.325
X503.482 Y221.017 Z-7.342
X503.475 Y221. Z-7.36
X503.482 Y220.982 Z-7.377
X503.5 Y220.975 Z-7.395
X503.518 Y220.982 Z-7.412
X503.525 Y221. Z-7.43
X503.518 Y221.017 Z-7.447
X503.501 Y221.025 Z-7.465
X503.483 Y221.018 Z-7.482
X503.475 Y221.001 Z-7.5
X503.482 Y220.983 Z-7.518
X503.499 Y220.975 Z-7.535
X503.517 Y220.981 Z-7.553
X503.525 Y220.999 Z-7.57
X503.519 Y221.017 Z-7.588
X503.502 Y221.025 Z-7.605
X503.484 Y221.019 Z-7.623
X503.475 Y221.002 Z-7.64
X503.481 Y220.984 Z-7.658
X503.498 Y220.975 Z-7.675
X503.516 Y220.981 Z-7.693
X503.525 Y220.997 Z-7.711
X503.52 Y221.016 Z-7.728
X503.503 Y221.025 Z-7.746
X503.485 Y221.02 Z-7.763
X503.475 Y221.003 Z-7.781
X503.48 Y220.985 Z-7.798
X503.496 Y220.975 Z-7.816
X503.515 Y220.98 Z-7.833
X503.525 Y220.996 Z-7.851
X503.52 Y221.015 Z-7.868
X503.504 Y221.025 Z-7.886
X503.486 Y221.02 Z-7.904
X503.475 Y221.004 Z-7.921
X503.479 Y220.986 Z-7.939
X503.495 Y220.975 Z-7.956
X503.514 Y220.979 Z-7.974
X503.524 Y220.995 Z-7.991
X503.521 Y221.014 Z-8.009
X503.505 Y221.024 Z-8.026
X503.487 Y221.021 Z-8.044
X503.476 Y221.006 Z-8.061
X503.479 Y220.987 Z-8.079
X503.494 Y220.976 Z-8.096
X503.513 Y220.979 Z-8.114
X503.524 Y220.994 Z-8.132
X503.522 Y221.013 Z-8.149
X503.506 Y221.024 Z-8.167
X503.488 Y221.022 Z-8.184
X503.476 Y221.007 Z-8.202
X503.478 Y220.988 Z-8.219
X503.493 Y220.976 Z-8.237
X503.512 Y220.978 Z-8.254
X503.524 Y220.993 Z-8.272
X503.522 Y221.012 Z-8.289
X503.508 Y221.024 Z-8.307
X503.489 Y221.022 Z-8.325
X503.476 Y221.008 Z-8.342
X503.478 Y220.989 Z-8.36
X503.492 Y220.976 Z-8.377
X503.511 Y220.977 Z-8.395
X503.524 Y220.992 Z-8.413
X503.522 Y221.012 Z-8.431
X503.507 Y221.024 Z-8.449
X503.488 Y221.022 Z-8.467
X503.476 Y221.006 Z-8.485
X503.479 Y220.987 Z-8.503
X503.495 Y220.976 Z-8.522
X503.514 Y220.979 Z-8.54
X503.525 Y220.996 Z-8.558
X503.52 Y221.015 Z-8.576
X503.503 Y221.025 Z-8.594
X503.484 Y221.019 Z-8.612
X503.475 Y221.002 Z-8.63
X503.481 Y220.984 Z-8.648
X503.499 Y220.975 Z-8.666
X503.517 Y220.982 Z-8.684
X503.525 Y221. Z-8.703
X503.518 Y221.018 Z-8.721
X503.499 Y221.025 Z-8.739
X503.482 Y221.017 Z-8.757
X503.475 Y220.998 Z-8.775
X503.484 Y220.981 Z-8.793
X503.503 Y220.975 Z-8.811
X503.52 Y220.985 Z-8.829
X503.525 Y221.004 Z-8.847
X503.515 Y221.02 Z-8.866
X503.496 Y221.025 Z-8.884
X503.479 Y221.014 Z-8.902
X503.476 Y220.995 Z-8.92
X503.487 Y220.979 Z-8.938
X503.506 Y220.976 Z-8.956
X503.522 Y220.988 Z-8.974
X503.524 Y221.007 Z-8.992
X503.511 Y221.022 Z-9.01
X503.492 Y221.024 Z-9.029
X503.477 Y221.011 Z-9.047
Y220.991 Z-9.065
X503.49 Y220.977 Z-9.083
X503.51 Z-9.101
X503.523 Y220.991 Z-9.119
Y221.011 Z-9.137
X503.508 Y221.024 Z-9.155
X503.488 Y221.022 Z-9.173
X503.476 Y221.007 Z-9.192
X503.478 Y220.988 Z-9.21
X503.494 Y220.976 Z-9.228
X503.513 Y220.979 Z-9.246
X503.524 Y220.995 Z-9.264
X503.521 Y221.014 Z-9.282
X503.504 Y221.025 Z-9.3
X503.485 Y221.02 Z-9.318
X503.475 Y221.003 Z-9.336
X503.481 Y220.984 Z-9.355
X503.498 Y220.975 Z-9.373
X503.516 Y220.981 Z-9.391
X503.525 Y220.999 Z-9.409
X503.518 Y221.017 Z-9.427
X503.5 Y221.025 Z-9.445
X503.482 Y221.018 Z-9.463
X503.475 Y220.999 Z-9.481
X503.483 Y220.982 Z-9.499
X503.502 Y220.975 Z-9.518
X503.519 Y220.984 Z-9.536
X503.525 Y221.003 Z-9.554
X503.515 Y221.02 Z-9.572
X503.496 Y221.025 Z-9.59
X503.48 Y221.015 Z-9.608
X503.475 Y220.996 Z-9.626
X503.486 Y220.979 Z-9.644
X503.505 Y220.976 Z-9.662
X503.521 Y220.987 Z-9.681
X503.524 Y221.006 Z-9.699
X503.512 Y221.022 Z-9.717
X503.493 Y221.024 Z-9.735
X503.478 Y221.011 Z-9.753
X503.476 Y220.992 Z-9.771
X503.489 Y220.977 Z-9.789
X503.509 Z-9.807
X503.523 Y220.99 Z-9.825
Y221.01 Z-9.844
X503.509 Y221.023 Z-9.862
X503.489 Z-9.88
X503.476 Y221.008 Z-9.898
X503.478 Y220.988 Z-9.916
X503.493 Y220.976 Z-9.934
X503.513 Y220.978 Z-9.952
X503.524 Y220.994 Z-9.97
X503.521 Y221.013 Z-9.988
X503.505 Y221.024 Z-10.007
X503.486 Y221.021 Z-10.025
X503.475 Y221.004 Z-10.043
X503.48 Y220.985 Z-10.061
X503.497 Y220.975 Z-10.079
X503.515 Y220.98 Z-10.096
X503.525 Y220.997 Z-10.114
X503.52 Y221.015 Z-10.132
X503.504 Y221.025 Z-10.149
X503.485 Y221.02 Z-10.167
X503.475 Y221.004 Z-10.184
X503.48 Y220.986 Z-10.202
X503.496 Y220.975 Z-10.219
X503.514 Y220.979 Z-10.237
X503.525 Y220.995 Z-10.254
X503.521 Y221.014 Z-10.272
X503.505 Y221.025 Z-10.289
X503.486 Y221.021 Z-10.307
X503.476 Y221.005 Z-10.325
X503.479 Y220.987 Z-10.342
X503.494 Y220.976 Z-10.36
X503.513 Y220.979 Z-10.377
X503.524 Y220.994 Z-10.395
X503.521 Y221.013 Z-10.412
X503.506 Y221.024 Z-10.43
X503.487 Y221.022 Z-10.447
X503.476 Y221.006 Z-10.465
X503.478 Y220.988 Z-10.482
X503.493 Y220.976 Z-10.5
X503.512 Y220.978 Z-10.518
X503.524 Y220.993 Z-10.535
X503.522 Y221.012 Z-10.553
X503.507 Y221.024 Z-10.57
X503.488 Y221.022 Z-10.588
X503.476 Y221.008 Z-10.605
X503.478 Y220.989 Z-10.623
X503.492 Y220.976 Z-10.64
X503.511 Y220.978 Z-10.658
X503.524 Y220.992 Z-10.675
X503.523 Y221.011 Z-10.693
X503.508 Y221.024 Z-10.711
X503.489 Y221.023 Z-10.728
X503.477 Y221.009 Z-10.746
Y220.99 Z-10.763
X503.491 Y220.977 Z-10.781
X503.51 Z-10.798
X503.523 Y220.991 Z-10.816
Y221.01 Z-10.833
X503.51 Y221.023 Z-10.851
X503.491 Z-10.868
X503.477 Y221.01 Z-10.886
Y220.991 Z-10.904
X503.49 Y220.977 Z-10.921
X503.509 Z-10.939
X503.523 Y220.99 Z-10.956
Y221.009 Z-10.974
X503.511 Y221.023 Z-10.991
X503.492 Y221.024 Z-11.009
X503.478 Y221.011 Z-11.026
X503.476 Y220.992 Z-11.044
X503.489 Y220.978 Z-11.061
X503.508 Y220.976 Z-11.079
X503.522 Y220.989 Z-11.096
X503.524 Y221.008 Z-11.114
X503.512 Y221.022 Z-11.132
X503.492 Y221.024 Z-11.149
X503.478 Y221.011 Z-11.167
X503.476 Y220.992 Z-11.185
X503.489 Y220.977 Z-11.203
X503.509 Z-11.221
X503.523 Y220.99 Z-11.239
Y221.009 Z-11.257
X503.51 Y221.023 Z-11.275
X503.49 Z-11.293
X503.477 Y221.009 Z-11.311
Y220.99 Z-11.329
X503.491 Y220.977 Z-11.347
X503.511 Z-11.365
X503.524 Y220.992 Z-11.382
X503.522 Y221.011 Z-11.4
X503.508 Y221.024 Z-11.418
X503.488 Y221.022 Z-11.436
X503.476 Y221.007 Z-11.454
X503.478 Y220.988 Z-11.472
X503.493 Y220.976 Z-11.49
X503.512 Y220.978 Z-11.508
X503.524 Y220.994 Z-11.526
X503.521 Y221.013 Z-11.544
X503.506 Y221.024 Z-11.562
X503.487 Y221.021 Z-11.58
X503.476 Y221.005 Z-11.597
X503.479 Y220.986 Z-11.615
X503.495 Y220.975 Z-11.633
X503.514 Y220.979 Z-11.651
X503.525 Y220.996 Z-11.669
X503.52 Y221.015 Z-11.687
X503.504 Y221.025 Z-11.705
X503.485 Y221.02 Z-11.723
X503.475 Y221.003 Z-11.741
X503.48 Y220.985 Z-11.759
X503.497 Y220.975 Z-11.777
X503.516 Y220.981 Z-11.795
X503.525 Y220.998 Z-11.812
X503.519 Y221.016 Z-11.83
X503.502 Y221.025 Z-11.848
X503.483 Y221.019 Z-11.866
X503.475 Y221.001 Z-11.884
X503.482 Y220.983 Z-11.902
X503.499 Y220.975 Z-11.92
X503.517 Y220.982 Z-11.938
X503.525 Y221. Z-11.956
X503.517 Y221.018 Z-11.974
X503.5 Y221.025 Z-11.991
X503.482 Y221.018 Z-12.009
X503.475 Y221. Z-12.026
X503.482 Y220.983 Z-12.044
X503.5 Y220.975 Z-12.061
X503.517 Y220.982 Z-12.079
X503.525 Y220.999 Z-12.096
X503.518 Y221.017 Z-12.114
X503.501 Y221.025 Z-12.132
X503.483 Y221.019 Z-12.149
X503.475 Y221.001 Z-12.167
X503.481 Y220.983 Z-12.184
X503.498 Y220.975 Z-12.202
X503.516 Y220.981 Z-12.219
X503.525 Y220.998 Z-12.237
X503.519 Y221.016 Z-12.254
X503.502 Y221.025 Z-12.272
X503.484 Y221.019 Z-12.289
X503.475 Y221.003 Z-12.307
X503.481 Y220.984 Z-12.325
X503.497 Y220.975 Z-12.342
X503.515 Y220.98 Z-12.36
X503.525 Y220.997 Z-12.377
X503.52 Y221.015 Z-12.395
X503.503 Y221.025 Z-12.412
X503.485 Y221.02 Z-12.43
X503.475 Y221.004 Z-12.447
X503.48 Y220.985 Z-12.465
X503.496 Y220.975 Z-12.482
X503.514 Y220.98 Z-12.5
G3 X503.52 Y221.014 I-0.014 J0.02
X503.486 Y221.02 I-0.02 J-0.014
X503.48 Y220.986 I0.014 J-0.02
X503.514 Y220.98 I0.02 J0.014
G1 X503.52 Y220.988
X503.517 Y220.997
X503.5 Y221.
Z5.
X501.784 Y296.356
Z1.1
Z-0.5
X501.796 Y296.344
X501.805 Y296.347
X501.809 Y296.356
X501.802 Y296.374 Z-0.518
X501.784 Y296.381 Z-0.535
X501.767 Y296.374 Z-0.553
X501.759 Y296.357 Z-0.57
X501.766 Y296.339 Z-0.588
X501.783 Y296.331 Z-0.605
X501.801 Y296.338 Z-0.623
X501.809 Y296.355 Z-0.64
X501.803 Y296.373 Z-0.658
X501.785 Y296.381 Z-0.675
X501.767 Y296.375 Z-0.693
X501.759 Y296.358 Z-0.711
X501.765 Y296.34 Z-0.728
X501.782 Y296.331 Z-0.746
X501.8 Y296.337 Z-0.763
X501.809 Y296.354 Z-0.781
X501.803 Y296.372 Z-0.798
X501.787 Y296.381 Z-0.816
X501.768 Y296.376 Z-0.833
X501.759 Y296.359 Z-0.851
X501.764 Y296.341 Z-0.868
X501.781 Y296.332 Z-0.886
X501.799 Y296.336 Z-0.904
X501.809 Y296.353 Z-0.921
X501.804 Y296.371 Z-0.939
X501.788 Y296.381 Z-0.956
X501.769 Y296.377 Z-0.974
X501.759 Y296.361 Z-0.991
X501.763 Y296.342 Z-1.009
X501.779 Y296.332 Z-1.026
X501.798 Y296.336 Z-1.044
X501.808 Y296.352 Z-1.061
X501.805 Y296.37 Z-1.079
X501.789 Y296.381 Z-1.096
X501.77 Y296.377 Z-1.114
X501.76 Y296.362 Z-1.132
X501.763 Y296.343 Z-1.149
X501.778 Y296.332 Z-1.167
X501.797 Y296.335 Z-1.184
X501.808 Y296.35 Z-1.202
X501.805 Y296.369 Z-1.219
X501.79 Y296.381 Z-1.237
X501.771 Y296.378 Z-1.254
X501.76 Y296.363 Z-1.272
X501.762 Y296.344 Z-1.289
X501.777 Y296.332 Z-1.307
X501.796 Y296.334 Z-1.325
X501.808 Y296.349 Z-1.342
X501.806 Y296.368 Z-1.36
X501.791 Y296.38 Z-1.377
X501.772 Y296.378 Z-1.395
X501.76 Y296.364 Z-1.412
X501.762 Y296.345 Z-1.43
X501.776 Y296.333 Z-1.447
X501.795 Y296.334 Z-1.465
X501.808 Y296.348 Z-1.482
X501.807 Y296.367 Z-1.5
X501.792 Y296.38 Z-1.518
X501.773 Y296.379 Z-1.535
X501.761 Y296.365 Z-1.553
Y296.346 Z-1.57
X501.775 Y296.333 Z-1.588
X501.794 Z-1.605
X501.807 Y296.347 Z-1.623
Y296.366 Z-1.64
X501.794 Y296.379 Z-1.658
X501.775 Z-1.675
X501.761 Y296.366 Z-1.693
Y296.347 Z-1.711
X501.774 Y296.333 Z-1.728
X501.793 Z-1.746
X501.807 Y296.346 Z-1.763
Y296.365 Z-1.781
X501.795 Y296.379 Z-1.798
X501.776 Y296.38 Z-1.816
X501.761 Y296.367 Z-1.833
X501.76 Y296.348 Z-1.851
X501.773 Y296.334 Z-1.868
X501.792 Y296.333 Z-1.886
X501.806 Y296.345 Z-1.904
X501.808 Y296.364 Z-1.921
X501.796 Y296.378 Z-1.939
X501.777 Y296.38 Z-1.956
X501.762 Y296.368 Z-1.974
X501.76 Y296.349 Z-1.991
X501.772 Y296.335 Z-2.009
X501.79 Y296.332 Z-2.026
X501.806 Y296.344 Z-2.044
X501.808 Y296.363 Z-2.061
X501.797 Y296.378 Z-2.079
X501.778 Y296.381 Z-2.096
X501.763 Y296.369 Z-2.114
X501.76 Y296.351 Z-2.132
X501.771 Y296.335 Z-2.149
X501.789 Y296.332 Z-2.167
X501.805 Y296.343 Z-2.184
X501.808 Y296.361 Z-2.202
X501.798 Y296.377 Z-2.219
X501.779 Y296.381 Z-2.237
X501.763 Y296.37 Z-2.254
X501.759 Y296.352 Z-2.272
X501.77 Y296.336 Z-2.289
X501.788 Y296.332 Z-2.307
X501.804 Y296.342 Z-2.325
X501.809 Y296.36 Z-2.342
X501.799 Y296.376 Z-2.36
X501.78 Y296.381 Z-2.377
X501.764 Y296.371 Z-2.395
X501.759 Y296.353 Z-2.412
X501.769 Y296.337 Z-2.43
X501.787 Y296.332 Z-2.447
X501.803 Y296.341 Z-2.465
X501.809 Y296.359 Z-2.482
X501.8 Y296.376 Z-2.5
X501.782 Y296.381 Z-2.518
X501.765 Y296.372 Z-2.535
X501.759 Y296.354 Z-2.553
X501.768 Y296.337 Z-2.57
X501.786 Y296.331 Z-2.588
X501.803 Y296.34 Z-2.605
X501.809 Y296.358 Z-2.623
X501.801 Y296.375 Z-2.64
X501.783 Y296.381 Z-2.658
X501.766 Y296.373 Z-2.675
X501.759 Y296.355 Z-2.693
X501.767 Y296.338 Z-2.711
X501.785 Y296.331 Z-2.728
X501.802 Y296.339 Z-2.746
X501.809 Y296.357 Z-2.763
X501.802 Y296.374 Z-2.781
X501.784 Y296.381 Z-2.798
X501.766 Y296.374 Z-2.816
X501.759 Y296.357 Z-2.833
X501.766 Y296.339 Z-2.851
X501.783 Y296.331 Z-2.868
X501.801 Y296.338 Z-2.886
X501.809 Y296.355 Z-2.904
X501.802 Y296.373 Z-2.921
X501.785 Y296.381 Z-2.939
X501.767 Y296.375 Z-2.956
X501.759 Y296.358 Z-2.974
X501.765 Y296.34 Z-2.991
X501.782 Y296.331 Z-3.009
X501.8 Y296.337 Z-3.026
X501.809 Y296.354 Z-3.044
X501.803 Y296.372 Z-3.061
X501.786 Y296.381 Z-3.079
X501.768 Y296.376 Z-3.096
X501.759 Y296.359 Z-3.114
X501.764 Y296.341 Z-3.132
X501.781 Y296.332 Z-3.149
X501.799 Y296.337 Z-3.167
X501.809 Y296.353 Z-3.184
X501.804 Y296.371 Z-3.202
X501.787 Y296.381 Z-3.219
X501.769 Y296.376 Z-3.237
X501.759 Y296.36 Z-3.254
X501.764 Y296.342 Z-3.272
X501.78 Y296.332 Z-3.289
X501.798 Y296.336 Z-3.307
X501.809 Y296.352 Z-3.325
X501.805 Y296.37 Z-3.342
X501.789 Y296.381 Z-3.36
X501.77 Y296.377 Z-3.377
X501.759 Y296.361 Z-3.395
X501.763 Y296.343 Z-3.412
X501.779 Y296.332 Z-3.43
X501.797 Y296.335 Z-3.447
X501.808 Y296.351 Z-3.465
X501.805 Y296.369 Z-3.482
X501.79 Y296.381 Z-3.5
X501.771 Y296.378 Z-3.518
X501.76 Y296.363 Z-3.535
X501.762 Y296.344 Z-3.553
X501.777 Y296.332 Z-3.57
X501.796 Y296.335 Z-3.588
X501.808 Y296.35 Z-3.605
X501.806 Y296.368 Z-3.623
X501.791 Y296.38 Z-3.64
X501.772 Y296.378 Z-3.658
X501.76 Y296.364 Z-3.675
X501.762 Y296.345 Z-3.693
X501.776 Y296.333 Z-3.711
X501.795 Y296.334 Z-3.728
X501.808 Y296.348 Z-3.746
X501.806 Y296.367 Z-3.763
X501.792 Y296.38 Z-3.781
X501.773 Y296.379 Z-3.798
X501.76 Y296.365 Z-3.816
X501.761 Y296.346 Z-3.833
X501.775 Y296.333 Z-3.851
X501.794 Y296.334 Z-3.868
X501.807 Y296.347 Z-3.886
Y296.366 Z-3.904
X501.793 Y296.38 Z-3.921
X501.774 Y296.379 Z-3.939
X501.761 Y296.366 Z-3.956
Y296.347 Z-3.974
X501.774 Y296.333 Z-3.991
X501.793 Z-4.009
X501.807 Y296.346 Z-4.026
Y296.365 Z-4.044
X501.794 Y296.379 Z-4.061
X501.775 Y296.38 Z-4.079
X501.761 Y296.367 Z-4.096
X501.76 Y296.348 Z-4.114
X501.773 Y296.334 Z-4.132
X501.792 Y296.333 Z-4.149
X501.806 Y296.345 Z-4.167
X501.808 Y296.364 Z-4.184
X501.795 Y296.379 Z-4.202
X501.777 Y296.38 Z-4.219
X501.762 Y296.368 Z-4.237
X501.76 Y296.349 Z-4.254
X501.772 Y296.334 Z-4.272
X501.791 Y296.332 Z-4.289
X501.806 Y296.344 Z-4.307
X501.808 Y296.363 Z-4.325
X501.797 Y296.378 Z-4.342
X501.778 Y296.381 Z-4.36
X501.762 Y296.369 Z-4.377
X501.76 Y296.35 Z-4.395
X501.771 Y296.335 Z-4.412
X501.79 Y296.332 Z-4.43
X501.805 Y296.343 Z-4.447
X501.808 Y296.362 Z-4.465
X501.798 Y296.377 Z-4.482
X501.779 Y296.381 Z-4.5
X501.763 Y296.37 Z-4.518
X501.759 Y296.352 Z-4.535
X501.77 Y296.336 Z-4.553
X501.788 Y296.332 Z-4.57
X501.804 Y296.342 Z-4.588
X501.809 Y296.361 Z-4.605
X501.798 Y296.377 Z-4.623
X501.78 Y296.381 Z-4.64
X501.764 Y296.371 Z-4.658
X501.759 Y296.353 Z-4.675
X501.769 Y296.336 Z-4.693
X501.787 Y296.332 Z-4.711
X501.804 Y296.341 Z-4.728
X501.809 Y296.359 Z-4.746
X501.799 Y296.376 Z-4.763
X501.781 Y296.381 Z-4.781
X501.765 Y296.372 Z-4.798
X501.759 Y296.354 Z-4.816
X501.768 Y296.337 Z-4.833
X501.786 Y296.331 Z-4.851
X501.803 Y296.34 Z-4.868
X501.809 Y296.358 Z-4.886
X501.8 Y296.375 Z-4.904
X501.782 Y296.381 Z-4.921
X501.765 Y296.373 Z-4.939
X501.759 Y296.355 Z-4.956
X501.767 Y296.338 Z-4.974
X501.785 Y296.331 Z-4.991
X501.802 Y296.339 Z-5.009
X501.809 Y296.357 Z-5.026
X501.801 Y296.374 Z-5.044
X501.784 Y296.381 Z-5.061
X501.766 Y296.374 Z-5.079
X501.759 Y296.356 Z-5.096
X501.766 Y296.339 Z-5.114
X501.784 Y296.331 Z-5.132
X501.801 Y296.338 Z-5.149
X501.809 Y296.356 Z-5.167
X501.802 Y296.374 Z-5.184
X501.785 Y296.381 Z-5.202
X501.767 Y296.375 Z-5.219
X501.759 Y296.357 Z-5.237
X501.765 Y296.34 Z-5.254
X501.782 Y296.331 Z-5.272
X501.8 Y296.338 Z-5.289
X501.809 Y296.355 Z-5.307
X501.803 Y296.373 Z-5.325
X501.786 Y296.381 Z-5.342
X501.768 Y296.375 Z-5.36
X501.759 Y296.359 Z-5.377
X501.765 Y296.34 Z-5.395
X501.781 Y296.331 Z-5.412
X501.8 Y296.337 Z-5.43
X501.809 Y296.353 Z-5.447
X501.804 Y296.372 Z-5.465
X501.787 Y296.381 Z-5.482
X501.769 Y296.376 Z-5.5
X501.759 Y296.36 Z-5.518
X501.764 Y296.341 Z-5.535
X501.78 Y296.332 Z-5.553
X501.799 Y296.336 Z-5.57
X501.809 Y296.352 Z-5.588
X501.804 Y296.371 Z-5.605
X501.788 Y296.381 Z-5.623
X501.77 Y296.377 Z-5.64
X501.759 Y296.361 Z-5.658
X501.763 Y296.342 Z-5.675
X501.779 Y296.332 Z-5.693
X501.798 Y296.335 Z-5.711
X501.808 Y296.351 Z-5.728
X501.805 Y296.37 Z-5.746
X501.79 Y296.381 Z-5.763
X501.771 Y296.378 Z-5.781
X501.76 Y296.362 Z-5.798
X501.763 Y296.343 Z-5.816
X501.778 Y296.332 Z-5.833
X501.797 Y296.335 Z-5.851
X501.808 Y296.35 Z-5.868
X501.806 Y296.369 Z-5.886
X501.791 Y296.38 Z-5.904
X501.772 Y296.378 Z-5.921
X501.76 Y296.363 Z-5.939
X501.762 Y296.344 Z-5.956
X501.777 Y296.332 Z-5.974
X501.796 Y296.334 Z-5.991
X501.808 Y296.349 Z-6.009
X501.806 Y296.368 Z-6.026
X501.792 Y296.38 Z-6.044
X501.773 Y296.379 Z-6.061
X501.76 Y296.365 Z-6.079
X501.761 Y296.346 Z-6.096
X501.775 Y296.333 Z-6.114
X501.794 Y296.334 Z-6.132
X501.807 Y296.348 Z-6.149
Y296.367 Z-6.167
X501.793 Y296.38 Z-6.184
X501.774 Y296.379 Z-6.202
X501.761 Y296.366 Z-6.219
Y296.347 Z-6.237
X501.774 Y296.333 Z-6.254
X501.793 Z-6.272
X501.807 Y296.346 Z-6.289
Y296.365 Z-6.307
X501.794 Y296.379 Z-6.325
X501.775 Y296.38 Z-6.342
X501.761 Y296.367 Z-6.36
X501.76 Y296.348 Z-6.377
X501.773 Y296.334 Z-6.395
X501.792 Y296.333 Z-6.412
X501.806 Y296.345 Z-6.43
X501.808 Y296.364 Z-6.447
X501.795 Y296.379 Z-6.465
X501.776 Y296.38 Z-6.482
X501.762 Y296.368 Z-6.5
X501.76 Y296.349 Z-6.518
X501.772 Y296.334 Z-6.535
X501.791 Y296.332 Z-6.553
X501.806 Y296.344 Z-6.57
X501.808 Y296.363 Z-6.588
X501.796 Y296.378 Z-6.605
X501.777 Y296.38 Z-6.623
X501.762 Y296.369 Z-6.64
X501.76 Y296.35 Z-6.658
X501.771 Y296.335 Z-6.675
X501.79 Y296.332 Z-6.693
X501.805 Y296.343 Z-6.711
X501.808 Y296.362 Z-6.728
X501.797 Y296.378 Z-6.746
X501.779 Y296.381 Z-6.763
X501.763 Y296.37 Z-6.781
X501.759 Y296.351 Z-6.798
X501.77 Y296.335 Z-6.816
X501.789 Y296.332 Z-6.833
X501.805 Y296.342 Z-6.851
X501.809 Y296.361 Z-6.868
X501.798 Y296.377 Z-6.886
X501.78 Y296.381 Z-6.904
X501.764 Y296.371 Z-6.921
X501.759 Y296.352 Z-6.939
X501.769 Y296.336 Z-6.956
X501.788 Y296.332 Z-6.974
X501.804 Y296.341 Z-6.991
X501.809 Y296.36 Z-7.009
X501.799 Y296.376 Z-7.026
X501.781 Y296.381 Z-7.044
X501.764 Y296.372 Z-7.061
X501.759 Y296.354 Z-7.079
X501.768 Y296.337 Z-7.096
X501.786 Y296.331 Z-7.114
X501.803 Y296.34 Z-7.132
X501.809 Y296.358 Z-7.149
X501.8 Y296.375 Z-7.167
X501.782 Y296.381 Z-7.184
X501.765 Y296.373 Z-7.202
X501.759 Y296.355 Z-7.219
X501.767 Y296.338 Z-7.237
X501.785 Y296.331 Z-7.254
X501.802 Y296.339 Z-7.272
X501.809 Y296.357 Z-7.289
X501.801 Y296.375 Z-7.307
X501.783 Y296.381 Z-7.325
X501.766 Y296.374 Z-7.342
X501.759 Y296.356 Z-7.36
X501.766 Y296.338 Z-7.377
X501.784 Y296.331 Z-7.395
X501.802 Y296.339 Z-7.412
X501.809 Y296.356 Z-7.43
X501.802 Y296.374 Z-7.447
X501.784 Y296.381 Z-7.465
X501.767 Y296.374 Z-7.482
X501.759 Y296.357 Z-7.5
X501.766 Y296.339 Z-7.518
X501.783 Y296.331 Z-7.535
X501.801 Y296.338 Z-7.553
X501.809 Y296.355 Z-7.57
X501.803 Y296.373 Z-7.588
X501.786 Y296.381 Z-7.605
X501.768 Y296.375 Z-7.623
X501.759 Y296.358 Z-7.64
X501.765 Y296.34 Z-7.658
X501.782 Y296.331 Z-7.675
X501.8 Y296.337 Z-7.693
X501.809 Y296.354 Z-7.711
X501.803 Y296.372 Z-7.728
X501.787 Y296.381 Z-7.746
X501.769 Y296.376 Z-7.763
X501.759 Y296.36 Z-7.781
X501.764 Y296.341 Z-7.798
X501.78 Y296.332 Z-7.816
X501.799 Y296.336 Z-7.833
X501.809 Y296.353 Z-7.851
X501.804 Y296.371 Z-7.868
X501.788 Y296.381 Z-7.886
X501.77 Y296.377 Z-7.904
X501.759 Y296.361 Z-7.921
X501.763 Y296.342 Z-7.939
X501.779 Y296.332 Z-7.956
X501.798 Y296.336 Z-7.974
X501.808 Y296.351 Z-7.991
X501.805 Y296.37 Z-8.009
X501.789 Y296.381 Z-8.026
X501.771 Y296.377 Z-8.044
X501.76 Y296.362 Z-8.061
X501.763 Y296.343 Z-8.079
X501.778 Y296.332 Z-8.096
X501.797 Y296.335 Z-8.114
X501.808 Y296.35 Z-8.132
X501.806 Y296.369 Z-8.149
X501.79 Y296.381 Z-8.167
X501.772 Y296.378 Z-8.184
X501.76 Y296.363 Z-8.202
X501.762 Y296.344 Z-8.219
X501.777 Y296.332 Z-8.237
X501.796 Y296.334 Z-8.254
X501.808 Y296.349 Z-8.272
X501.806 Y296.368 Z-8.289
X501.792 Y296.38 Z-8.307
X501.773 Y296.379 Z-8.325
X501.76 Y296.364 Z-8.342
X501.762 Y296.345 Z-8.36
X501.776 Y296.333 Z-8.377
X501.795 Y296.334 Z-8.395
X501.807 Y296.348 Z-8.412
Y296.367 Z-8.43
X501.793 Y296.38 Z-8.447
X501.774 Y296.379 Z-8.465
X501.761 Y296.365 Z-8.482
Y296.346 Z-8.5
X501.775 Y296.333 Z-8.518
X501.794 Z-8.535
X501.807 Y296.347 Z-8.553
Y296.366 Z-8.57
X501.794 Y296.379 Z-8.588
X501.775 Y296.38 Z-8.605
X501.761 Y296.366 Z-8.623
Y296.347 Z-8.64
X501.774 Y296.334 Z-8.658
X501.793 Y296.333 Z-8.675
X501.807 Y296.346 Z-8.693
Y296.365 Z-8.711
X501.795 Y296.379 Z-8.728
X501.776 Y296.38 Z-8.746
X501.762 Y296.367 Z-8.763
X501.76 Y296.349 Z-8.781
X501.773 Y296.334 Z-8.798
X501.791 Y296.332 Z-8.816
X501.806 Y296.345 Z-8.833
X501.808 Y296.364 Z-8.851
X501.796 Y296.378 Z-8.868
X501.777 Y296.38 Z-8.886
X501.762 Y296.369 Z-8.904
X501.76 Y296.35 Z-8.921
X501.771 Y296.335 Z-8.939
X501.79 Y296.332 Z-8.956
X501.805 Y296.344 Z-8.974
X501.808 Y296.362 Z-8.991
X501.797 Y296.378 Z-9.009
X501.778 Y296.381 Z-9.026
X501.763 Y296.37 Z-9.044
X501.76 Y296.351 Z-9.061
X501.77 Y296.335 Z-9.079
X501.789 Y296.332 Z-9.096
X501.805 Y296.343 Z-9.114
X501.808 Y296.361 Z-9.132
X501.798 Y296.377 Z-9.149
X501.779 Y296.381 Z-9.167
X501.763 Y296.371 Z-9.184
X501.759 Y296.352 Z-9.202
X501.769 Y296.336 Z-9.219
X501.788 Y296.332 Z-9.237
X501.804 Y296.342 Z-9.254
X501.809 Y296.36 Z-9.272
X501.799 Y296.376 Z-9.289
X501.781 Y296.381 Z-9.307
X501.764 Y296.372 Z-9.325
X501.759 Y296.353 Z-9.342
X501.768 Y296.337 Z-9.36
X501.787 Y296.331 Z-9.377
X501.803 Y296.341 Z-9.395
X501.809 Y296.359 Z-9.412
X501.8 Y296.376 Z-9.43
X501.782 Y296.381 Z-9.447
X501.765 Y296.372 Z-9.465
X501.759 Y296.354 Z-9.482
X501.768 Y296.337 Z-9.5
X501.786 Y296.331 Z-9.518
X501.803 Y296.34 Z-9.535
X501.809 Y296.358 Z-9.553
X501.801 Y296.375 Z-9.57
X501.783 Y296.381 Z-9.588
X501.766 Y296.373 Z-9.605
X501.759 Y296.356 Z-9.623
X501.767 Y296.338 Z-9.64
X501.784 Y296.331 Z-9.658
X501.802 Y296.339 Z-9.675
X501.809 Y296.356 Z-9.693
X501.802 Y296.374 Z-9.711
X501.784 Y296.381 Z-9.728
X501.767 Y296.374 Z-9.746
X501.759 Y296.357 Z-9.763
X501.766 Y296.339 Z-9.781
X501.783 Y296.331 Z-9.798
X501.801 Y296.338 Z-9.816
X501.809 Y296.355 Z-9.833
X501.802 Y296.373 Z-9.851
X501.785 Y296.381 Z-9.868
X501.767 Y296.375 Z-9.886
X501.759 Y296.358 Z-9.904
X501.765 Y296.34 Z-9.921
X501.782 Y296.331 Z-9.939
X501.8 Y296.337 Z-9.956
X501.809 Y296.354 Z-9.974
X501.803 Y296.372 Z-9.991
X501.787 Y296.381 Z-10.009
X501.768 Y296.376 Z-10.026
X501.759 Y296.359 Z-10.044
X501.764 Y296.341 Z-10.061
X501.781 Y296.332 Z-10.079
X501.799 Y296.336 Z-10.096
X501.809 Y296.353 Z-10.114
X501.804 Y296.371 Z-10.132
X501.788 Y296.381 Z-10.149
X501.769 Y296.377 Z-10.167
X501.759 Y296.36 Z-10.184
X501.764 Y296.342 Z-10.202
X501.78 Y296.332 Z-10.219
X501.798 Y296.336 Z-10.237
X501.808 Y296.352 Z-10.254
X501.805 Y296.37 Z-10.272
X501.789 Y296.381 Z-10.289
X501.77 Y296.377 Z-10.307
X501.759 Y296.362 Z-10.325
X501.763 Y296.343 Z-10.342
X501.778 Y296.332 Z-10.36
X501.797 Y296.335 Z-10.377
X501.808 Y296.35 Z-10.395
X501.805 Y296.369 Z-10.412
X501.79 Y296.381 Z-10.43
X501.771 Y296.378 Z-10.447
X501.76 Y296.363 Z-10.465
X501.762 Y296.344 Z-10.482
X501.777 Y296.332 Z-10.5
X501.796 Y296.334 Z-10.518
X501.808 Y296.349 Z-10.535
X501.806 Y296.368 Z-10.553
X501.791 Y296.38 Z-10.57
X501.772 Y296.378 Z-10.588
X501.76 Y296.364 Z-10.605
X501.762 Y296.345 Z-10.623
X501.776 Y296.333 Z-10.64
X501.795 Y296.334 Z-10.658
X501.808 Y296.348 Z-10.675
X501.806 Y296.367 Z-10.693
X501.792 Y296.38 Z-10.711
X501.773 Y296.379 Z-10.728
X501.76 Y296.365 Z-10.746
X501.761 Y296.346 Z-10.763
X501.775 Y296.333 Z-10.781
X501.794 Z-10.798
X501.807 Y296.347 Z-10.816
Y296.366 Z-10.833
X501.793 Y296.379 Z-10.851
X501.774 Z-10.868
X501.761 Y296.366 Z-10.886
Y296.347 Z-10.904
X501.774 Y296.333 Z-10.921
X501.793 Z-10.939
X501.807 Y296.346 Z-10.956
Y296.365 Z-10.974
X501.795 Y296.379 Z-10.991
X501.776 Y296.38 Z-11.009
X501.761 Y296.367 Z-11.026
X501.76 Y296.348 Z-11.044
X501.773 Y296.334 Z-11.061
X501.792 Y296.333 Z-11.079
X501.806 Y296.345 Z-11.096
X501.808 Y296.364 Z-11.114
X501.796 Y296.378 Z-11.132
X501.777 Y296.38 Z-11.149
X501.762 Y296.368 Z-11.167
X501.76 Y296.349 Z-11.184
X501.772 Y296.335 Z-11.202
X501.791 Y296.332 Z-11.219
X501.806 Y296.344 Z-11.237
X501.808 Y296.363 Z-11.254
X501.797 Y296.378 Z-11.272
X501.778 Y296.381 Z-11.289
X501.763 Y296.369 Z-11.307
X501.76 Y296.351 Z-11.325
X501.771 Y296.335 Z-11.342
X501.789 Y296.332 Z-11.36
X501.805 Y296.343 Z-11.377
X501.808 Y296.361 Z-11.395
X501.798 Y296.377 Z-11.412
X501.779 Y296.381 Z-11.43
X501.763 Y296.37 Z-11.447
X501.759 Y296.352 Z-11.465
X501.77 Y296.336 Z-11.482
X501.788 Y296.332 Z-11.5
X501.804 Y296.342 Z-11.518
X501.809 Y296.36 Z-11.535
X501.799 Y296.377 Z-11.553
X501.78 Y296.381 Z-11.57
X501.764 Y296.371 Z-11.588
X501.759 Y296.353 Z-11.605
X501.769 Y296.336 Z-11.623
X501.787 Y296.332 Z-11.64
X501.804 Y296.341 Z-11.658
X501.809 Y296.359 Z-11.675
X501.8 Y296.376 Z-11.693
X501.781 Y296.381 Z-11.711
X501.765 Y296.372 Z-11.728
X501.759 Y296.354 Z-11.746
X501.768 Y296.337 Z-11.763
X501.786 Y296.331 Z-11.781
X501.803 Y296.34 Z-11.798
X501.809 Y296.358 Z-11.816
X501.801 Y296.375 Z-11.833
X501.783 Y296.381 Z-11.851
X501.765 Y296.373 Z-11.868
X501.759 Y296.355 Z-11.886
X501.767 Y296.338 Z-11.904
X501.785 Y296.331 Z-11.921
X501.802 Y296.339 Z-11.939
X501.809 Y296.357 Z-11.956
X501.801 Y296.374 Z-11.974
X501.784 Y296.381 Z-11.991
X501.766 Y296.374 Z-12.009
X501.759 Y296.356 Z-12.026
X501.766 Y296.339 Z-12.044
X501.783 Y296.331 Z-12.061
X501.801 Y296.338 Z-12.079
X501.809 Y296.356 Z-12.096
X501.802 Y296.373 Z-12.114
X501.785 Y296.381 Z-12.132
X501.767 Y296.375 Z-12.149
X501.759 Y296.358 Z-12.167
X501.765 Y296.34 Z-12.184
X501.782 Y296.331 Z-12.202
X501.8 Y296.337 Z-12.219
X501.809 Y296.354 Z-12.237
X501.803 Y296.372 Z-12.254
X501.786 Y296.381 Z-12.272
X501.768 Y296.376 Z-12.289
X501.759 Y296.359 Z-12.307
X501.764 Y296.341 Z-12.325
X501.781 Y296.331 Z-12.342
X501.799 Y296.337 Z-12.36
X501.809 Y296.353 Z-12.377
X501.804 Y296.372 Z-12.395
X501.787 Y296.381 Z-12.412
X501.769 Y296.376 Z-12.43
X501.759 Y296.36 Z-12.447
X501.764 Y296.342 Z-12.465
X501.78 Y296.332 Z-12.482
X501.798 Y296.336 Z-12.5
G3 X501.804 Y296.371 I-0.014 J0.02
X501.769 Y296.377 I-0.02 J-0.014
X501.764 Y296.342 I0.014 J-0.02
X501.798 Y296.336 I0.02 J0.014
G1 X501.803 Y296.344
X501.801 Y296.353
X501.784 Y296.356
Z5.
Y368.482
Z1.1
Z-0.5
X501.796 Y368.47
X501.805 Y368.473
X501.809 Y368.482
X501.802 Y368.5 Z-0.518
X501.784 Y368.507 Z-0.535
X501.767 Y368.5 Z-0.553
X501.759 Y368.483 Z-0.57
X501.766 Y368.465 Z-0.588
X501.783 Y368.457 Z-0.605
X501.801 Y368.464 Z-0.623
X501.809 Y368.481 Z-0.64
X501.803 Y368.499 Z-0.658
X501.785 Y368.507 Z-0.675
X501.767 Y368.501 Z-0.693
X501.759 Y368.484 Z-0.711
X501.765 Y368.466 Z-0.728
X501.782 Y368.457 Z-0.746
X501.8 Y368.463 Z-0.763
X501.809 Y368.48 Z-0.781
X501.803 Y368.498 Z-0.798
X501.787 Y368.507 Z-0.816
X501.768 Y368.502 Z-0.833
X501.759 Y368.485 Z-0.851
X501.764 Y368.467 Z-0.868
X501.781 Y368.458 Z-0.886
X501.799 Y368.462 Z-0.904
X501.809 Y368.479 Z-0.921
X501.804 Y368.497 Z-0.939
X501.788 Y368.507 Z-0.956
X501.769 Y368.503 Z-0.974
X501.759 Y368.487 Z-0.991
X501.763 Y368.468 Z-1.009
X501.779 Y368.458 Z-1.026
X501.798 Y368.462 Z-1.044
X501.808 Y368.478 Z-1.061
X501.805 Y368.496 Z-1.079
X501.789 Y368.507 Z-1.096
X501.77 Y368.503 Z-1.114
X501.76 Y368.488 Z-1.132
X501.763 Y368.469 Z-1.149
X501.778 Y368.458 Z-1.167
X501.797 Y368.461 Z-1.184
X501.808 Y368.476 Z-1.202
X501.805 Y368.495 Z-1.219
X501.79 Y368.507 Z-1.237
X501.771 Y368.504 Z-1.254
X501.76 Y368.489 Z-1.272
X501.762 Y368.47 Z-1.289
X501.777 Y368.458 Z-1.307
X501.796 Y368.46 Z-1.325
X501.808 Y368.475 Z-1.342
X501.806 Y368.494 Z-1.36
X501.791 Y368.506 Z-1.377
X501.772 Y368.505 Z-1.395
X501.76 Y368.49 Z-1.412
X501.762 Y368.471 Z-1.43
X501.776 Y368.459 Z-1.447
X501.795 Y368.46 Z-1.465
X501.808 Y368.474 Z-1.482
X501.807 Y368.493 Z-1.5
X501.792 Y368.506 Z-1.518
X501.773 Y368.505 Z-1.535
X501.761 Y368.491 Z-1.553
Y368.472 Z-1.57
X501.775 Y368.459 Z-1.588
X501.794 Z-1.605
X501.807 Y368.473 Z-1.623
Y368.492 Z-1.64
X501.794 Y368.505 Z-1.658
X501.775 Z-1.675
X501.761 Y368.492 Z-1.693
Y368.473 Z-1.711
X501.774 Y368.459 Z-1.728
X501.793 Z-1.746
X501.807 Y368.472 Z-1.763
Y368.491 Z-1.781
X501.795 Y368.505 Z-1.798
X501.776 Y368.506 Z-1.816
X501.761 Y368.493 Z-1.833
X501.76 Y368.474 Z-1.851
X501.773 Y368.46 Z-1.868
X501.792 Y368.459 Z-1.886
X501.806 Y368.471 Z-1.904
X501.808 Y368.49 Z-1.921
X501.796 Y368.504 Z-1.939
X501.777 Y368.506 Z-1.956
X501.762 Y368.494 Z-1.974
X501.76 Y368.476 Z-1.991
X501.772 Y368.461 Z-2.009
X501.79 Y368.458 Z-2.026
X501.806 Y368.47 Z-2.044
X501.808 Y368.489 Z-2.061
X501.797 Y368.504 Z-2.079
X501.778 Y368.507 Z-2.096
X501.763 Y368.495 Z-2.114
X501.76 Y368.477 Z-2.132
X501.771 Y368.461 Z-2.149
X501.789 Y368.458 Z-2.167
X501.805 Y368.469 Z-2.184
X501.808 Y368.487 Z-2.202
X501.798 Y368.503 Z-2.219
X501.779 Y368.507 Z-2.237
X501.763 Y368.496 Z-2.254
X501.759 Y368.478 Z-2.272
X501.77 Y368.462 Z-2.289
X501.788 Y368.458 Z-2.307
X501.804 Y368.468 Z-2.325
X501.809 Y368.486 Z-2.342
X501.799 Y368.502 Z-2.36
X501.78 Y368.507 Z-2.377
X501.764 Y368.497 Z-2.395
X501.759 Y368.479 Z-2.412
X501.769 Y368.463 Z-2.43
X501.787 Y368.457 Z-2.447
X501.804 Y368.467 Z-2.465
X501.809 Y368.485 Z-2.482
X501.8 Y368.502 Z-2.5
X501.782 Y368.507 Z-2.518
X501.765 Y368.498 Z-2.535
X501.759 Y368.48 Z-2.553
X501.768 Y368.463 Z-2.57
X501.786 Y368.457 Z-2.588
X501.803 Y368.466 Z-2.605
X501.809 Y368.484 Z-2.623
X501.801 Y368.501 Z-2.64
X501.783 Y368.507 Z-2.658
X501.766 Y368.499 Z-2.675
X501.759 Y368.481 Z-2.693
X501.767 Y368.464 Z-2.711
X501.785 Y368.457 Z-2.728
X501.802 Y368.465 Z-2.746
X501.809 Y368.483 Z-2.763
X501.801 Y368.5 Z-2.781
X501.784 Y368.507 Z-2.798
X501.766 Y368.5 Z-2.816
X501.759 Y368.483 Z-2.833
X501.766 Y368.465 Z-2.851
X501.783 Y368.457 Z-2.868
X501.801 Y368.464 Z-2.886
X501.809 Y368.481 Z-2.904
X501.802 Y368.499 Z-2.921
X501.785 Y368.507 Z-2.939
X501.767 Y368.501 Z-2.956
X501.759 Y368.484 Z-2.974
X501.765 Y368.466 Z-2.991
X501.782 Y368.457 Z-3.009
X501.8 Y368.463 Z-3.026
X501.809 Y368.48 Z-3.044
X501.803 Y368.498 Z-3.061
X501.786 Y368.507 Z-3.079
X501.768 Y368.502 Z-3.096
X501.759 Y368.485 Z-3.114
X501.764 Y368.467 Z-3.132
X501.781 Y368.458 Z-3.149
X501.799 Y368.463 Z-3.167
X501.809 Y368.479 Z-3.184
X501.804 Y368.497 Z-3.202
X501.788 Y368.507 Z-3.219
X501.769 Y368.502 Z-3.237
X501.759 Y368.486 Z-3.254
X501.764 Y368.468 Z-3.272
X501.78 Y368.458 Z-3.289
X501.798 Y368.462 Z-3.307
X501.809 Y368.478 Z-3.325
X501.805 Y368.496 Z-3.342
X501.789 Y368.507 Z-3.36
X501.77 Y368.503 Z-3.377
X501.759 Y368.487 Z-3.395
X501.763 Y368.469 Z-3.412
X501.779 Y368.458 Z-3.43
X501.797 Y368.461 Z-3.447
X501.808 Y368.477 Z-3.465
X501.805 Y368.495 Z-3.482
X501.79 Y368.507 Z-3.5
X501.771 Y368.504 Z-3.518
X501.76 Y368.489 Z-3.535
X501.762 Y368.47 Z-3.553
X501.777 Y368.458 Z-3.57
X501.796 Y368.461 Z-3.588
X501.808 Y368.476 Z-3.605
X501.806 Y368.494 Z-3.623
X501.791 Y368.506 Z-3.64
X501.772 Y368.504 Z-3.658
X501.76 Y368.49 Z-3.675
X501.762 Y368.471 Z-3.693
X501.776 Y368.459 Z-3.711
X501.795 Y368.46 Z-3.728
X501.808 Y368.474 Z-3.746
X501.806 Y368.493 Z-3.763
X501.792 Y368.506 Z-3.781
X501.773 Y368.505 Z-3.798
X501.76 Y368.491 Z-3.816
X501.761 Y368.472 Z-3.833
X501.775 Y368.459 Z-3.851
X501.794 Y368.46 Z-3.868
X501.807 Y368.473 Z-3.886
Y368.492 Z-3.904
X501.793 Y368.506 Z-3.921
X501.774 Y368.505 Z-3.939
X501.761 Y368.492 Z-3.956
Y368.473 Z-3.974
X501.774 Y368.459 Z-3.991
X501.793 Z-4.009
X501.807 Y368.472 Z-4.026
Y368.491 Z-4.044
X501.794 Y368.505 Z-4.061
X501.775 Y368.506 Z-4.079
X501.761 Y368.493 Z-4.096
X501.76 Y368.474 Z-4.114
X501.773 Y368.46 Z-4.132
X501.792 Y368.459 Z-4.149
X501.806 Y368.471 Z-4.167
X501.808 Y368.49 Z-4.184
X501.795 Y368.505 Z-4.202
X501.777 Y368.506 Z-4.219
X501.762 Y368.494 Z-4.237
X501.76 Y368.475 Z-4.254
X501.772 Y368.46 Z-4.272
X501.791 Y368.458 Z-4.289
X501.806 Y368.47 Z-4.307
X501.808 Y368.489 Z-4.325
X501.796 Y368.504 Z-4.342
X501.778 Y368.507 Z-4.36
X501.762 Y368.495 Z-4.377
X501.76 Y368.476 Z-4.395
X501.771 Y368.461 Z-4.412
X501.79 Y368.458 Z-4.43
X501.805 Y368.469 Z-4.447
X501.808 Y368.488 Z-4.465
X501.798 Y368.503 Z-4.482
X501.779 Y368.507 Z-4.5
X501.763 Y368.496 Z-4.518
X501.759 Y368.478 Z-4.535
X501.77 Y368.462 Z-4.553
X501.788 Y368.458 Z-4.57
X501.804 Y368.468 Z-4.588
X501.809 Y368.487 Z-4.605
X501.798 Y368.503 Z-4.623
X501.78 Y368.507 Z-4.64
X501.764 Y368.497 Z-4.658
X501.759 Y368.479 Z-4.675
X501.769 Y368.462 Z-4.693
X501.787 Y368.458 Z-4.711
X501.804 Y368.467 Z-4.728
X501.809 Y368.485 Z-4.746
X501.799 Y368.502 Z-4.763
X501.781 Y368.507 Z-4.781
X501.765 Y368.498 Z-4.798
X501.759 Y368.48 Z-4.816
X501.768 Y368.463 Z-4.833
X501.786 Y368.457 Z-4.851
X501.803 Y368.466 Z-4.868
X501.809 Y368.484 Z-4.886
X501.8 Y368.501 Z-4.904
X501.782 Y368.507 Z-4.921
X501.765 Y368.499 Z-4.939
X501.759 Y368.481 Z-4.956
X501.767 Y368.464 Z-4.974
X501.785 Y368.457 Z-4.991
X501.802 Y368.465 Z-5.009
X501.809 Y368.483 Z-5.026
X501.801 Y368.5 Z-5.044
X501.784 Y368.507 Z-5.061
X501.766 Y368.5 Z-5.079
X501.759 Y368.482 Z-5.096
X501.766 Y368.465 Z-5.114
X501.784 Y368.457 Z-5.132
X501.801 Y368.464 Z-5.149
X501.809 Y368.482 Z-5.167
X501.802 Y368.5 Z-5.184
X501.785 Y368.507 Z-5.202
X501.767 Y368.501 Z-5.219
X501.759 Y368.483 Z-5.237
X501.765 Y368.466 Z-5.254
X501.782 Y368.457 Z-5.272
X501.8 Y368.464 Z-5.289
X501.809 Y368.481 Z-5.307
X501.803 Y368.499 Z-5.325
X501.786 Y368.507 Z-5.342
X501.768 Y368.501 Z-5.36
X501.759 Y368.485 Z-5.377
X501.765 Y368.467 Z-5.395
X501.781 Y368.457 Z-5.412
X501.8 Y368.463 Z-5.43
X501.809 Y368.479 Z-5.447
X501.804 Y368.498 Z-5.465
X501.787 Y368.507 Z-5.482
X501.769 Y368.502 Z-5.5
X501.759 Y368.486 Z-5.518
X501.764 Y368.467 Z-5.535
X501.78 Y368.458 Z-5.553
X501.799 Y368.462 Z-5.57
X501.809 Y368.478 Z-5.588
X501.804 Y368.497 Z-5.605
X501.788 Y368.507 Z-5.623
X501.77 Y368.503 Z-5.64
X501.759 Y368.487 Z-5.658
X501.763 Y368.468 Z-5.675
X501.779 Y368.458 Z-5.693
X501.798 Y368.461 Z-5.711
X501.808 Y368.477 Z-5.728
X501.805 Y368.496 Z-5.746
X501.79 Y368.507 Z-5.763
X501.771 Y368.504 Z-5.781
X501.76 Y368.488 Z-5.798
X501.763 Y368.469 Z-5.816
X501.778 Y368.458 Z-5.833
X501.797 Y368.461 Z-5.851
X501.808 Y368.476 Z-5.868
X501.806 Y368.495 Z-5.886
X501.791 Y368.506 Z-5.904
X501.772 Y368.504 Z-5.921
X501.76 Y368.489 Z-5.939
X501.762 Y368.47 Z-5.956
X501.777 Y368.458 Z-5.974
X501.796 Y368.46 Z-5.991
X501.808 Y368.475 Z-6.009
X501.806 Y368.494 Z-6.026
X501.792 Y368.506 Z-6.044
X501.773 Y368.505 Z-6.061
X501.76 Y368.491 Z-6.079
X501.761 Y368.472 Z-6.096
X501.775 Y368.459 Z-6.114
X501.794 Y368.46 Z-6.132
X501.807 Y368.474 Z-6.149
Y368.493 Z-6.167
X501.793 Y368.506 Z-6.184
X501.774 Y368.505 Z-6.202
X501.761 Y368.492 Z-6.219
Y368.473 Z-6.237
X501.774 Y368.459 Z-6.254
X501.793 Z-6.272
X501.807 Y368.472 Z-6.289
Y368.491 Z-6.307
X501.794 Y368.505 Z-6.325
X501.775 Y368.506 Z-6.342
X501.761 Y368.493 Z-6.36
X501.76 Y368.474 Z-6.377
X501.773 Y368.46 Z-6.395
X501.792 Y368.459 Z-6.412
X501.806 Y368.471 Z-6.43
X501.808 Y368.49 Z-6.447
X501.795 Y368.505 Z-6.465
X501.776 Y368.506 Z-6.482
X501.762 Y368.494 Z-6.5
X501.76 Y368.475 Z-6.518
X501.772 Y368.46 Z-6.535
X501.791 Y368.458 Z-6.553
X501.806 Y368.47 Z-6.57
X501.808 Y368.489 Z-6.588
X501.796 Y368.504 Z-6.605
X501.777 Y368.506 Z-6.623
X501.762 Y368.495 Z-6.64
X501.76 Y368.476 Z-6.658
X501.771 Y368.461 Z-6.675
X501.79 Y368.458 Z-6.693
X501.805 Y368.469 Z-6.711
X501.808 Y368.488 Z-6.728
X501.797 Y368.504 Z-6.746
X501.779 Y368.507 Z-6.763
X501.763 Y368.496 Z-6.781
X501.759 Y368.477 Z-6.798
X501.77 Y368.461 Z-6.816
X501.789 Y368.458 Z-6.833
X501.805 Y368.468 Z-6.851
X501.809 Y368.487 Z-6.868
X501.798 Y368.503 Z-6.886
X501.78 Y368.507 Z-6.904
X501.764 Y368.497 Z-6.921
X501.759 Y368.478 Z-6.939
X501.769 Y368.462 Z-6.956
X501.788 Y368.458 Z-6.974
X501.804 Y368.467 Z-6.991
X501.809 Y368.486 Z-7.009
X501.799 Y368.502 Z-7.026
X501.781 Y368.507 Z-7.044
X501.764 Y368.498 Z-7.061
X501.759 Y368.48 Z-7.079
X501.768 Y368.463 Z-7.096
X501.786 Y368.457 Z-7.114
X501.803 Y368.466 Z-7.132
X501.809 Y368.484 Z-7.149
X501.8 Y368.501 Z-7.167
X501.782 Y368.507 Z-7.184
X501.765 Y368.499 Z-7.202
X501.759 Y368.481 Z-7.219
X501.767 Y368.464 Z-7.237
X501.785 Y368.457 Z-7.254
X501.802 Y368.465 Z-7.272
X501.809 Y368.483 Z-7.289
X501.801 Y368.501 Z-7.307
X501.783 Y368.507 Z-7.325
X501.766 Y368.5 Z-7.342
X501.759 Y368.482 Z-7.36
X501.766 Y368.464 Z-7.377
X501.784 Y368.457 Z-7.395
X501.802 Y368.465 Z-7.412
X501.809 Y368.482 Z-7.43
X501.802 Y368.5 Z-7.447
X501.784 Y368.507 Z-7.465
X501.767 Y368.5 Z-7.482
X501.759 Y368.483 Z-7.5
X501.766 Y368.465 Z-7.518
X501.783 Y368.457 Z-7.535
X501.801 Y368.464 Z-7.553
X501.809 Y368.481 Z-7.57
X501.803 Y368.499 Z-7.588
X501.786 Y368.507 Z-7.605
X501.768 Y368.501 Z-7.623
X501.759 Y368.484 Z-7.64
X501.765 Y368.466 Z-7.658
X501.782 Y368.457 Z-7.675
X501.8 Y368.463 Z-7.693
X501.809 Y368.48 Z-7.711
X501.803 Y368.498 Z-7.728
X501.787 Y368.507 Z-7.746
X501.769 Y368.502 Z-7.763
X501.759 Y368.486 Z-7.781
X501.764 Y368.467 Z-7.798
X501.78 Y368.458 Z-7.816
X501.799 Y368.462 Z-7.833
X501.809 Y368.479 Z-7.851
X501.804 Y368.497 Z-7.868
X501.788 Y368.507 Z-7.886
X501.77 Y368.503 Z-7.904
X501.759 Y368.487 Z-7.921
X501.763 Y368.468 Z-7.939
X501.779 Y368.458 Z-7.956
X501.798 Y368.462 Z-7.974
X501.808 Y368.477 Z-7.991
X501.805 Y368.496 Z-8.009
X501.789 Y368.507 Z-8.026
X501.771 Y368.503 Z-8.044
X501.76 Y368.488 Z-8.061
X501.763 Y368.469 Z-8.079
X501.778 Y368.458 Z-8.096
X501.797 Y368.461 Z-8.114
X501.808 Y368.476 Z-8.132
X501.806 Y368.495 Z-8.149
X501.79 Y368.507 Z-8.167
X501.772 Y368.504 Z-8.184
X501.76 Y368.489 Z-8.202
X501.762 Y368.47 Z-8.219
X501.777 Y368.458 Z-8.237
X501.796 Y368.46 Z-8.254
X501.808 Y368.475 Z-8.272
X501.806 Y368.494 Z-8.289
X501.792 Y368.506 Z-8.307
X501.773 Y368.505 Z-8.325
X501.76 Y368.49 Z-8.342
X501.762 Y368.471 Z-8.36
X501.776 Y368.459 Z-8.377
X501.795 Y368.46 Z-8.395
X501.807 Y368.474 Z-8.412
Y368.493 Z-8.43
X501.793 Y368.506 Z-8.447
X501.774 Y368.505 Z-8.465
X501.761 Y368.491 Z-8.482
Y368.472 Z-8.5
X501.775 Y368.459 Z-8.518
X501.794 Z-8.535
X501.807 Y368.473 Z-8.553
Y368.492 Z-8.57
X501.794 Y368.505 Z-8.588
X501.775 Y368.506 Z-8.605
X501.761 Y368.492 Z-8.623
Y368.473 Z-8.64
X501.774 Y368.46 Z-8.658
X501.793 Y368.459 Z-8.675
X501.807 Y368.472 Z-8.693
Y368.491 Z-8.711
X501.795 Y368.505 Z-8.728
X501.776 Y368.506 Z-8.746
X501.762 Y368.494 Z-8.763
X501.76 Y368.475 Z-8.781
X501.772 Y368.46 Z-8.798
X501.791 Y368.458 Z-8.816
X501.806 Y368.471 Z-8.833
X501.808 Y368.49 Z-8.851
X501.796 Y368.504 Z-8.868
X501.777 Y368.506 Z-8.886
X501.762 Y368.495 Z-8.904
X501.76 Y368.476 Z-8.921
X501.772 Y368.46 Z-8.939
X501.791 Y368.458 Z-8.957
X501.806 Y368.471 Z-8.975
X501.808 Y368.49 Z-8.993
X501.795 Y368.505 Z-9.011
X501.775 Y368.506 Z-9.029
X501.761 Y368.492 Z-9.047
Y368.473 Z-9.065
X501.775 Y368.459 Z-9.083
X501.794 Y368.46 Z-9.102
X501.808 Y368.474 Z-9.12
X501.806 Y368.493 Z-9.138
X501.791 Y368.506 Z-9.156
X501.772 Y368.504 Z-9.174
X501.76 Y368.489 Z-9.192
X501.762 Y368.47 Z-9.21
X501.778 Y368.458 Z-9.228
X501.797 Y368.461 Z-9.246
X501.808 Y368.477 Z-9.264
X501.805 Y368.496 Z-9.282
X501.788 Y368.507 Z-9.3
X501.769 Y368.503 Z-9.318
X501.759 Y368.486 Z-9.336
X501.764 Y368.467 Z-9.354
X501.781 Y368.457 Z-9.372
X501.8 Y368.463 Z-9.39
X501.809 Y368.48 Z-9.408
X501.803 Y368.499 Z-9.426
X501.785 Y368.507 Z-9.444
X501.767 Y368.501 Z-9.462
X501.759 Y368.483 Z-9.48
X501.766 Y368.465 Z-9.498
X501.784 Y368.457 Z-9.517
X501.802 Y368.465 Z-9.535
X501.809 Y368.484 Z-9.553
X501.801 Y368.501 Z-9.57
X501.783 Y368.507 Z-9.588
X501.766 Y368.499 Z-9.605
X501.759 Y368.482 Z-9.623
X501.767 Y368.464 Z-9.64
X501.784 Y368.457 Z-9.658
X501.802 Y368.465 Z-9.675
X501.809 Y368.482 Z-9.693
X501.802 Y368.5 Z-9.711
X501.784 Y368.507 Z-9.728
X501.767 Y368.5 Z-9.746
X501.759 Y368.483 Z-9.763
X501.766 Y368.465 Z-9.781
X501.783 Y368.457 Z-9.798
X501.801 Y368.464 Z-9.816
X501.809 Y368.481 Z-9.833
X501.802 Y368.499 Z-9.851
X501.785 Y368.507 Z-9.868
X501.767 Y368.501 Z-9.886
X501.759 Y368.484 Z-9.904
X501.765 Y368.466 Z-9.921
X501.782 Y368.457 Z-9.939
X501.8 Y368.463 Z-9.956
X501.809 Y368.48 Z-9.974
X501.803 Y368.498 Z-9.991
X501.787 Y368.507 Z-10.009
X501.768 Y368.502 Z-10.026
X501.759 Y368.485 Z-10.044
X501.764 Y368.467 Z-10.061
X501.781 Y368.458 Z-10.079
X501.799 Y368.462 Z-10.096
X501.809 Y368.479 Z-10.114
X501.804 Y368.497 Z-10.132
X501.788 Y368.507 Z-10.149
X501.769 Y368.503 Z-10.167
X501.759 Y368.486 Z-10.184
X501.764 Y368.468 Z-10.202
X501.78 Y368.458 Z-10.219
X501.798 Y368.462 Z-10.237
X501.808 Y368.478 Z-10.254
X501.805 Y368.496 Z-10.272
X501.789 Y368.507 Z-10.289
X501.77 Y368.503 Z-10.307
X501.759 Y368.488 Z-10.325
X501.763 Y368.469 Z-10.342
X501.778 Y368.458 Z-10.36
X501.797 Y368.461 Z-10.377
X501.808 Y368.476 Z-10.395
X501.805 Y368.495 Z-10.412
X501.79 Y368.507 Z-10.43
X501.771 Y368.504 Z-10.447
X501.76 Y368.489 Z-10.465
X501.762 Y368.47 Z-10.482
X501.777 Y368.458 Z-10.5
X501.796 Y368.46 Z-10.518
X501.808 Y368.475 Z-10.535
X501.806 Y368.494 Z-10.553
X501.791 Y368.506 Z-10.57
X501.772 Y368.504 Z-10.588
X501.76 Y368.49 Z-10.605
X501.762 Y368.471 Z-10.623
X501.776 Y368.459 Z-10.64
X501.795 Y368.46 Z-10.658
X501.808 Y368.474 Z-10.675
X501.806 Y368.493 Z-10.693
X501.792 Y368.506 Z-10.711
X501.773 Y368.505 Z-10.728
X501.76 Y368.491 Z-10.746
X501.761 Y368.472 Z-10.763
X501.775 Y368.459 Z-10.781
X501.794 Z-10.798
X501.807 Y368.473 Z-10.816
Y368.492 Z-10.833
X501.793 Y368.505 Z-10.851
X501.774 Z-10.868
X501.761 Y368.492 Z-10.886
Y368.473 Z-10.904
X501.774 Y368.459 Z-10.921
X501.793 Z-10.939
X501.807 Y368.472 Z-10.956
Y368.491 Z-10.974
X501.795 Y368.505 Z-10.991
X501.776 Y368.506 Z-11.009
X501.761 Y368.493 Z-11.026
X501.76 Y368.474 Z-11.044
X501.773 Y368.46 Z-11.061
X501.792 Y368.459 Z-11.079
X501.806 Y368.471 Z-11.096
X501.808 Y368.49 Z-11.114
X501.796 Y368.504 Z-11.132
X501.777 Y368.506 Z-11.149
X501.762 Y368.494 Z-11.167
X501.76 Y368.475 Z-11.184
X501.772 Y368.461 Z-11.202
X501.791 Y368.458 Z-11.219
X501.806 Y368.47 Z-11.237
X501.808 Y368.489 Z-11.254
X501.797 Y368.504 Z-11.272
X501.778 Y368.507 Z-11.289
X501.763 Y368.495 Z-11.307
X501.76 Y368.477 Z-11.325
X501.771 Y368.461 Z-11.342
X501.789 Y368.458 Z-11.36
X501.805 Y368.469 Z-11.377
X501.808 Y368.487 Z-11.395
X501.798 Y368.503 Z-11.412
X501.779 Y368.507 Z-11.43
X501.763 Y368.496 Z-11.447
X501.759 Y368.478 Z-11.465
X501.77 Y368.462 Z-11.482
X501.788 Y368.458 Z-11.5
X501.804 Y368.468 Z-11.518
X501.809 Y368.486 Z-11.535
X501.799 Y368.503 Z-11.553
X501.78 Y368.507 Z-11.57
X501.764 Y368.497 Z-11.588
X501.759 Y368.479 Z-11.605
X501.769 Y368.462 Z-11.623
X501.787 Y368.458 Z-11.64
X501.804 Y368.467 Z-11.658
X501.809 Y368.485 Z-11.675
X501.8 Y368.502 Z-11.693
X501.781 Y368.507 Z-11.711
X501.765 Y368.498 Z-11.728
X501.759 Y368.48 Z-11.746
X501.768 Y368.463 Z-11.763
X501.786 Y368.457 Z-11.781
X501.803 Y368.466 Z-11.798
X501.809 Y368.484 Z-11.816
X501.801 Y368.501 Z-11.833
X501.783 Y368.507 Z-11.851
X501.765 Y368.499 Z-11.868
X501.759 Y368.481 Z-11.886
X501.767 Y368.464 Z-11.904
X501.785 Y368.457 Z-11.921
X501.802 Y368.465 Z-11.939
X501.809 Y368.483 Z-11.956
X501.801 Y368.5 Z-11.974
X501.784 Y368.507 Z-11.991
X501.766 Y368.5 Z-12.009
X501.759 Y368.483 Z-12.026
X501.766 Y368.465 Z-12.044
X501.783 Y368.457 Z-12.061
X501.801 Y368.464 Z-12.079
X501.809 Y368.482 Z-12.096
X501.802 Y368.499 Z-12.114
X501.785 Y368.507 Z-12.132
X501.767 Y368.501 Z-12.149
X501.759 Y368.484 Z-12.167
X501.765 Y368.466 Z-12.184
X501.782 Y368.457 Z-12.202
X501.8 Y368.463 Z-12.219
X501.809 Y368.48 Z-12.237
X501.803 Y368.498 Z-12.254
X501.786 Y368.507 Z-12.272
X501.768 Y368.502 Z-12.289
X501.759 Y368.485 Z-12.307
X501.764 Y368.467 Z-12.325
X501.781 Y368.457 Z-12.342
X501.799 Y368.463 Z-12.36
X501.809 Y368.479 Z-12.377
X501.804 Y368.498 Z-12.395
X501.787 Y368.507 Z-12.412
X501.769 Y368.502 Z-12.43
X501.759 Y368.486 Z-12.447
X501.764 Y368.468 Z-12.465
X501.78 Y368.458 Z-12.482
X501.798 Y368.462 Z-12.5
G3 X501.804 Y368.497 I-0.014 J0.02
X501.769 Y368.503 I-0.02 J-0.014
X501.764 Y368.468 I0.014 J-0.02
X501.798 Y368.462 I0.02 J0.014
G1 X501.803 Y368.47
X501.801 Y368.479
X501.784 Y368.482
Z5.
X468.718 Y368.46
Z1.1
Z-0.5
X468.73 Y368.448
X468.739 Y368.452
X468.743 Y368.46
X468.736 Y368.478 Z-0.518
X468.718 Y368.485 Z-0.535
X468.701 Y368.478 Z-0.553
X468.693 Y368.461 Z-0.57
X468.7 Y368.443 Z-0.588
X468.717 Y368.435 Z-0.605
X468.735 Y368.442 Z-0.623
X468.743 Y368.459 Z-0.64
X468.737 Y368.477 Z-0.658
X468.719 Y368.485 Z-0.675
X468.701 Y368.479 Z-0.693
X468.693 Y368.462 Z-0.711
X468.699 Y368.444 Z-0.728
X468.716 Y368.435 Z-0.746
X468.734 Y368.441 Z-0.763
X468.743 Y368.458 Z-0.781
X468.737 Y368.476 Z-0.798
X468.721 Y368.485 Z-0.816
X468.702 Y368.48 Z-0.833
X468.693 Y368.463 Z-0.851
X468.698 Y368.445 Z-0.868
X468.715 Y368.436 Z-0.886
X468.733 Y368.44 Z-0.904
X468.743 Y368.457 Z-0.921
X468.738 Y368.475 Z-0.939
X468.722 Y368.485 Z-0.956
X468.703 Y368.481 Z-0.974
X468.693 Y368.464 Z-0.991
X468.697 Y368.446 Z-1.009
X468.713 Y368.436 Z-1.026
X468.732 Y368.44 Z-1.044
X468.742 Y368.456 Z-1.061
X468.739 Y368.474 Z-1.079
X468.723 Y368.485 Z-1.096
X468.704 Y368.481 Z-1.114
X468.694 Y368.466 Z-1.132
X468.697 Y368.447 Z-1.149
X468.712 Y368.436 Z-1.167
X468.731 Y368.439 Z-1.184
X468.742 Y368.454 Z-1.202
X468.739 Y368.473 Z-1.219
X468.724 Y368.485 Z-1.237
X468.705 Y368.482 Z-1.254
X468.694 Y368.467 Z-1.272
X468.696 Y368.448 Z-1.289
X468.711 Y368.436 Z-1.307
X468.73 Y368.438 Z-1.325
X468.742 Y368.453 Z-1.342
X468.74 Y368.472 Z-1.36
X468.725 Y368.484 Z-1.377
X468.706 Y368.483 Z-1.395
X468.694 Y368.468 Z-1.412
X468.696 Y368.449 Z-1.43
X468.71 Y368.437 Z-1.447
X468.729 Y368.438 Z-1.465
X468.742 Y368.452 Z-1.482
X468.741 Y368.471 Z-1.5
X468.726 Y368.484 Z-1.518
X468.707 Y368.483 Z-1.535
X468.695 Y368.469 Z-1.553
Y368.45 Z-1.57
X468.709 Y368.437 Z-1.588
X468.728 Z-1.605
X468.741 Y368.451 Z-1.623
Y368.47 Z-1.64
X468.728 Y368.483 Z-1.658
X468.709 Z-1.675
X468.695 Y368.47 Z-1.693
Y368.451 Z-1.711
X468.708 Y368.437 Z-1.728
X468.727 Z-1.746
X468.741 Y368.45 Z-1.763
Y368.469 Z-1.781
X468.729 Y368.483 Z-1.798
X468.71 Y368.484 Z-1.816
X468.695 Y368.471 Z-1.833
X468.694 Y368.452 Z-1.851
X468.707 Y368.438 Z-1.868
X468.726 Y368.437 Z-1.886
X468.74 Y368.449 Z-1.904
X468.742 Y368.468 Z-1.921
X468.73 Y368.482 Z-1.939
X468.711 Y368.484 Z-1.956
X468.696 Y368.472 Z-1.974
X468.694 Y368.454 Z-1.991
X468.706 Y368.439 Z-2.009
X468.724 Y368.436 Z-2.026
X468.74 Y368.448 Z-2.044
X468.742 Y368.467 Z-2.061
X468.731 Y368.482 Z-2.079
X468.712 Y368.485 Z-2.096
X468.697 Y368.473 Z-2.114
X468.694 Y368.455 Z-2.132
X468.705 Y368.439 Z-2.149
X468.723 Y368.436 Z-2.167
X468.739 Y368.447 Z-2.184
X468.742 Y368.465 Z-2.202
X468.732 Y368.481 Z-2.219
X468.713 Y368.485 Z-2.237
X468.697 Y368.474 Z-2.254
X468.693 Y368.456 Z-2.272
X468.704 Y368.44 Z-2.289
X468.722 Y368.436 Z-2.307
X468.738 Y368.446 Z-2.325
X468.743 Y368.464 Z-2.342
X468.733 Y368.48 Z-2.36
X468.714 Y368.485 Z-2.377
X468.698 Y368.475 Z-2.395
X468.693 Y368.457 Z-2.412
X468.703 Y368.441 Z-2.43
X468.721 Y368.436 Z-2.447
X468.738 Y368.445 Z-2.465
X468.743 Y368.463 Z-2.482
X468.734 Y368.48 Z-2.5
X468.716 Y368.485 Z-2.518
X468.699 Y368.476 Z-2.535
X468.693 Y368.458 Z-2.553
X468.702 Y368.441 Z-2.57
X468.72 Y368.435 Z-2.588
X468.737 Y368.444 Z-2.605
X468.743 Y368.462 Z-2.623
X468.735 Y368.479 Z-2.64
X468.717 Y368.485 Z-2.658
X468.699 Y368.477 Z-2.675
X468.693 Y368.459 Z-2.693
X468.701 Y368.442 Z-2.711
X468.719 Y368.435 Z-2.728
X468.736 Y368.443 Z-2.746
X468.743 Y368.461 Z-2.763
X468.735 Y368.478 Z-2.781
X468.718 Y368.485 Z-2.798
X468.7 Y368.478 Z-2.816
X468.693 Y368.461 Z-2.833
X468.7 Y368.443 Z-2.851
X468.717 Y368.435 Z-2.868
X468.735 Y368.442 Z-2.886
X468.743 Y368.459 Z-2.904
X468.736 Y368.477 Z-2.921
X468.719 Y368.485 Z-2.939
X468.701 Y368.479 Z-2.956
X468.693 Y368.462 Z-2.974
X468.699 Y368.444 Z-2.991
X468.716 Y368.435 Z-3.009
X468.734 Y368.441 Z-3.026
X468.743 Y368.458 Z-3.044
X468.737 Y368.476 Z-3.061
X468.72 Y368.485 Z-3.079
X468.702 Y368.48 Z-3.096
X468.693 Y368.463 Z-3.114
X468.698 Y368.445 Z-3.132
X468.715 Y368.436 Z-3.149
X468.733 Y368.441 Z-3.167
X468.743 Y368.457 Z-3.184
X468.738 Y368.475 Z-3.202
X468.721 Y368.485 Z-3.219
X468.703 Y368.48 Z-3.237
X468.693 Y368.464 Z-3.254
X468.698 Y368.446 Z-3.272
X468.714 Y368.436 Z-3.289
X468.732 Y368.44 Z-3.307
X468.743 Y368.456 Z-3.325
X468.739 Y368.474 Z-3.342
X468.723 Y368.485 Z-3.36
X468.704 Y368.481 Z-3.377
X468.693 Y368.465 Z-3.395
X468.697 Y368.447 Z-3.412
X468.713 Y368.436 Z-3.43
X468.731 Y368.439 Z-3.447
X468.742 Y368.455 Z-3.465
X468.739 Y368.473 Z-3.482
X468.724 Y368.485 Z-3.5
X468.705 Y368.482 Z-3.518
X468.694 Y368.467 Z-3.535
X468.696 Y368.448 Z-3.553
X468.711 Y368.436 Z-3.57
X468.73 Y368.439 Z-3.588
X468.742 Y368.454 Z-3.605
X468.74 Y368.472 Z-3.623
X468.725 Y368.484 Z-3.64
X468.706 Y368.482 Z-3.658
X468.694 Y368.468 Z-3.675
X468.696 Y368.449 Z-3.693
X468.71 Y368.437 Z-3.711
X468.729 Y368.438 Z-3.728
X468.742 Y368.452 Z-3.746
X468.74 Y368.471 Z-3.763
X468.726 Y368.484 Z-3.781
X468.707 Y368.483 Z-3.798
X468.694 Y368.469 Z-3.816
X468.695 Y368.45 Z-3.833
X468.709 Y368.437 Z-3.851
X468.728 Y368.438 Z-3.868
X468.741 Y368.451 Z-3.886
Y368.47 Z-3.904
X468.727 Y368.484 Z-3.921
X468.708 Y368.483 Z-3.939
X468.695 Y368.47 Z-3.956
Y368.451 Z-3.974
X468.708 Y368.437 Z-3.991
X468.727 Z-4.009
X468.741 Y368.45 Z-4.026
Y368.469 Z-4.044
X468.728 Y368.483 Z-4.061
X468.709 Y368.484 Z-4.079
X468.695 Y368.471 Z-4.096
X468.694 Y368.452 Z-4.114
X468.707 Y368.438 Z-4.132
X468.726 Y368.437 Z-4.149
X468.74 Y368.449 Z-4.167
X468.742 Y368.468 Z-4.184
X468.729 Y368.483 Z-4.202
X468.71 Y368.484 Z-4.219
X468.696 Y368.472 Z-4.237
X468.694 Y368.453 Z-4.254
X468.706 Y368.438 Z-4.272
X468.725 Y368.436 Z-4.289
X468.74 Y368.448 Z-4.307
X468.742 Y368.467 Z-4.325
X468.73 Y368.482 Z-4.342
X468.712 Y368.485 Z-4.36
X468.696 Y368.473 Z-4.377
X468.694 Y368.454 Z-4.395
X468.705 Y368.439 Z-4.412
X468.724 Y368.436 Z-4.43
X468.739 Y368.447 Z-4.447
X468.742 Y368.466 Z-4.465
X468.732 Y368.481 Z-4.482
X468.713 Y368.485 Z-4.5
X468.697 Y368.474 Z-4.518
X468.693 Y368.456 Z-4.535
X468.704 Y368.44 Z-4.553
X468.722 Y368.436 Z-4.57
X468.738 Y368.446 Z-4.588
X468.743 Y368.465 Z-4.605
X468.732 Y368.481 Z-4.623
X468.714 Y368.485 Z-4.64
X468.698 Y368.475 Z-4.658
X468.693 Y368.457 Z-4.675
X468.703 Y368.44 Z-4.693
X468.721 Y368.436 Z-4.711
X468.738 Y368.445 Z-4.728
X468.743 Y368.463 Z-4.746
X468.733 Y368.48 Z-4.763
X468.715 Y368.485 Z-4.781
X468.699 Y368.476 Z-4.798
X468.693 Y368.458 Z-4.816
X468.702 Y368.441 Z-4.833
X468.72 Y368.435 Z-4.851
X468.737 Y368.444 Z-4.868
X468.743 Y368.462 Z-4.886
X468.734 Y368.479 Z-4.904
X468.716 Y368.485 Z-4.921
X468.699 Y368.477 Z-4.939
X468.693 Y368.459 Z-4.956
X468.701 Y368.442 Z-4.974
X468.719 Y368.435 Z-4.991
X468.736 Y368.443 Z-5.009
X468.743 Y368.461 Z-5.026
X468.735 Y368.478 Z-5.044
X468.718 Y368.485 Z-5.061
X468.7 Y368.478 Z-5.079
X468.693 Y368.46 Z-5.096
X468.7 Y368.443 Z-5.114
X468.718 Y368.435 Z-5.132
X468.735 Y368.442 Z-5.149
X468.743 Y368.46 Z-5.167
X468.736 Y368.477 Z-5.184
X468.719 Y368.485 Z-5.202
X468.701 Y368.479 Z-5.219
X468.693 Y368.461 Z-5.237
X468.699 Y368.444 Z-5.254
X468.716 Y368.435 Z-5.272
X468.734 Y368.442 Z-5.289
X468.743 Y368.459 Z-5.307
X468.737 Y368.477 Z-5.325
X468.72 Y368.485 Z-5.342
X468.702 Y368.479 Z-5.36
X468.693 Y368.463 Z-5.377
X468.699 Y368.445 Z-5.395
X468.715 Y368.435 Z-5.412
X468.734 Y368.441 Z-5.43
X468.743 Y368.457 Z-5.447
X468.738 Y368.476 Z-5.465
X468.721 Y368.485 Z-5.482
X468.703 Y368.48 Z-5.5
X468.693 Y368.464 Z-5.518
X468.698 Y368.445 Z-5.535
X468.714 Y368.436 Z-5.553
X468.733 Y368.44 Z-5.57
X468.743 Y368.456 Z-5.588
X468.738 Y368.475 Z-5.605
X468.722 Y368.485 Z-5.623
X468.704 Y368.481 Z-5.64
X468.693 Y368.465 Z-5.658
X468.697 Y368.446 Z-5.675
X468.713 Y368.436 Z-5.693
X468.732 Y368.439 Z-5.711
X468.742 Y368.455 Z-5.728
X468.739 Y368.474 Z-5.746
X468.724 Y368.485 Z-5.763
X468.705 Y368.482 Z-5.781
X468.694 Y368.466 Z-5.798
X468.697 Y368.447 Z-5.816
X468.712 Y368.436 Z-5.833
X468.731 Y368.439 Z-5.851
X468.742 Y368.454 Z-5.868
X468.74 Y368.473 Z-5.886
X468.725 Y368.484 Z-5.904
X468.706 Y368.482 Z-5.921
X468.694 Y368.467 Z-5.939
X468.696 Y368.448 Z-5.956
X468.711 Y368.436 Z-5.974
X468.73 Y368.438 Z-5.991
X468.742 Y368.453 Z-6.009
X468.74 Y368.472 Z-6.026
X468.726 Y368.484 Z-6.044
X468.707 Y368.483 Z-6.061
X468.694 Y368.469 Z-6.079
X468.695 Y368.45 Z-6.096
X468.709 Y368.437 Z-6.114
X468.728 Y368.438 Z-6.132
X468.741 Y368.452 Z-6.149
Y368.471 Z-6.167
X468.727 Y368.484 Z-6.184
X468.708 Y368.483 Z-6.202
X468.695 Y368.47 Z-6.219
Y368.451 Z-6.237
X468.708 Y368.437 Z-6.254
X468.727 Z-6.272
X468.741 Y368.45 Z-6.289
Y368.469 Z-6.307
X468.728 Y368.483 Z-6.325
X468.709 Y368.484 Z-6.342
X468.695 Y368.471 Z-6.36
X468.694 Y368.452 Z-6.377
X468.707 Y368.438 Z-6.395
X468.726 Y368.437 Z-6.412
X468.74 Y368.449 Z-6.43
X468.742 Y368.468 Z-6.447
X468.729 Y368.483 Z-6.465
X468.71 Y368.484 Z-6.482
X468.696 Y368.472 Z-6.5
X468.694 Y368.453 Z-6.518
X468.706 Y368.438 Z-6.535
X468.725 Y368.436 Z-6.553
X468.74 Y368.448 Z-6.57
X468.742 Y368.467 Z-6.588
X468.73 Y368.482 Z-6.605
X468.711 Y368.484 Z-6.623
X468.696 Y368.473 Z-6.64
X468.694 Y368.454 Z-6.658
X468.705 Y368.439 Z-6.675
X468.724 Y368.436 Z-6.693
X468.739 Y368.447 Z-6.711
X468.742 Y368.466 Z-6.728
X468.731 Y368.481 Z-6.746
X468.712 Y368.485 Z-6.763
X468.697 Y368.474 Z-6.781
X468.693 Y368.455 Z-6.798
X468.704 Y368.439 Z-6.816
X468.723 Y368.436 Z-6.833
X468.739 Y368.446 Z-6.851
X468.743 Y368.465 Z-6.868
X468.732 Y368.481 Z-6.886
X468.714 Y368.485 Z-6.904
X468.698 Y368.475 Z-6.921
X468.693 Y368.456 Z-6.939
X468.703 Y368.44 Z-6.956
X468.722 Y368.436 Z-6.974
X468.738 Y368.445 Z-6.991
X468.743 Y368.464 Z-7.009
X468.733 Y368.48 Z-7.026
X468.715 Y368.485 Z-7.044
X468.698 Y368.476 Z-7.061
X468.693 Y368.458 Z-7.079
X468.702 Y368.441 Z-7.096
X468.72 Y368.435 Z-7.114
X468.737 Y368.444 Z-7.132
X468.743 Y368.463 Z-7.149
X468.734 Y368.479 Z-7.167
X468.716 Y368.485 Z-7.184
X468.699 Y368.477 Z-7.202
X468.693 Y368.459 Z-7.219
X468.701 Y368.442 Z-7.237
X468.719 Y368.435 Z-7.254
X468.736 Y368.443 Z-7.272
X468.743 Y368.461 Z-7.289
X468.735 Y368.479 Z-7.307
X468.717 Y368.485 Z-7.325
X468.7 Y368.478 Z-7.342
X468.693 Y368.46 Z-7.36
X468.7 Y368.442 Z-7.377
X468.718 Y368.435 Z-7.395
X468.736 Y368.443 Z-7.412
X468.743 Y368.46 Z-7.43
X468.736 Y368.478 Z-7.447
X468.718 Y368.485 Z-7.465
X468.701 Y368.478 Z-7.482
X468.693 Y368.461 Z-7.5
X468.7 Y368.443 Z-7.518
X468.717 Y368.435 Z-7.535
X468.735 Y368.442 Z-7.553
X468.743 Y368.459 Z-7.57
X468.737 Y368.477 Z-7.588
X468.72 Y368.485 Z-7.605
X468.702 Y368.479 Z-7.623
X468.693 Y368.462 Z-7.64
X468.699 Y368.444 Z-7.658
X468.716 Y368.435 Z-7.675
X468.734 Y368.441 Z-7.693
X468.743 Y368.458 Z-7.711
X468.737 Y368.476 Z-7.728
X468.721 Y368.485 Z-7.746
X468.703 Y368.48 Z-7.763
X468.693 Y368.464 Z-7.781
X468.698 Y368.445 Z-7.798
X468.714 Y368.436 Z-7.816
X468.733 Y368.44 Z-7.833
X468.743 Y368.457 Z-7.851
X468.738 Y368.475 Z-7.868
X468.722 Y368.485 Z-7.886
X468.703 Y368.481 Z-7.904
X468.693 Y368.465 Z-7.921
X468.697 Y368.446 Z-7.939
X468.713 Y368.436 Z-7.956
X468.732 Y368.44 Z-7.974
X468.742 Y368.455 Z-7.991
X468.739 Y368.474 Z-8.009
X468.723 Y368.485 Z-8.026
X468.704 Y368.481 Z-8.044
X468.694 Y368.466 Z-8.061
X468.697 Y368.447 Z-8.079
X468.712 Y368.436 Z-8.096
X468.731 Y368.439 Z-8.114
X468.742 Y368.454 Z-8.132
X468.74 Y368.473 Z-8.149
X468.724 Y368.484 Z-8.167
X468.706 Y368.482 Z-8.184
X468.694 Y368.467 Z-8.202
X468.696 Y368.448 Z-8.219
X468.711 Y368.436 Z-8.237
X468.73 Y368.438 Z-8.254
X468.742 Y368.453 Z-8.272
X468.74 Y368.472 Z-8.289
X468.726 Y368.484 Z-8.307
X468.707 Y368.483 Z-8.325
X468.694 Y368.468 Z-8.342
X468.696 Y368.449 Z-8.36
X468.71 Y368.437 Z-8.377
X468.729 Y368.438 Z-8.395
X468.741 Y368.452 Z-8.412
Y368.471 Z-8.43
X468.727 Y368.484 Z-8.447
X468.708 Y368.483 Z-8.465
X468.695 Y368.469 Z-8.482
Y368.45 Z-8.5
X468.709 Y368.437 Z-8.518
X468.728 Z-8.535
X468.741 Y368.451 Z-8.553
Y368.47 Z-8.57
X468.728 Y368.483 Z-8.588
X468.709 Y368.484 Z-8.605
X468.695 Y368.47 Z-8.623
Y368.451 Z-8.64
X468.708 Y368.438 Z-8.658
X468.727 Y368.437 Z-8.675
X468.741 Y368.45 Z-8.693
X468.742 Y368.469 Z-8.711
X468.729 Y368.483 Z-8.728
X468.71 Y368.484 Z-8.746
X468.696 Y368.472 Z-8.763
X468.694 Y368.453 Z-8.781
X468.706 Y368.438 Z-8.798
X468.725 Y368.436 Z-8.816
X468.74 Y368.449 Z-8.833
X468.742 Y368.468 Z-8.851
X468.73 Y368.482 Z-8.868
X468.711 Y368.484 Z-8.886
X468.696 Y368.473 Z-8.904
X468.694 Y368.454 Z-8.921
X468.705 Y368.439 Z-8.939
X468.724 Y368.436 Z-8.956
X468.739 Y368.448 Z-8.974
X468.742 Y368.466 Z-8.991
X468.731 Y368.482 Z-9.009
X468.712 Y368.485 Z-9.026
X468.697 Y368.474 Z-9.044
X468.694 Y368.455 Z-9.061
X468.704 Y368.439 Z-9.079
X468.723 Y368.436 Z-9.096
X468.739 Y368.447 Z-9.114
X468.742 Y368.465 Z-9.132
X468.732 Y368.481 Z-9.149
X468.713 Y368.485 Z-9.167
X468.697 Y368.475 Z-9.184
X468.693 Y368.456 Z-9.202
X468.703 Y368.44 Z-9.219
X468.722 Y368.436 Z-9.237
X468.738 Y368.446 Z-9.254
X468.743 Y368.464 Z-9.272
X468.733 Y368.48 Z-9.289
X468.715 Y368.485 Z-9.307
X468.698 Y368.476 Z-9.325
X468.693 Y368.457 Z-9.342
X468.702 Y368.441 Z-9.36
X468.721 Y368.435 Z-9.377
X468.737 Y368.445 Z-9.395
X468.743 Y368.463 Z-9.412
X468.734 Y368.48 Z-9.43
X468.716 Y368.485 Z-9.447
X468.699 Y368.476 Z-9.465
X468.693 Y368.458 Z-9.482
X468.702 Y368.441 Z-9.5
X468.72 Y368.435 Z-9.518
X468.737 Y368.444 Z-9.535
X468.743 Y368.462 Z-9.553
X468.735 Y368.479 Z-9.57
X468.717 Y368.485 Z-9.588
X468.7 Y368.477 Z-9.605
X468.693 Y368.46 Z-9.623
X468.701 Y368.442 Z-9.64
X468.718 Y368.435 Z-9.658
X468.736 Y368.443 Z-9.675
X468.743 Y368.46 Z-9.693
X468.736 Y368.478 Z-9.711
X468.718 Y368.485 Z-9.728
X468.701 Y368.478 Z-9.746
X468.693 Y368.461 Z-9.763
X468.7 Y368.443 Z-9.781
X468.717 Y368.435 Z-9.798
X468.735 Y368.442 Z-9.816
X468.743 Y368.459 Z-9.833
X468.736 Y368.477 Z-9.851
X468.719 Y368.485 Z-9.868
X468.701 Y368.479 Z-9.886
X468.693 Y368.462 Z-9.904
X468.699 Y368.444 Z-9.921
X468.716 Y368.435 Z-9.939
X468.734 Y368.441 Z-9.956
X468.743 Y368.458 Z-9.974
X468.737 Y368.476 Z-9.991
X468.721 Y368.485 Z-10.009
X468.702 Y368.48 Z-10.026
X468.693 Y368.463 Z-10.044
X468.698 Y368.445 Z-10.061
X468.715 Y368.436 Z-10.079
X468.733 Y368.44 Z-10.096
X468.743 Y368.457 Z-10.114
X468.738 Y368.475 Z-10.132
X468.722 Y368.485 Z-10.149
X468.703 Y368.481 Z-10.167
X468.693 Y368.464 Z-10.184
X468.698 Y368.446 Z-10.202
X468.714 Y368.436 Z-10.219
X468.732 Y368.44 Z-10.237
X468.742 Y368.456 Z-10.254
X468.739 Y368.474 Z-10.272
X468.723 Y368.485 Z-10.289
X468.704 Y368.481 Z-10.307
X468.693 Y368.466 Z-10.325
X468.697 Y368.447 Z-10.342
X468.712 Y368.436 Z-10.36
X468.731 Y368.439 Z-10.377
X468.742 Y368.454 Z-10.395
X468.739 Y368.473 Z-10.412
X468.724 Y368.485 Z-10.43
X468.705 Y368.482 Z-10.447
X468.694 Y368.467 Z-10.465
X468.696 Y368.448 Z-10.482
X468.711 Y368.436 Z-10.5
X468.73 Y368.439 Z-10.518
X468.742 Y368.454 Z-10.536
X468.739 Y368.473 Z-10.554
X468.724 Y368.485 Z-10.571
X468.705 Y368.482 Z-10.589
X468.694 Y368.466 Z-10.607
X468.697 Y368.447 Z-10.625
X468.713 Y368.436 Z-10.643
X468.732 Y368.44 Z-10.661
X468.742 Y368.456 Z-10.679
X468.738 Y368.475 Z-10.697
X468.722 Y368.485 Z-10.714
X468.703 Y368.481 Z-10.732
X468.693 Y368.464 Z-10.75
X468.698 Y368.445 Z-10.768
X468.715 Y368.436 Z-10.786
X468.733 Y368.441 Z-10.804
X468.743 Y368.457 Z-10.822
X468.737 Y368.476 Z-10.84
X468.72 Y368.485 Z-10.857
X468.702 Y368.479 Z-10.875
X468.693 Y368.462 Z-10.893
X468.699 Y368.444 Z-10.911
X468.716 Y368.435 Z-10.929
X468.735 Y368.442 Z-10.947
X468.743 Y368.459 Z-10.965
X468.736 Y368.477 Z-10.983
X468.719 Y368.485 Z-11.
X468.701 Y368.478 Z-11.018
X468.693 Y368.461 Z-11.036
X468.7 Y368.443 Z-11.054
X468.718 Y368.435 Z-11.072
X468.736 Y368.443 Z-11.09
X468.743 Y368.461 Z-11.108
X468.735 Y368.479 Z-11.126
X468.717 Y368.485 Z-11.143
X468.699 Y368.477 Z-11.161
X468.693 Y368.459 Z-11.179
X468.702 Y368.441 Z-11.197
X468.72 Y368.435 Z-11.215
X468.737 Y368.444 Z-11.233
X468.743 Y368.463 Z-11.251
X468.734 Y368.48 Z-11.269
X468.715 Y368.485 Z-11.286
X468.698 Y368.476 Z-11.304
X468.693 Y368.457 Z-11.322
X468.703 Y368.44 Z-11.34
X468.722 Y368.436 Z-11.358
X468.738 Y368.446 Z-11.376
X468.743 Y368.464 Z-11.394
X468.732 Y368.481 Z-11.412
X468.713 Y368.485 Z-11.429
X468.697 Y368.474 Z-11.447
X468.693 Y368.456 Z-11.465
X468.704 Y368.44 Z-11.482
X468.722 Y368.436 Z-11.5
X468.738 Y368.446 Z-11.518
X468.743 Y368.464 Z-11.535
X468.733 Y368.481 Z-11.553
X468.714 Y368.485 Z-11.57
X468.698 Y368.475 Z-11.588
X468.693 Y368.457 Z-11.605
X468.703 Y368.44 Z-11.623
X468.721 Y368.436 Z-11.64
X468.738 Y368.445 Z-11.658
X468.743 Y368.463 Z-11.675
X468.734 Y368.48 Z-11.693
X468.715 Y368.485 Z-11.711
X468.699 Y368.476 Z-11.728
X468.693 Y368.458 Z-11.746
X468.702 Y368.441 Z-11.763
X468.72 Y368.435 Z-11.781
X468.737 Y368.444 Z-11.798
X468.743 Y368.462 Z-11.816
X468.735 Y368.479 Z-11.833
X468.717 Y368.485 Z-11.851
X468.699 Y368.477 Z-11.868
X468.693 Y368.459 Z-11.886
X468.701 Y368.442 Z-11.904
X468.719 Y368.435 Z-11.921
X468.736 Y368.443 Z-11.939
X468.743 Y368.461 Z-11.956
X468.735 Y368.478 Z-11.974
X468.718 Y368.485 Z-11.991
X468.7 Y368.478 Z-12.009
X468.693 Y368.46 Z-12.026
X468.7 Y368.443 Z-12.044
X468.717 Y368.435 Z-12.061
X468.735 Y368.442 Z-12.079
X468.743 Y368.46 Z-12.096
X468.736 Y368.477 Z-12.114
X468.719 Y368.485 Z-12.132
X468.701 Y368.479 Z-12.149
X468.693 Y368.462 Z-12.167
X468.699 Y368.444 Z-12.184
X468.716 Y368.435 Z-12.202
X468.734 Y368.441 Z-12.219
X468.743 Y368.458 Z-12.237
X468.737 Y368.476 Z-12.254
X468.72 Y368.485 Z-12.272
X468.702 Y368.48 Z-12.289
X468.693 Y368.463 Z-12.307
X468.698 Y368.445 Z-12.325
X468.715 Y368.435 Z-12.342
X468.733 Y368.441 Z-12.36
X468.743 Y368.457 Z-12.377
X468.738 Y368.476 Z-12.395
X468.721 Y368.485 Z-12.412
X468.703 Y368.48 Z-12.43
X468.693 Y368.464 Z-12.447
X468.698 Y368.446 Z-12.465
X468.714 Y368.436 Z-12.482
X468.732 Y368.44 Z-12.5
G3 X468.738 Y368.475 I-0.014 J0.02
X468.703 Y368.481 I-0.02 J-0.014
X468.698 Y368.446 I0.014 J-0.02
X468.732 Y368.44 I0.02 J0.014
G1 X468.737 Y368.448
X468.735 Y368.457
X468.718 Y368.46
Z5.
X200.467 Y372.967
Z1.1
Z-0.5
X200.48 Y372.955
X200.489 Y372.959
X200.492 Y372.967
X200.485 Y372.985 Z-0.518
X200.468 Y372.992 Z-0.535
X200.45 Y372.985 Z-0.553
X200.442 Y372.968 Z-0.57
X200.449 Y372.95 Z-0.588
X200.467 Y372.942 Z-0.605
X200.484 Y372.949 Z-0.623
X200.492 Y372.966 Z-0.64
X200.486 Y372.984 Z-0.658
X200.469 Y372.992 Z-0.675
X200.451 Y372.986 Z-0.693
X200.442 Y372.969 Z-0.711
X200.448 Y372.951 Z-0.728
X200.465 Y372.943 Z-0.746
X200.483 Y372.948 Z-0.763
X200.492 Y372.965 Z-0.781
X200.487 Y372.983 Z-0.798
X200.47 Y372.992 Z-0.816
X200.452 Y372.987 Z-0.833
X200.443 Y372.97 Z-0.851
X200.448 Y372.952 Z-0.868
X200.464 Y372.943 Z-0.886
X200.483 Y372.948 Z-0.904
X200.492 Y372.964 Z-0.921
X200.488 Y372.982 Z-0.939
X200.471 Y372.992 Z-0.956
X200.453 Y372.988 Z-0.974
X200.443 Y372.972 Z-0.991
X200.447 Y372.953 Z-1.009
X200.463 Y372.943 Z-1.026
X200.482 Y372.947 Z-1.044
X200.492 Y372.963 Z-1.061
X200.488 Y372.981 Z-1.079
X200.472 Y372.992 Z-1.096
X200.454 Y372.988 Z-1.114
X200.443 Y372.973 Z-1.132
X200.446 Y372.954 Z-1.149
X200.462 Y372.943 Z-1.167
X200.481 Y372.946 Z-1.184
X200.492 Y372.962 Z-1.202
X200.489 Y372.98 Z-1.219
X200.474 Y372.992 Z-1.237
X200.455 Y372.989 Z-1.254
X200.443 Y372.974 Z-1.272
X200.446 Y372.955 Z-1.289
X200.461 Y372.943 Z-1.307
X200.479 Y372.946 Z-1.325
X200.491 Y372.96 Z-1.342
X200.489 Y372.979 Z-1.36
X200.475 Y372.991 Z-1.377
X200.456 Y372.99 Z-1.395
X200.444 Y372.975 Z-1.412
X200.445 Y372.956 Z-1.43
X200.459 Y372.944 Z-1.447
X200.478 Y372.945 Z-1.465
X200.491 Y372.959 Z-1.482
X200.49 Y372.978 Z-1.5
X200.476 Y372.991 Z-1.518
X200.457 Y372.99 Z-1.535
X200.444 Y372.976 Z-1.553
X200.445 Y372.957 Z-1.57
X200.458 Y372.944 Z-1.588
X200.477 Z-1.605
X200.491 Y372.958 Z-1.623
X200.49 Y372.977 Z-1.64
X200.477 Y372.991 Z-1.658
X200.458 Z-1.675
X200.444 Y372.977 Z-1.693
Y372.958 Z-1.711
X200.457 Y372.945 Z-1.728
X200.476 Y372.944 Z-1.746
X200.49 Y372.957 Z-1.763
X200.491 Y372.976 Z-1.781
X200.478 Y372.99 Z-1.798
X200.459 Y372.991 Z-1.816
X200.445 Y372.978 Z-1.833
X200.444 Y372.959 Z-1.851
X200.456 Y372.945 Z-1.868
X200.475 Y372.944 Z-1.886
X200.49 Y372.956 Z-1.904
X200.491 Y372.975 Z-1.921
X200.479 Y372.989 Z-1.939
X200.46 Y372.991 Z-1.956
X200.446 Y372.979 Z-1.974
X200.443 Y372.961 Z-1.991
X200.455 Y372.946 Z-2.009
X200.474 Y372.943 Z-2.026
X200.489 Y372.955 Z-2.044
X200.492 Y372.974 Z-2.061
X200.48 Y372.989 Z-2.079
X200.461 Y372.992 Z-2.096
X200.446 Y372.981 Z-2.114
X200.443 Y372.962 Z-2.132
X200.454 Y372.946 Z-2.149
X200.473 Y372.943 Z-2.167
X200.488 Y372.954 Z-2.184
X200.492 Y372.973 Z-2.202
X200.481 Y372.988 Z-2.219
X200.463 Y372.992 Z-2.237
X200.447 Y372.982 Z-2.254
X200.443 Y372.963 Z-2.272
X200.453 Y372.947 Z-2.289
X200.472 Y372.943 Z-2.307
X200.488 Y372.953 Z-2.325
X200.492 Y372.971 Z-2.342
X200.482 Y372.988 Z-2.36
X200.464 Y372.992 Z-2.377
X200.447 Y372.983 Z-2.395
X200.443 Y372.964 Z-2.412
X200.452 Y372.948 Z-2.43
X200.47 Y372.943 Z-2.447
X200.487 Y372.952 Z-2.465
X200.492 Y372.97 Z-2.482
X200.483 Y372.987 Z-2.5
X200.465 Y372.992 Z-2.518
X200.448 Y372.983 Z-2.535
X200.443 Y372.965 Z-2.553
X200.451 Y372.948 Z-2.57
X200.469 Y372.943 Z-2.588
X200.486 Y372.951 Z-2.605
X200.492 Y372.969 Z-2.623
X200.484 Y372.986 Z-2.64
X200.466 Y372.992 Z-2.658
X200.449 Y372.984 Z-2.675
X200.442 Y372.967 Z-2.693
X200.45 Y372.949 Z-2.711
X200.468 Y372.942 Z-2.728
X200.486 Y372.951 Z-2.746
X200.492 Y372.969 Z-2.764
X200.484 Y372.986 Z-2.782
X200.466 Y372.992 Z-2.8
X200.448 Y372.984 Z-2.818
X200.443 Y372.965 Z-2.836
X200.452 Y372.948 Z-2.854
X200.47 Y372.943 Z-2.871
X200.487 Y372.952 Z-2.889
X200.492 Y372.971 Z-2.907
X200.483 Y372.987 Z-2.925
X200.464 Y372.992 Z-2.943
X200.447 Y372.982 Z-2.961
X200.443 Y372.963 Z-2.979
X200.453 Y372.947 Z-2.997
X200.472 Y372.943 Z-3.014
X200.488 Y372.953 Z-3.032
X200.492 Y372.972 Z-3.05
X200.481 Y372.988 Z-3.068
X200.462 Y372.992 Z-3.086
X200.446 Y372.981 Z-3.104
X200.443 Y372.962 Z-3.122
X200.454 Y372.946 Z-3.14
X200.474 Y372.943 Z-3.157
X200.489 Y372.955 Z-3.175
X200.492 Y372.974 Z-3.193
X200.48 Y372.989 Z-3.211
X200.46 Y372.991 Z-3.229
X200.445 Y372.979 Z-3.247
X200.444 Y372.96 Z-3.265
X200.456 Y372.945 Z-3.283
X200.475 Y372.944 Z-3.3
X200.49 Y372.956 Z-3.318
X200.491 Y372.976 Z-3.336
X200.478 Y372.99 Z-3.354
X200.459 Y372.991 Z-3.372
X200.445 Y372.978 Z-3.39
X200.444 Y372.958 Z-3.408
X200.458 Y372.944 Z-3.426
X200.477 Z-3.443
X200.491 Y372.958 Z-3.461
X200.49 Y372.977 Z-3.479
X200.476 Y372.991 Z-3.497
X200.457 Y372.99 Z-3.515
X200.444 Y372.976 Z-3.533
X200.445 Y372.957 Z-3.551
X200.459 Y372.944 Z-3.569
X200.478 Y372.945 Z-3.586
X200.491 Y372.96 Z-3.604
X200.49 Y372.979 Z-3.622
X200.475 Y372.991 Z-3.64
X200.456 Y372.989 Z-3.658
X200.444 Y372.975 Z-3.675
X200.445 Y372.956 Z-3.693
X200.46 Y372.944 Z-3.711
X200.479 Y372.945 Z-3.728
X200.491 Y372.96 Z-3.746
X200.49 Y372.978 Z-3.763
X200.476 Y372.991 Z-3.781
X200.457 Y372.99 Z-3.798
X200.444 Y372.976 Z-3.816
X200.445 Y372.957 Z-3.833
X200.459 Y372.944 Z-3.851
X200.478 Y372.945 Z-3.868
X200.491 Y372.958 Z-3.886
X200.49 Y372.977 Z-3.904
X200.477 Y372.991 Z-3.921
X200.458 Y372.99 Z-3.939
X200.444 Y372.977 Z-3.956
Y372.958 Z-3.974
X200.458 Y372.944 Z-3.991
X200.477 Z-4.009
X200.49 Y372.957 Z-4.026
X200.491 Y372.976 Z-4.044
X200.478 Y372.99 Z-4.061
X200.459 Y372.991 Z-4.079
X200.445 Y372.978 Z-4.096
X200.444 Y372.959 Z-4.114
X200.456 Y372.945 Z-4.132
X200.475 Y372.944 Z-4.149
X200.49 Y372.956 Z-4.167
X200.491 Y372.975 Z-4.184
X200.479 Y372.99 Z-4.202
X200.46 Y372.991 Z-4.219
X200.445 Y372.979 Z-4.237
X200.443 Y372.96 Z-4.254
X200.455 Y372.946 Z-4.272
X200.474 Y372.943 Z-4.289
X200.489 Y372.955 Z-4.307
X200.492 Y372.974 Z-4.325
X200.48 Y372.989 Z-4.342
X200.461 Y372.992 Z-4.36
X200.446 Y372.98 Z-4.377
X200.443 Y372.961 Z-4.395
X200.454 Y372.946 Z-4.412
X200.473 Y372.943 Z-4.43
X200.489 Y372.954 Z-4.447
X200.492 Y372.973 Z-4.465
X200.481 Y372.988 Z-4.482
X200.462 Y372.992 Z-4.5
X200.447 Y372.981 Z-4.518
X200.443 Y372.963 Z-4.535
X200.453 Y372.947 Z-4.553
X200.472 Y372.943 Z-4.57
X200.488 Y372.953 Z-4.588
X200.492 Y372.972 Z-4.605
X200.482 Y372.988 Z-4.623
X200.464 Y372.992 Z-4.64
X200.447 Y372.982 Z-4.658
X200.443 Y372.964 Z-4.675
X200.452 Y372.947 Z-4.693
X200.471 Y372.943 Z-4.711
X200.487 Y372.952 Z-4.728
X200.492 Y372.97 Z-4.746
X200.483 Y372.987 Z-4.763
X200.465 Y372.992 Z-4.781
X200.448 Y372.983 Z-4.798
X200.443 Y372.965 Z-4.816
X200.451 Y372.948 Z-4.833
X200.47 Y372.943 Z-4.851
X200.486 Y372.951 Z-4.868
X200.492 Y372.969 Z-4.886
X200.484 Y372.986 Z-4.904
X200.466 Y372.992 Z-4.921
X200.449 Y372.984 Z-4.939
X200.442 Y372.966 Z-4.956
X200.451 Y372.949 Z-4.974
X200.468 Y372.942 Z-4.991
X200.486 Y372.95 Z-5.009
X200.492 Y372.968 Z-5.026
X200.485 Y372.985 Z-5.044
X200.467 Y372.992 Z-5.061
X200.45 Y372.985 Z-5.079
X200.442 Y372.967 Z-5.096
X200.45 Y372.95 Z-5.114
X200.467 Y372.942 Z-5.132
X200.485 Y372.949 Z-5.149
X200.492 Y372.967 Z-5.167
X200.486 Y372.985 Z-5.184
X200.468 Y372.992 Z-5.202
X200.45 Y372.986 Z-5.219
X200.442 Y372.969 Z-5.237
X200.449 Y372.951 Z-5.254
X200.466 Y372.942 Z-5.272
X200.484 Y372.949 Z-5.289
X200.492 Y372.966 Z-5.307
X200.486 Y372.984 Z-5.325
X200.469 Y372.992 Z-5.342
X200.451 Y372.987 Z-5.36
X200.443 Y372.97 Z-5.377
X200.448 Y372.952 Z-5.395
X200.465 Y372.943 Z-5.412
X200.483 Y372.948 Z-5.43
X200.492 Y372.965 Z-5.447
X200.487 Y372.983 Z-5.465
X200.471 Y372.992 Z-5.482
X200.452 Y372.987 Z-5.5
X200.443 Y372.971 Z-5.518
X200.447 Y372.953 Z-5.535
X200.464 Y372.943 Z-5.553
X200.482 Y372.947 Z-5.57
X200.492 Y372.963 Z-5.588
X200.488 Y372.982 Z-5.605
X200.472 Y372.992 Z-5.623
X200.453 Y372.988 Z-5.64
