(Outcut 3mm 4 flute Endmill)
(T6 D=3. CR=0. - ZMIN=-12.5 - flat end mill)
G90
(When using Fusion for Personal Use, the feedrate of rapid)
(moves is reduced to match the feedrate of cutting moves,)
(which can increase machining time. Unrestricted rapid moves)
(are available with a Fusion Subscription.)
G53 G0 Z0.

(2D Contour2)
T6 M6 (flat end mill D=3. Flat Endmill (4 flutes))
S12000 M3
G64
G90 G94
G54
M8
G43 H6
G0 X423.043 Y566.6
Z15.
G1 Z5. F1206
Z0.6 F402
Z-12.2
Y566.608 Z-12.267 F1206
Y566.63 Z-12.33
Y566.665 Z-12.387
Y566.713 Z-12.435
Y566.77 Z-12.47
Y566.833 Z-12.492
Y566.9 Z-12.5
Y567.2
G3 X422.743 Y567.5 I-0.3 J0.
G2 X421.682 Y567.94 I0. J1.5
G3 X419.56 I-1.061 J-1.061
X419.121 Y566.879 I1.061 J-1.061
X419.56 Y565.818 I1.5 J0.
G2 X420. Y564.757 I-1.06 J-1.061
G1 Y507.412
Z-11.75
Y501.412
Z-12.5 F402
Y465.243 F1206
G2 X419.56 Y464.182 I-1.5 J0.
G3 Y462.06 I1.061 J-1.061
X420.621 Y461.621 I1.061 J1.061
X421.682 Y462.06 I0. J1.5
G2 X422.743 Y462.5 I1.061 J-1.06
G1 X430.5
G2 X432. Y461. I0. J-1.5
G1 Y418.784
Z-11.75
Y412.784
Z-12.5 F402
Y365. F1206
G2 X430.5 Y363.5 I-1.5 J0.
G1 X382.716
Z-11.75
X376.716
Z-12.5 F402
X294.076 F1206
G2 X293.015 Y363.94 I0. J1.5
G3 X290.893 I-1.061 J-1.061
X290.454 Y362.879 I1.061 J-1.061
X290.893 Y361.818 I1.5 J0.
G2 X291.333 Y360.757 I-1.06 J-1.061
G1 Y357.255
Z-11.75
Y353.
G2 X289.833 Y351.5 I-1.5 J0.
G1 X288.333
Z-12.5 F402
X192.52 F1206
Z-11.75
X186.52
Z-12.5 F402
X161.167 F1206
G2 X159.667 Y353. I0. J1.5
G1 Y360.757
G2 X160.106 Y361.817 I1.5 J0.
G3 Y363.939 I-1.061 J1.061
X157.984 I-1.061 J-1.061
G2 X156.924 Y363.5 I-1.06 J1.061
G1 X103.892
Z-11.75
X97.892
Z-12.5 F402
X20.5 F1206
G2 X19. Y365. I0. J1.5
G1 Y383.176
Z-11.75
Y389.176
Z-12.5 F402
Y461. F1206
G2 X20.5 Y462.5 I1.5 J0.
G1 X28.257
G2 X29.318 Y462.061 I0. J-1.5
G3 X31.44 Y462.06 I1.061 J1.061
X31.879 Y463.121 I-1.061 J1.061
X31.44 Y464.182 I-1.5 J0.
G2 X31. Y465.243 I1.06 J1.061
G1 Y471.804
Z-11.75
Y477.804
Z-12.5 F402
Y564.757 F1206
G2 X31.44 Y565.818 I1.5 J0.
G3 Y567.939 I-1.061 J1.061
X30.379 Y568.379 I-1.061 J-1.061
X29.318 Y567.939 I0. J-1.5
G2 X29.068 Y567.738 I-1.061 J1.061
G1 Z-11.75
G2 X28.257 Y567.5 I-0.81 J1.262
G1 X23.068
Z-12.5 F402
X20.5 F1206
G2 X19. Y569. I0. J1.5
G1 Y662.
Z-11.75
Y665.
G2 X20.5 Y666.5 I1.5 J0.
G1 X22.
Z-12.5 F402
X119.068 F1206
Z-11.75
X125.068
Z-12.5 F402
X156.924 F1206
G2 X157.985 Y666.06 I0. J-1.5
G3 X160.107 I1.061 J1.061
X160.546 Y667.121 I-1.061 J1.061
X160.107 Y668.182 I-1.5 J0.
G2 X159.667 Y669.243 I1.06 J1.061
G1 Y677.
G2 X161.167 Y678.5 I1.5 J0.
G1 X207.696
Z-11.75
X213.696
Z-12.5 F402
X289.833 F1206
G2 X291.333 Y677. I0. J-1.5
G1 Y669.243
G2 X290.893 Y668.182 I-1.5 J0.
G3 Y666.06 I1.061 J-1.061
X291.954 Y665.621 I1.061 J1.061
X293.015 Y666.06 I0. J1.5
G2 X294.076 Y666.5 I1.061 J-1.06
G1 X296.324
Z-11.75
X302.324
Z-12.5 F402
X397.892 F1206
Z-11.75
X403.892
Z-12.5 F402
X430.5 F1206
G2 X432. Y665. I0. J-1.5
G1 Y596.04
Z-11.75
Y590.04
Z-12.5 F402
Y569. F1206
G2 X430.5 Y567.5 I-1.5 J0.
G1 X422.743
G3 X422.443 Y567.2 I0. J-0.3
G1 Y566.9
Y566.833 Z-12.492
Y566.77 Z-12.47
Y566.713 Z-12.435
Y566.665 Z-12.387
Y566.63 Z-12.33
Y566.608 Z-12.267
Y566.6 Z-12.2
Z5.
X453.1 Y478.021
Z0.6 F402
Z-12.2
X453.108 Z-12.267 F1206
X453.13 Z-12.33
X453.165 Z-12.387
X453.213 Z-12.435
X453.27 Z-12.47
X453.333 Z-12.492
X453.4 Z-12.5
X453.7
G3 X454. Y478.32 I0. J0.3
G1 Y523.435
Z-11.75
Y529.435
Z-12.5 F402
Y624.453 F1206
Z-11.75
Y630.453
Z-12.5 F402
Y725.47 F1206
Z-11.75
Y731.47
Z-12.5 F402
Y817. F1206
G2 X461.5 Y824.5 I7.5 J0.
G1 X461.563
Z-11.75
X467.563
Z-12.5 F402
X534.167 F1206
G3 X535.667 Y826. I0. J1.5
G1 Y829.
G2 X543.167 Y836.5 I7.5 J0.
G1 X554.444
Z-11.75
X560.444
Z-12.5 F402
X655.462 F1206
Z-11.75
X661.462
Z-12.5 F402
X691.833 F1206
G2 X699.333 Y829. I0. J-7.5
G1 Y826.
G3 X700.833 Y824.5 I1.5 J0.
G1 X748.342
Z-11.75
X754.342
Z-12.5 F402
X773.5 F1206
G2 X781. Y817. I0. J-7.5
G1 Y750.565
Z-11.75
Y744.565
Z-12.5 F402
Y649.547 F1206
Z-11.75
Y643.547
Z-12.5 F402
Y548.529 F1206
Z-11.75
Y542.529
Z-12.5 F402
Y457. F1206
G2 X773.5 Y449.5 I-7.5 J0.
G1 X773.437
Z-11.75
X767.437
Z-12.5 F402
X700.833 F1206
G2 X696.333 Y454. I0. J4.5
G1 Y457.
G3 X691.833 Y461.5 I-4.5 J0.
G1 X680.556
Z-11.75
X674.556
Z-12.5 F402
X579.538 F1206
Z-11.75
X573.538
Z-12.5 F402
X543.167 F1206
G3 X538.667 Y457. I0. J-4.5
G1 Y454.
G2 X534.167 Y449.5 I-4.5 J0.
G1 X486.658
Z-11.75
X480.658
Z-12.5 F402
X461.5 F1206
G2 X454. Y457. I0. J7.5
G1 Y478.32
G3 X453.7 Y478.621 I-0.3 J0.
G1 X453.4
X453.333 Z-12.492
X453.27 Z-12.47
X453.213 Z-12.435
X453.165 Z-12.387
X453.13 Z-12.33
X453.108 Z-12.267
X453.1 Z-12.2
Z5.
X454.613 Y416.25
Z0.6 F402
Z-12.2
X454.615 Y416.243 Z-12.267 F1206
X454.621 Y416.222 Z-12.33
X454.63 Y416.187 Z-12.387
X454.641 Y416.141 Z-12.435
X454.656 Y416.086 Z-12.47
X454.671 Y416.024 Z-12.492
X454.688 Y415.96 Z-12.5
X454.762 Y415.669
G3 X455.128 Y415.453 I0.291 J0.074
G2 X455.5 Y415.5 I0.372 J-1.453
G1 X544.924
G2 X545.984 Y415.061 I0. J-1.5
G3 X548.106 I1.061 J1.061
Y417.183 I-1.061 J1.061
G2 X547.667 Y418.243 I1.061 J1.06
G1 Y419.899
Z-11.75
Y425.899
Z-12.5 F402
Y426. F1206
G2 X549.167 Y427.5 I1.5 J0.
G1 X648.325
Z-11.75
X654.325
Z-12.5 F402
X685.833 F1206
G2 X687.333 Y426. I0. J-1.5
G1 Y418.243
G2 X686.894 Y417.183 I-1.5 J0.
G3 Y415.061 I1.061 J-1.061
X689.016 I1.061 J1.061
G2 X690.076 Y415.5 I1.06 J-1.061
G1 X740.645
Z-11.75
X746.645
Z-12.5 F402
X767.5 F1206
G2 X769. Y414. I0. J-1.5
G1 Y335.595
Z-11.75
Y329.595
Z-12.5 F402
Y285.333 F1206
G2 X767.5 Y283.833 I-1.5 J0.
G1 X759.743
G2 X758.682 Y284.273 I0. J1.5
G3 X756.561 I-1.061 J-1.06
X756.121 Y283.213 I1.06 J-1.061
X756.561 Y282.152 I1.5 J0.
G2 X757. Y281.091 I-1.061 J-1.061
G1 Y243.275
Z-11.75
Y237.275
Z-12.5 F402
Y160.909 F1206
G2 X756.561 Y159.848 I-1.5 J0.
G3 Y157.727 I1.061 J-1.061
X757.621 Y157.288 I1.061 J1.061
X758.682 Y157.727 I0. J1.5
G2 X759.743 Y158.167 I1.061 J-1.06
G1 X767.5
G2 X769. Y156.667 I0. J-1.5
G1 Y150.954
Z-11.75
Y144.954
Z-12.5 F402
Y45.694 F1206
Z-11.75
Y39.694
Z-12.5 F402
Y28. F1206
G2 X767.5 Y26.5 I-1.5 J0.
G1 X690.076
G2 X689.015 Y26.939 I0. J1.5
G3 X686.894 I-1.061 J-1.061
Y24.818 I1.061 J-1.061
G2 X687.333 Y23.757 I-1.061 J-1.06
G1 Y23.041
Z-11.75
Y17.041
Z-12.5 F402
Y16. F1206
G2 X685.833 Y14.5 I-1.5 J0.
G1 X587.614
Z-11.75
X581.614
Z-12.5 F402
X549.167 F1206
G2 X547.667 Y16. I0. J1.5
G1 Y23.757
G2 X548.106 Y24.818 I1.5 J0.
G3 Y26.939 I-1.061 J1.061
X545.985 I-1.061 J-1.061
G2 X544.924 Y26.5 I-1.061 J1.061
G1 X495.294
Z-11.75
X489.294
Z-12.5 F402
X455.5 F1206
G2 X454. Y28. I0. J1.5
G1 Y93.466
Z-11.75
Y99.466
Z-12.5 F402
Y198.725 F1206
Z-11.75
Y204.725
Z-12.5 F402
Y303.985 F1206
Z-11.75
Y309.985
Z-12.5 F402
Y409.245 F1206
Z-11.75
Y414.
G2 X454.663 Y415.245 I1.5 J0.
G1 Z-12.5 F402
G2 X455.128 Y415.453 I0.837 J-1.245 F1206
G3 X455.344 Y415.818 I-0.074 J0.291
G1 X455.269 Y416.109
X455.253 Y416.173 Z-12.492
X455.237 Y416.235 Z-12.47
X455.223 Y416.29 Z-12.435
X455.211 Y416.336 Z-12.387
X455.202 Y416.371 Z-12.33
X455.196 Y416.392 Z-12.267
X455.195 Y416.399 Z-12.2
Z5.
X430.915 Y330.383
Z0.6 F402
Z-12.2
X430.912 Y330.376 Z-12.267 F1206
X430.906 Y330.354 Z-12.33
X430.896 Y330.32 Z-12.387
X430.882 Y330.275 Z-12.435
X430.865 Y330.22 Z-12.47
X430.847 Y330.16 Z-12.492
X430.827 Y330.096 Z-12.5
X430.739 Y329.809
G3 X430.938 Y329.434 I0.287 J-0.088
G2 X432. Y328. I-0.438 J-1.434
G1 Y276.857
Z-11.75
Y270.857
Z-12.5 F402
Y173.714 F1206
Z-11.75
Y167.714
Z-12.5 F402
Y70.571 F1206
Z-11.75
Y64.571
Z-12.5 F402
Y16. F1206
G2 X430.5 Y14.5 I-1.5 J0.
G1 X381.929
Z-11.75
X375.929
Z-12.5 F402
X278.786 F1206
Z-11.75
X272.786
Z-12.5 F402
X175.643 F1206
Z-11.75
X169.643
Z-12.5 F402
X72.5 F1206
Z-11.75
X66.5
Z-12.5 F402
X20.5 F1206
G2 X19. Y16. I0. J1.5
G1 Y67.143
Z-11.75
Y73.143
Z-12.5 F402
Y170.286 F1206
Z-11.75
Y176.286
Z-12.5 F402
Y273.429 F1206
Z-11.75
Y279.429
Z-12.5 F402
Y328. F1206
G2 X20.5 Y329.5 I1.5 J0.
G1 X69.071
Z-11.75
X75.071
Z-12.5 F402
X172.214 F1206
Z-11.75
X178.214
Z-12.5 F402
X275.357 F1206
Z-11.75
X281.357
Z-12.5 F402
X378.5 F1206
Z-11.75
X384.5
Z-12.5 F402
X430.5 F1206
G2 X430.938 Y329.434 I0. J-1.5
G3 X431.313 Y329.634 I0.088 J0.287
G1 X431.401 Y329.921
X431.42 Y329.984 Z-12.492
X431.439 Y330.045 Z-12.47
X431.455 Y330.099 Z-12.435
X431.469 Y330.145 Z-12.387
X431.48 Y330.179 Z-12.33
X431.486 Y330.2 Z-12.267
X431.488 Y330.207 Z-12.2
Z5.
X327.007 Y711.6
Z0.6 F402
Z-12.2
Y711.608 Z-12.267 F1206
Y711.63 Z-12.33
Y711.665 Z-12.387
Y711.713 Z-12.435
Y711.77 Z-12.47
Y711.833 Z-12.492
Y711.9 Z-12.5
Y712.2
G3 X326.707 Y712.5 I-0.3 J0.
G1 X282.87
Z-11.75
X276.87
Z-12.5 F402
X243.076 F1206
G2 X242.015 Y712.94 I0. J1.5
G3 X239.893 I-1.061 J-1.061
X239.454 Y711.879 I1.061 J-1.061
X239.893 Y710.818 I1.5 J0.
G2 X240.333 Y709.757 I-1.06 J-1.061
G1 Y702.
G2 X238.833 Y700.5 I-1.5 J0.
G1 X190.55
Z-11.75
X184.55
Z-12.5 F402
X102.167 F1206
G2 X100.667 Y702. I0. J1.5
G1 Y709.757
G2 X101.107 Y710.818 I1.5 J0.
G3 Y712.94 I-1.061 J1.061
X100.046 Y713.379 I-1.061 J-1.061
X98.985 Y712.94 I0. J-1.5
G2 X98.229 Y712.531 I-1.061 J1.06
G1 Z-11.75
G2 X97.924 Y712.5 I-0.305 J1.469
G1 X92.229
Z-12.5 F402
X20.5 F1206
G2 X19. Y714. I0. J1.5
G1 Y741.53
Z-11.75
Y747.53
Z-12.5 F402
Y842.667 F1206
G2 X20.5 Y844.167 I1.5 J0.
G1 X24.623
Z-11.75
X28.257
G2 X29.318 Y843.728 I0. J-1.5
G3 X30.623 Y843.308 I1.061 J1.06
G1 Z-12.5 F402
G3 X31.858 Y845.033 I-0.245 J1.48 F1206
X31.439 Y845.848 I-1.48 J-0.245
G2 X31. Y846.909 I1.061 J1.061
G1 Y939.11
Z-11.75
Y945.11
Z-12.5 F402
Y967.091 F1206
G2 X31.439 Y968.152 I1.5 J0.
G3 Y970.273 I-1.061 J1.06
X29.318 Y970.272 I-1.06 J-1.061
G2 X28.257 Y969.833 I-1.061 J1.061
G1 X20.5
G2 X19. Y971.333 I0. J1.5
G1 Y1031.43
Z-11.75
Y1037.43
Z-12.5 F402
Y1100. F1206
G2 X20.5 Y1101.5 I1.5 J0.
G1 X57.19
Z-11.75
X63.19
Z-12.5 F402
X97.924 F1206
G2 X98.985 Y1101.06 I0. J-1.5
G3 X101.105 I1.06 J1.06
X101.106 Y1103.18 I-1.06 J1.06
G2 X100.667 Y1104.24 I1.061 J1.06
G1 Y1112.
G2 X102.167 Y1113.5 I1.5 J0.
G1 X149.511
Z-11.75
X155.511
Z-12.5 F402
X238.833 F1206
G2 X240.333 Y1112. I0. J-1.5
G1 Y1104.24
G2 X239.894 Y1103.18 I-1.5 J0.
G3 X239.895 Y1101.06 I1.061 J-1.06
X241.831 Y1100.904 I1.06 J1.061
G1 Z-11.75
X241.926 Y1100.978
X242.015 Y1101.06
G2 X243.076 Y1101.5 I1.061 J-1.06
G1 X247.831
Z-12.5 F402
X332.5 F1206
G2 X334. Y1100. I0. J-1.5
G1 Y1085.41
Z-11.75
Y1079.41
Z-12.5 F402
Y980.149 F1206
Z-11.75
Y974.149
Z-12.5 F402
Y874.89 F1206
Z-11.75
Y868.89
Z-12.5 F402
Y769.63 F1206
Z-11.75
Y763.63
Z-12.5 F402
Y714. F1206
G2 X332.5 Y712.5 I-1.5 J0.
G1 X326.707
G3 X326.407 Y712.2 I0. J-0.3
G1 Y711.9
Y711.833 Z-12.492
Y711.77 Z-12.47
Y711.713 Z-12.435
Y711.665 Z-12.387
Y711.63 Z-12.33
Y711.608 Z-12.267
Y711.6 Z-12.2
Z5.
X411.361 Y857.871
Z0.6 F402
Z-12.2
X411.363 Y857.879 Z-12.267 F1206
X411.369 Y857.9 Z-12.33
X411.379 Y857.934 Z-12.387
X411.393 Y857.98 Z-12.435
X411.41 Y858.034 Z-12.47
X411.428 Y858.095 Z-12.492
X411.447 Y858.159 Z-12.5
X411.534 Y858.446
G3 X411.333 Y858.82 I-0.287 J0.087
G2 X406. Y866. I2.167 J7.18
G1 Y938.667
G3 X404.5 Y940.167 I-1.5 J0.
G1 X401.5
G2 X398.688 Y940.714 I0. J7.5
G1 Z-11.75
G2 X394.49 Y945.001 I2.812 J6.953
G1 Z-12.5 F402
G2 X394. Y947.667 I7.01 J2.666 F1206
G1 Y1041.04
Z-11.75
Y1047.04
Z-12.5 F402
Y1096.33 F1206
G2 X401.5 Y1103.83 I7.5 J0.
G1 X404.5
G3 X406. Y1105.33 I0. J1.5
G1 Y1133.92
Z-11.75
Y1139.92
Z-12.5 F402
Y1178. F1206
G2 X413.5 Y1185.5 I7.5 J0.
G1 X461.009
Z-11.75
X467.009
Z-12.5 F402
X562.027 F1206
Z-11.75
X568.027
Z-12.5 F402
X663.044 F1206
Z-11.75
X669.044
Z-12.5 F402
X764.062 F1206
Z-11.75
X770.062
Z-12.5 F402
X773.5 F1206
G2 X781. Y1178. I0. J-7.5
G1 Y1105.33
G2 X776.5 Y1100.83 I-4.5 J0.
G1 X773.5
G3 X773.204 Y1100.82 I0. J-4.5
G1 Z-11.75
G3 X769.005 Y1096.535 I0.296 J-4.49
G1 Z-12.5 F402
X769. Y1096.33 F1206
Y1002.965
Z-11.75
Y996.965
Z-12.5 F402
Y947.667 F1206
G3 X773.5 Y943.167 I4.5 J0.
G1 X776.5
G2 X781. Y938.667 I0. J-4.5
G1 Y910.084
Z-11.75
Y904.084
Z-12.5 F402
Y866. F1206
G2 X773.5 Y858.5 I-7.5 J0.
G1 X725.991
Z-11.75
X719.991
Z-12.5 F402
X624.973 F1206
Z-11.75
X618.973
Z-12.5 F402
X523.956 F1206
Z-11.75
X517.956
Z-12.5 F402
X422.938 F1206
Z-11.75
X416.938
Z-12.5 F402
X413.5 F1206
G2 X411.333 Y858.82 I0. J7.5
G3 X411.105 Y858.797 I-0.087 J-0.287
X410.959 Y858.619 I0.142 J-0.264
G1 X410.873 Y858.332
X410.854 Y858.268 Z-12.492
X410.835 Y858.207 Z-12.47
X410.819 Y858.153 Z-12.435
X410.805 Y858.107 Z-12.387
X410.795 Y858.073 Z-12.33
X410.788 Y858.052 Z-12.267
X410.786 Y858.045 Z-12.2
Z15.
M9
M5
G53 G0 Z0.
M30
